public/luts/cool.cube
# Cool Tone
# Generated sample LUT for demo
LUT_3D_SIZE 9
0.000000 0.020000 0.100000
0.062500 0.020000 0.100000
0.175000 0.020000 0.100000
0.287500 0.020000 0.100000
0.400000 0.020000 0.100000
0.512500 0.020000 0.100000
0.625000 0.020000 0.100000
0.737500 0.020000 0.100000
0.850000 0.020000 0.100000
0.000000 0.151250 0.100000
0.062500 0.151250 0.100000
0.175000 0.151250 0.100000
0.287500 0.151250 0.100000
0.400000 0.151250 0.100000
0.512500 0.151250 0.100000
0.625000 0.151250 0.100000
0.737500 0.151250 0.100000
0.850000 0.151250 0.100000
0.000000 0.282500 0.100000
0.062500 0.282500 0.100000
0.175000 0.282500 0.100000
0.287500 0.282500 0.100000
0.400000 0.282500 0.100000
0.512500 0.282500 0.100000
0.625000 0.282500 0.100000
0.737500 0.282500 0.100000
0.850000 0.282500 0.100000
0.000000 0.413750 0.100000
0.062500 0.413750 0.100000
0.175000 0.413750 0.100000
0.287500 0.413750 0.100000
0.400000 0.413750 0.100000
0.512500 0.413750 0.100000
0.625000 0.413750 0.100000
0.737500 0.413750 0.100000
0.850000 0.413750 0.100000
0.000000 0.545000 0.100000
0.062500 0.545000 0.100000
0.175000 0.545000 0.100000
0.287500 0.545000 0.100000
0.400000 0.545000 0.100000
0.512500 0.545000 0.100000
0.625000 0.545000 0.100000
0.737500 0.545000 0.100000
0.850000 0.545000 0.100000
0.000000 0.676250 0.100000
0.062500 0.676250 0.100000
0.175000 0.676250 0.100000
0.287500 0.676250 0.100000
0.400000 0.676250 0.100000
0.512500 0.676250 0.100000
0.625000 0.676250 0.100000
0.737500 0.676250 0.100000
0.850000 0.676250 0.100000
0.000000 0.807500 0.100000
0.062500 0.807500 0.100000
0.175000 0.807500 0.100000
0.287500 0.807500 0.100000
0.400000 0.807500 0.100000
0.512500 0.807500 0.100000
0.625000 0.807500 0.100000
0.737500 0.807500 0.100000
0.850000 0.807500 0.100000
0.000000 0.938750 0.100000
0.062500 0.938750 0.100000
0.175000 0.938750 0.100000
0.287500 0.938750 0.100000
0.400000 0.938750 0.100000
0.512500 0.938750 0.100000
0.625000 0.938750 0.100000
0.737500 0.938750 0.100000
0.850000 0.938750 0.100000
0.000000 1.000000 0.100000
0.062500 1.000000 0.100000
0.175000 1.000000 0.100000
0.287500 1.000000 0.100000
0.400000 1.000000 0.100000
0.512500 1.000000 0.100000
0.625000 1.000000 0.100000
0.737500 1.000000 0.100000
0.850000 1.000000 0.100000
0.000000 0.020000 0.243750
0.062500 0.020000 0.243750
0.175000 0.020000 0.243750
0.287500 0.020000 0.243750
0.400000 0.020000 0.243750
0.512500 0.020000 0.243750
0.625000 0.020000 0.243750
0.737500 0.020000 0.243750
0.850000 0.020000 0.243750
0.000000 0.151250 0.243750
0.062500 0.151250 0.243750
0.175000 0.151250 0.243750
0.287500 0.151250 0.243750
0.400000 0.151250 0.243750
0.512500 0.151250 0.243750
0.625000 0.151250 0.243750
0.737500 0.151250 0.243750
0.850000 0.151250 0.243750
0.000000 0.282500 0.243750
0.062500 0.282500 0.243750
0.175000 0.282500 0.243750
0.287500 0.282500 0.243750
0.400000 0.282500 0.243750
0.512500 0.282500 0.243750
0.625000 0.282500 0.243750
0.737500 0.282500 0.243750
0.850000 0.282500 0.243750
0.000000 0.413750 0.243750
0.062500 0.413750 0.243750
0.175000 0.413750 0.243750
0.287500 0.413750 0.243750
0.400000 0.413750 0.243750
0.512500 0.413750 0.243750
0.625000 0.413750 0.243750
0.737500 0.413750 0.243750
0.850000 0.413750 0.243750
0.000000 0.545000 0.243750
0.062500 0.545000 0.243750
0.175000 0.545000 0.243750
0.287500 0.545000 0.243750
0.400000 0.545000 0.243750
0.512500 0.545000 0.243750
0.625000 0.545000 0.243750
0.737500 0.545000 0.243750
0.850000 0.545000 0.243750
0.000000 0.676250 0.243750
0.062500 0.676250 0.243750
0.175000 0.676250 0.243750
0.287500 0.676250 0.243750
0.400000 0.676250 0.243750
0.512500 0.676250 0.243750
0.625000 0.676250 0.243750
0.737500 0.676250 0.243750
0.850000 0.676250 0.243750
0.000000 0.807500 0.243750
0.062500 0.807500 0.243750
0.175000 0.807500 0.243750
0.287500 0.807500 0.243750
0.400000 0.807500 0.243750
0.512500 0.807500 0.243750
0.625000 0.807500 0.243750
0.737500 0.807500 0.243750
0.850000 0.807500 0.243750
0.000000 0.938750 0.243750
0.062500 0.938750 0.243750
0.175000 0.938750 0.243750
0.287500 0.938750 0.243750
0.400000 0.938750 0.243750
0.512500 0.938750 0.243750
0.625000 0.938750 0.243750
0.737500 0.938750 0.243750
0.850000 0.938750 0.243750
0.000000 1.000000 0.243750
0.062500 1.000000 0.243750
0.175000 1.000000 0.243750
0.287500 1.000000 0.243750
0.400000 1.000000 0.243750
0.512500 1.000000 0.243750
0.625000 1.000000 0.243750
0.737500 1.000000 0.243750
0.850000 1.000000 0.243750
0.000000 0.020000 0.387500
0.062500 0.020000 0.387500
0.175000 0.020000 0.387500
0.287500 0.020000 0.387500
0.400000 0.020000 0.387500
0.512500 0.020000 0.387500
0.625000 0.020000 0.387500
0.737500 0.020000 0.387500
0.850000 0.020000 0.387500
0.000000 0.151250 0.387500
0.062500 0.151250 0.387500
0.175000 0.151250 0.387500
0.287500 0.151250 0.387500
0.400000 0.151250 0.387500
0.512500 0.151250 0.387500
0.625000 0.151250 0.387500
0.737500 0.151250 0.387500
0.850000 0.151250 0.387500
0.000000 0.282500 0.387500
0.062500 0.282500 0.387500
0.175000 0.282500 0.387500
0.287500 0.282500 0.387500
0.400000 0.282500 0.387500
0.512500 0.282500 0.387500
0.625000 0.282500 0.387500
0.737500 0.282500 0.387500
0.850000 0.282500 0.387500
0.000000 0.413750 0.387500
0.062500 0.413750 0.387500
0.175000 0.413750 0.387500
0.287500 0.413750 0.387500
0.400000 0.413750 0.387500
0.512500 0.413750 0.387500
0.625000 0.413750 0.387500
0.737500 0.413750 0.387500
0.850000 0.413750 0.387500
0.000000 0.545000 0.387500
0.062500 0.545000 0.387500
0.175000 0.545000 0.387500
0.287500 0.545000 0.387500
0.400000 0.545000 0.387500
0.512500 0.545000 0.387500
0.625000 0.545000 0.387500
0.737500 0.545000 0.387500
0.850000 0.545000 0.387500
0.000000 0.676250 0.387500
0.062500 0.676250 0.387500
0.175000 0.676250 0.387500
0.287500 0.676250 0.387500
0.400000 0.676250 0.387500
0.512500 0.676250 0.387500
0.625000 0.676250 0.387500
0.737500 0.676250 0.387500
0.850000 0.676250 0.387500
0.000000 0.807500 0.387500
0.062500 0.807500 0.387500
0.175000 0.807500 0.387500
0.287500 0.807500 0.387500
0.400000 0.807500 0.387500
0.512500 0.807500 0.387500
0.625000 0.807500 0.387500
0.737500 0.807500 0.387500
0.850000 0.807500 0.387500
0.000000 0.938750 0.387500
0.062500 0.938750 0.387500
0.175000 0.938750 0.387500
0.287500 0.938750 0.387500
0.400000 0.938750 0.387500
0.512500 0.938750 0.387500
0.625000 0.938750 0.387500
0.737500 0.938750 0.387500
0.850000 0.938750 0.387500
0.000000 1.000000 0.387500
0.062500 1.000000 0.387500
0.175000 1.000000 0.387500
0.287500 1.000000 0.387500
0.400000 1.000000 0.387500
0.512500 1.000000 0.387500
0.625000 1.000000 0.387500
0.737500 1.000000 0.387500
0.850000 1.000000 0.387500
0.000000 0.020000 0.531250
0.062500 0.020000 0.531250
0.175000 0.020000 0.531250
0.287500 0.020000 0.531250
0.400000 0.020000 0.531250
0.512500 0.020000 0.531250
0.625000 0.020000 0.531250
0.737500 0.020000 0.531250
0.850000 0.020000 0.531250
0.000000 0.151250 0.531250
0.062500 0.151250 0.531250
0.175000 0.151250 0.531250
0.287500 0.151250 0.531250
0.400000 0.151250 0.531250
0.512500 0.151250 0.531250
0.625000 0.151250 0.531250
0.737500 0.151250 0.531250
0.850000 0.151250 0.531250
0.000000 0.282500 0.531250
0.062500 0.282500 0.531250
0.175000 0.282500 0.531250
0.287500 0.282500 0.531250
0.400000 0.282500 0.531250
0.512500 0.282500 0.531250
0.625000 0.282500 0.531250
0.737500 0.282500 0.531250
0.850000 0.282500 0.531250
0.000000 0.413750 0.531250
0.062500 0.413750 0.531250
0.175000 0.413750 0.531250
0.287500 0.413750 0.531250
0.400000 0.413750 0.531250
0.512500 0.413750 0.531250
0.625000 0.413750 0.531250
0.737500 0.413750 0.531250
0.850000 0.413750 0.531250
0.000000 0.545000 0.531250
0.062500 0.545000 0.531250
0.175000 0.545000 0.531250
0.287500 0.545000 0.531250
0.400000 0.545000 0.531250
0.512500 0.545000 0.531250
0.625000 0.545000 0.531250
0.737500 0.545000 0.531250
0.850000 0.545000 0.531250
0.000000 0.676250 0.531250
0.062500 0.676250 0.531250
0.175000 0.676250 0.531250
0.287500 0.676250 0.531250
0.400000 0.676250 0.531250
0.512500 0.676250 0.531250
0.625000 0.676250 0.531250
0.737500 0.676250 0.531250
0.850000 0.676250 0.531250
0.000000 0.807500 0.531250
0.062500 0.807500 0.531250
0.175000 0.807500 0.531250
0.287500 0.807500 0.531250
0.400000 0.807500 0.531250
0.512500 0.807500 0.531250
0.625000 0.807500 0.531250
0.737500 0.807500 0.531250
0.850000 0.807500 0.531250
0.000000 0.938750 0.531250
0.062500 0.938750 0.531250
0.175000 0.938750 0.531250
0.287500 0.938750 0.531250
0.400000 0.938750 0.531250
0.512500 0.938750 0.531250
0.625000 0.938750 0.531250
0.737500 0.938750 0.531250
0.850000 0.938750 0.531250
0.000000 1.000000 0.531250
0.062500 1.000000 0.531250
0.175000 1.000000 0.531250
0.287500 1.000000 0.531250
0.400000 1.000000 0.531250
0.512500 1.000000 0.531250
0.625000 1.000000 0.531250
0.737500 1.000000 0.531250
0.850000 1.000000 0.531250
0.000000 0.020000 0.675000
0.062500 0.020000 0.675000
0.175000 0.020000 0.675000
0.287500 0.020000 0.675000
0.400000 0.020000 0.675000
0.512500 0.020000 0.675000
0.625000 0.020000 0.675000
0.737500 0.020000 0.675000
0.850000 0.020000 0.675000
0.000000 0.151250 0.675000
0.062500 0.151250 0.675000
0.175000 0.151250 0.675000
0.287500 0.151250 0.675000
0.400000 0.151250 0.675000
0.512500 0.151250 0.675000
0.625000 0.151250 0.675000
0.737500 0.151250 0.675000
0.850000 0.151250 0.675000
0.000000 0.282500 0.675000
0.062500 0.282500 0.675000
0.175000 0.282500 0.675000
0.287500 0.282500 0.675000
0.400000 0.282500 0.675000
0.512500 0.282500 0.675000
0.625000 0.282500 0.675000
0.737500 0.282500 0.675000
0.850000 0.282500 0.675000
0.000000 0.413750 0.675000
0.062500 0.413750 0.675000
0.175000 0.413750 0.675000
0.287500 0.413750 0.675000
0.400000 0.413750 0.675000
0.512500 0.413750 0.675000
0.625000 0.413750 0.675000
0.737500 0.413750 0.675000
0.850000 0.413750 0.675000
0.000000 0.545000 0.675000
0.062500 0.545000 0.675000
0.175000 0.545000 0.675000
0.287500 0.545000 0.675000
0.400000 0.545000 0.675000
0.512500 0.545000 0.675000
0.625000 0.545000 0.675000
0.737500 0.545000 0.675000
0.850000 0.545000 0.675000
0.000000 0.676250 0.675000
0.062500 0.676250 0.675000
0.175000 0.676250 0.675000
0.287500 0.676250 0.675000
0.400000 0.676250 0.675000
0.512500 0.676250 0.675000
0.625000 0.676250 0.675000
0.737500 0.676250 0.675000
0.850000 0.676250 0.675000
0.000000 0.807500 0.675000
0.062500 0.807500 0.675000
0.175000 0.807500 0.675000
0.287500 0.807500 0.675000
0.400000 0.807500 0.675000
0.512500 0.807500 0.675000
0.625000 0.807500 0.675000
0.737500 0.807500 0.675000
0.850000 0.807500 0.675000
0.000000 0.938750 0.675000
0.062500 0.938750 0.675000
0.175000 0.938750 0.675000
0.287500 0.938750 0.675000
0.400000 0.938750 0.675000
0.512500 0.938750 0.675000
0.625000 0.938750 0.675000
0.737500 0.938750 0.675000
0.850000 0.938750 0.675000
0.000000 1.000000 0.675000
0.062500 1.000000 0.675000
0.175000 1.000000 0.675000
0.287500 1.000000 0.675000
0.400000 1.000000 0.675000
0.512500 1.000000 0.675000
0.625000 1.000000 0.675000
0.737500 1.000000 0.675000
0.850000 1.000000 0.675000
0.000000 0.020000 0.818750
0.062500 0.020000 0.818750
0.175000 0.020000 0.818750
0.287500 0.020000 0.818750
0.400000 0.020000 0.818750
0.512500 0.020000 0.818750
0.625000 0.020000 0.818750
0.737500 0.020000 0.818750
0.850000 0.020000 0.818750
0.000000 0.151250 0.818750
0.062500 0.151250 0.818750
0.175000 0.151250 0.818750
0.287500 0.151250 0.818750
0.400000 0.151250 0.818750
0.512500 0.151250 0.818750
0.625000 0.151250 0.818750
0.737500 0.151250 0.818750
0.850000 0.151250 0.818750
0.000000 0.282500 0.818750
0.062500 0.282500 0.818750
0.175000 0.282500 0.818750
0.287500 0.282500 0.818750
0.400000 0.282500 0.818750
0.512500 0.282500 0.818750
0.625000 0.282500 0.818750
0.737500 0.282500 0.818750
0.850000 0.282500 0.818750
0.000000 0.413750 0.818750
0.062500 0.413750 0.818750
0.175000 0.413750 0.818750
0.287500 0.413750 0.818750
0.400000 0.413750 0.818750
0.512500 0.413750 0.818750
0.625000 0.413750 0.818750
0.737500 0.413750 0.818750
0.850000 0.413750 0.818750
0.000000 0.545000 0.818750
0.062500 0.545000 0.818750
0.175000 0.545000 0.818750
0.287500 0.545000 0.818750
0.400000 0.545000 0.818750
0.512500 0.545000 0.818750
0.625000 0.545000 0.818750
0.737500 0.545000 0.818750
0.850000 0.545000 0.818750
0.000000 0.676250 0.818750
0.062500 0.676250 0.818750
0.175000 0.676250 0.818750
0.287500 0.676250 0.818750
0.400000 0.676250 0.818750
0.512500 0.676250 0.818750
0.625000 0.676250 0.818750
0.737500 0.676250 0.818750
0.850000 0.676250 0.818750
0.000000 0.807500 0.818750
0.062500 0.807500 0.818750
0.175000 0.807500 0.818750
0.287500 0.807500 0.818750
0.400000 0.807500 0.818750
0.512500 0.807500 0.818750
0.625000 0.807500 0.818750
0.737500 0.807500 0.818750
0.850000 0.807500 0.818750
0.000000 0.938750 0.818750
0.062500 0.938750 0.818750
0.175000 0.938750 0.818750
0.287500 0.938750 0.818750
0.400000 0.938750 0.818750
0.512500 0.938750 0.818750
0.625000 0.938750 0.818750
0.737500 0.938750 0.818750
0.850000 0.938750 0.818750
0.000000 1.000000 0.818750
0.062500 1.000000 0.818750
0.175000 1.000000 0.818750
0.287500 1.000000 0.818750
0.400000 1.000000 0.818750
0.512500 1.000000 0.818750
0.625000 1.000000 0.818750
0.737500 1.000000 0.818750
0.850000 1.000000 0.818750
0.000000 0.020000 0.962500
0.062500 0.020000 0.962500
0.175000 0.020000 0.962500
0.287500 0.020000 0.962500
0.400000 0.020000 0.962500
0.512500 0.020000 0.962500
0.625000 0.020000 0.962500
0.737500 0.020000 0.962500
0.850000 0.020000 0.962500
0.000000 0.151250 0.962500
0.062500 0.151250 0.962500
0.175000 0.151250 0.962500
0.287500 0.151250 0.962500
0.400000 0.151250 0.962500
0.512500 0.151250 0.962500
0.625000 0.151250 0.962500
0.737500 0.151250 0.962500
0.850000 0.151250 0.962500
0.000000 0.282500 0.962500
0.062500 0.282500 0.962500
0.175000 0.282500 0.962500
0.287500 0.282500 0.962500
0.400000 0.282500 0.962500
0.512500 0.282500 0.962500
0.625000 0.282500 0.962500
0.737500 0.282500 0.962500
0.850000 0.282500 0.962500
0.000000 0.413750 0.962500
0.062500 0.413750 0.962500
0.175000 0.413750 0.962500
0.287500 0.413750 0.962500
0.400000 0.413750 0.962500
0.512500 0.413750 0.962500
0.625000 0.413750 0.962500
0.737500 0.413750 0.962500
0.850000 0.413750 0.962500
0.000000 0.545000 0.962500
0.062500 0.545000 0.962500
0.175000 0.545000 0.962500
0.287500 0.545000 0.962500
0.400000 0.545000 0.962500
0.512500 0.545000 0.962500
0.625000 0.545000 0.962500
0.737500 0.545000 0.962500
0.850000 0.545000 0.962500
0.000000 0.676250 0.962500
0.062500 0.676250 0.962500
0.175000 0.676250 0.962500
0.287500 0.676250 0.962500
0.400000 0.676250 0.962500
0.512500 0.676250 0.962500
0.625000 0.676250 0.962500
0.737500 0.676250 0.962500
0.850000 0.676250 0.962500
0.000000 0.807500 0.962500
0.062500 0.807500 0.962500
0.175000 0.807500 0.962500
0.287500 0.807500 0.962500
0.400000 0.807500 0.962500
0.512500 0.807500 0.962500
0.625000 0.807500 0.962500
0.737500 0.807500 0.962500
0.850000 0.807500 0.962500
0.000000 0.938750 0.962500
0.062500 0.938750 0.962500
0.175000 0.938750 0.962500
0.287500 0.938750 0.962500
0.400000 0.938750 0.962500
0.512500 0.938750 0.962500
0.625000 0.938750 0.962500
0.737500 0.938750 0.962500
0.850000 0.938750 0.962500
0.000000 1.000000 0.962500
0.062500 1.000000 0.962500
0.175000 1.000000 0.962500
0.287500 1.000000 0.962500
0.400000 1.000000 0.962500
0.512500 1.000000 0.962500
0.625000 1.000000 0.962500
0.737500 1.000000 0.962500
0.850000 1.000000 0.962500
0.000000 0.020000 1.000000
0.062500 0.020000 1.000000
0.175000 0.020000 1.000000
0.287500 0.020000 1.000000
0.400000 0.020000 1.000000
0.512500 0.020000 1.000000
0.625000 0.020000 1.000000
0.737500 0.020000 1.000000
0.850000 0.020000 1.000000
0.000000 0.151250 1.000000
0.062500 0.151250 1.000000
0.175000 0.151250 1.000000
0.287500 0.151250 1.000000
0.400000 0.151250 1.000000
0.512500 0.151250 1.000000
0.625000 0.151250 1.000000
0.737500 0.151250 1.000000
0.850000 0.151250 1.000000
0.000000 0.282500 1.000000
0.062500 0.282500 1.000000
0.175000 0.282500 1.000000
0.287500 0.282500 1.000000
0.400000 0.282500 1.000000
0.512500 0.282500 1.000000
0.625000 0.282500 1.000000
0.737500 0.282500 1.000000
0.850000 0.282500 1.000000
0.000000 0.413750 1.000000
0.062500 0.413750 1.000000
0.175000 0.413750 1.000000
0.287500 0.413750 1.000000
0.400000 0.413750 1.000000
0.512500 0.413750 1.000000
0.625000 0.413750 1.000000
0.737500 0.413750 1.000000
0.850000 0.413750 1.000000
0.000000 0.545000 1.000000
0.062500 0.545000 1.000000
0.175000 0.545000 1.000000
0.287500 0.545000 1.000000
0.400000 0.545000 1.000000
0.512500 0.545000 1.000000
0.625000 0.545000 1.000000
0.737500 0.545000 1.000000
0.850000 0.545000 1.000000
0.000000 0.676250 1.000000
0.062500 0.676250 1.000000
0.175000 0.676250 1.000000
0.287500 0.676250 1.000000
0.400000 0.676250 1.000000
0.512500 0.676250 1.000000
0.625000 0.676250 1.000000
0.737500 0.676250 1.000000
0.850000 0.676250 1.000000
0.000000 0.807500 1.000000
0.062500 0.807500 1.000000
0.175000 0.807500 1.000000
0.287500 0.807500 1.000000
0.400000 0.807500 1.000000
0.512500 0.807500 1.000000
0.625000 0.807500 1.000000
0.737500 0.807500 1.000000
0.850000 0.807500 1.000000
0.000000 0.938750 1.000000
0.062500 0.938750 1.000000
0.175000 0.938750 1.000000
0.287500 0.938750 1.000000
0.400000 0.938750 1.000000
0.512500 0.938750 1.000000
0.625000 0.938750 1.000000
0.737500 0.938750 1.000000
0.850000 0.938750 1.000000
0.000000 1.000000 1.000000
0.062500 1.000000 1.000000
0.175000 1.000000 1.000000
0.287500 1.000000 1.000000
0.400000 1.000000 1.000000
0.512500 1.000000 1.000000
0.625000 1.000000 1.000000
0.737500 1.000000 1.000000
0.850000 1.000000 1.000000
0.000000 0.020000 1.000000
0.062500 0.020000 1.000000
0.175000 0.020000 1.000000
0.287500 0.020000 1.000000
0.400000 0.020000 1.000000
0.512500 0.020000 1.000000
0.625000 0.020000 1.000000
0.737500 0.020000 1.000000
0.850000 0.020000 1.000000
0.000000 0.151250 1.000000
0.062500 0.151250 1.000000
0.175000 0.151250 1.000000
0.287500 0.151250 1.000000
0.400000 0.151250 1.000000
0.512500 0.151250 1.000000
0.625000 0.151250 1.000000
0.737500 0.151250 1.000000
0.850000 0.151250 1.000000
0.000000 0.282500 1.000000
0.062500 0.282500 1.000000
0.175000 0.282500 1.000000
0.287500 0.282500 1.000000
0.400000 0.282500 1.000000
0.512500 0.282500 1.000000
0.625000 0.282500 1.000000
0.737500 0.282500 1.000000
0.850000 0.282500 1.000000
0.000000 0.413750 1.000000
0.062500 0.413750 1.000000
0.175000 0.413750 1.000000
0.287500 0.413750 1.000000
0.400000 0.413750 1.000000
0.512500 0.413750 1.000000
0.625000 0.413750 1.000000
0.737500 0.413750 1.000000
0.850000 0.413750 1.000000
0.000000 0.545000 1.000000
0.062500 0.545000 1.000000
0.175000 0.545000 1.000000
0.287500 0.545000 1.000000
0.400000 0.545000 1.000000
0.512500 0.545000 1.000000
0.625000 0.545000 1.000000
0.737500 0.545000 1.000000
0.850000 0.545000 1.000000
0.000000 0.676250 1.000000
0.062500 0.676250 1.000000
0.175000 0.676250 1.000000
0.287500 0.676250 1.000000
0.400000 0.676250 1.000000
0.512500 0.676250 1.000000
0.625000 0.676250 1.000000
0.737500 0.676250 1.000000
0.850000 0.676250 1.000000
0.000000 0.807500 1.000000
0.062500 0.807500 1.000000
0.175000 0.807500 1.000000
0.287500 0.807500 1.000000
0.400000 0.807500 1.000000
0.512500 0.807500 1.000000
0.625000 0.807500 1.000000
0.737500 0.807500 1.000000
0.850000 0.807500 1.000000
0.000000 0.938750 1.000000
0.062500 0.938750 1.000000
0.175000 0.938750 1.000000
0.287500 0.938750 1.000000
0.400000 0.938750 1.000000
0.512500 0.938750 1.000000
0.625000 0.938750 1.000000
0.737500 0.938750 1.000000
0.850000 0.938750 1.000000
0.000000 1.000000 1.000000
0.062500 1.000000 1.000000
0.175000 1.000000 1.000000
0.287500 1.000000 1.000000
0.400000 1.000000 1.000000
0.512500 1.000000 1.000000
0.625000 1.000000 1.000000
0.737500 1.000000 1.000000
0.850000 1.000000 1.000000
