public/luts/cool.cube
# Cool Tone
# Generated sample LUT for demo
LUT_3D_SIZE 17
0.000000 0.020000 0.100000
0.006250 0.020000 0.100000
0.062500 0.020000 0.100000
0.118750 0.020000 0.100000
0.175000 0.020000 0.100000
0.231250 0.020000 0.100000
0.287500 0.020000 0.100000
0.343750 0.020000 0.100000
0.400000 0.020000 0.100000
0.456250 0.020000 0.100000
0.512500 0.020000 0.100000
0.568750 0.020000 0.100000
0.625000 0.020000 0.100000
0.681250 0.020000 0.100000
0.737500 0.020000 0.100000
0.793750 0.020000 0.100000
0.850000 0.020000 0.100000
0.000000 0.085625 0.100000
0.006250 0.085625 0.100000
0.062500 0.085625 0.100000
0.118750 0.085625 0.100000
0.175000 0.085625 0.100000
0.231250 0.085625 0.100000
0.287500 0.085625 0.100000
0.343750 0.085625 0.100000
0.400000 0.085625 0.100000
0.456250 0.085625 0.100000
0.512500 0.085625 0.100000
0.568750 0.085625 0.100000
0.625000 0.085625 0.100000
0.681250 0.085625 0.100000
0.737500 0.085625 0.100000
0.793750 0.085625 0.100000
0.850000 0.085625 0.100000
0.000000 0.151250 0.100000
0.006250 0.151250 0.100000
0.062500 0.151250 0.100000
0.118750 0.151250 0.100000
0.175000 0.151250 0.100000
0.231250 0.151250 0.100000
0.287500 0.151250 0.100000
0.343750 0.151250 0.100000
0.400000 0.151250 0.100000
0.456250 0.151250 0.100000
0.512500 0.151250 0.100000
0.568750 0.151250 0.100000
0.625000 0.151250 0.100000
0.681250 0.151250 0.100000
0.737500 0.151250 0.100000
0.793750 0.151250 0.100000
0.850000 0.151250 0.100000
0.000000 0.216875 0.100000
0.006250 0.216875 0.100000
0.062500 0.216875 0.100000
0.118750 0.216875 0.100000
0.175000 0.216875 0.100000
0.231250 0.216875 0.100000
0.287500 0.216875 0.100000
0.343750 0.216875 0.100000
0.400000 0.216875 0.100000
0.456250 0.216875 0.100000
0.512500 0.216875 0.100000
0.568750 0.216875 0.100000
0.625000 0.216875 0.100000
0.681250 0.216875 0.100000
0.737500 0.216875 0.100000
0.793750 0.216875 0.100000
0.850000 0.216875 0.100000
0.000000 0.282500 0.100000
0.006250 0.282500 0.100000
0.062500 0.282500 0.100000
0.118750 0.282500 0.100000
0.175000 0.282500 0.100000
0.231250 0.282500 0.100000
0.287500 0.282500 0.100000
0.343750 0.282500 0.100000
0.400000 0.282500 0.100000
0.456250 0.282500 0.100000
0.512500 0.282500 0.100000
0.568750 0.282500 0.100000
0.625000 0.282500 0.100000
0.681250 0.282500 0.100000
0.737500 0.282500 0.100000
0.793750 0.282500 0.100000
0.850000 0.282500 0.100000
0.000000 0.348125 0.100000
0.006250 0.348125 0.100000
0.062500 0.348125 0.100000
0.118750 0.348125 0.100000
0.175000 0.348125 0.100000
0.231250 0.348125 0.100000
0.287500 0.348125 0.100000
0.343750 0.348125 0.100000
0.400000 0.348125 0.100000
0.456250 0.348125 0.100000
0.512500 0.348125 0.100000
0.568750 0.348125 0.100000
0.625000 0.348125 0.100000
0.681250 0.348125 0.100000
0.737500 0.348125 0.100000
0.793750 0.348125 0.100000
0.850000 0.348125 0.100000
0.000000 0.413750 0.100000
0.006250 0.413750 0.100000
0.062500 0.413750 0.100000
0.118750 0.413750 0.100000
0.175000 0.413750 0.100000
0.231250 0.413750 0.100000
0.287500 0.413750 0.100000
0.343750 0.413750 0.100000
0.400000 0.413750 0.100000
0.456250 0.413750 0.100000
0.512500 0.413750 0.100000
0.568750 0.413750 0.100000
0.625000 0.413750 0.100000
0.681250 0.413750 0.100000
0.737500 0.413750 0.100000
0.793750 0.413750 0.100000
0.850000 0.413750 0.100000
0.000000 0.479375 0.100000
0.006250 0.479375 0.100000
0.062500 0.479375 0.100000
0.118750 0.479375 0.100000
0.175000 0.479375 0.100000
0.231250 0.479375 0.100000
0.287500 0.479375 0.100000
0.343750 0.479375 0.100000
0.400000 0.479375 0.100000
0.456250 0.479375 0.100000
0.512500 0.479375 0.100000
0.568750 0.479375 0.100000
0.625000 0.479375 0.100000
0.681250 0.479375 0.100000
0.737500 0.479375 0.100000
0.793750 0.479375 0.100000
0.850000 0.479375 0.100000
0.000000 0.545000 0.100000
0.006250 0.545000 0.100000
0.062500 0.545000 0.100000
0.118750 0.545000 0.100000
0.175000 0.545000 0.100000
0.231250 0.545000 0.100000
0.287500 0.545000 0.100000
0.343750 0.545000 0.100000
0.400000 0.545000 0.100000
0.456250 0.545000 0.100000
0.512500 0.545000 0.100000
0.568750 0.545000 0.100000
0.625000 0.545000 0.100000
0.681250 0.545000 0.100000
0.737500 0.545000 0.100000
0.793750 0.545000 0.100000
0.850000 0.545000 0.100000
0.000000 0.610625 0.100000
0.006250 0.610625 0.100000
0.062500 0.610625 0.100000
0.118750 0.610625 0.100000
0.175000 0.610625 0.100000
0.231250 0.610625 0.100000
0.287500 0.610625 0.100000
0.343750 0.610625 0.100000
0.400000 0.610625 0.100000
0.456250 0.610625 0.100000
0.512500 0.610625 0.100000
0.568750 0.610625 0.100000
0.625000 0.610625 0.100000
0.681250 0.610625 0.100000
0.737500 0.610625 0.100000
0.793750 0.610625 0.100000
0.850000 0.610625 0.100000
0.000000 0.676250 0.100000
0.006250 0.676250 0.100000
0.062500 0.676250 0.100000
0.118750 0.676250 0.100000
0.175000 0.676250 0.100000
0.231250 0.676250 0.100000
0.287500 0.676250 0.100000
0.343750 0.676250 0.100000
0.400000 0.676250 0.100000
0.456250 0.676250 0.100000
0.512500 0.676250 0.100000
0.568750 0.676250 0.100000
0.625000 0.676250 0.100000
0.681250 0.676250 0.100000
0.737500 0.676250 0.100000
0.793750 0.676250 0.100000
0.850000 0.676250 0.100000
0.000000 0.741875 0.100000
0.006250 0.741875 0.100000
0.062500 0.741875 0.100000
0.118750 0.741875 0.100000
0.175000 0.741875 0.100000
0.231250 0.741875 0.100000
0.287500 0.741875 0.100000
0.343750 0.741875 0.100000
0.400000 0.741875 0.100000
0.456250 0.741875 0.100000
0.512500 0.741875 0.100000
0.568750 0.741875 0.100000
0.625000 0.741875 0.100000
0.681250 0.741875 0.100000
0.737500 0.741875 0.100000
0.793750 0.741875 0.100000
0.850000 0.741875 0.100000
0.000000 0.807500 0.100000
0.006250 0.807500 0.100000
0.062500 0.807500 0.100000
0.118750 0.807500 0.100000
0.175000 0.807500 0.100000
0.231250 0.807500 0.100000
0.287500 0.807500 0.100000
0.343750 0.807500 0.100000
0.400000 0.807500 0.100000
0.456250 0.807500 0.100000
0.512500 0.807500 0.100000
0.568750 0.807500 0.100000
0.625000 0.807500 0.100000
0.681250 0.807500 0.100000
0.737500 0.807500 0.100000
0.793750 0.807500 0.100000
0.850000 0.807500 0.100000
0.000000 0.873125 0.100000
0.006250 0.873125 0.100000
0.062500 0.873125 0.100000
0.118750 0.873125 0.100000
0.175000 0.873125 0.100000
0.231250 0.873125 0.100000
0.287500 0.873125 0.100000
0.343750 0.873125 0.100000
0.400000 0.873125 0.100000
0.456250 0.873125 0.100000
0.512500 0.873125 0.100000
0.568750 0.873125 0.100000
0.625000 0.873125 0.100000
0.681250 0.873125 0.100000
0.737500 0.873125 0.100000
0.793750 0.873125 0.100000
0.850000 0.873125 0.100000
0.000000 0.938750 0.100000
0.006250 0.938750 0.100000
0.062500 0.938750 0.100000
0.118750 0.938750 0.100000
0.175000 0.938750 0.100000
0.231250 0.938750 0.100000
0.287500 0.938750 0.100000
0.343750 0.938750 0.100000
0.400000 0.938750 0.100000
0.456250 0.938750 0.100000
0.512500 0.938750 0.100000
0.568750 0.938750 0.100000
0.625000 0.938750 0.100000
0.681250 0.938750 0.100000
0.737500 0.938750 0.100000
0.793750 0.938750 0.100000
0.850000 0.938750 0.100000
0.000000 1.000000 0.100000
0.006250 1.000000 0.100000
0.062500 1.000000 0.100000
0.118750 1.000000 0.100000
0.175000 1.000000 0.100000
0.231250 1.000000 0.100000
0.287500 1.000000 0.100000
0.343750 1.000000 0.100000
0.400000 1.000000 0.100000
0.456250 1.000000 0.100000
0.512500 1.000000 0.100000
0.568750 1.000000 0.100000
0.625000 1.000000 0.100000
0.681250 1.000000 0.100000
0.737500 1.000000 0.100000
0.793750 1.000000 0.100000
0.850000 1.000000 0.100000
0.000000 1.000000 0.100000
0.006250 1.000000 0.100000
0.062500 1.000000 0.100000
0.118750 1.000000 0.100000
0.175000 1.000000 0.100000
0.231250 1.000000 0.100000
0.287500 1.000000 0.100000
0.343750 1.000000 0.100000
0.400000 1.000000 0.100000
0.456250 1.000000 0.100000
0.512500 1.000000 0.100000
0.568750 1.000000 0.100000
0.625000 1.000000 0.100000
0.681250 1.000000 0.100000
0.737500 1.000000 0.100000
0.793750 1.000000 0.100000
0.850000 1.000000 0.100000
0.000000 0.020000 0.171875
0.006250 0.020000 0.171875
0.062500 0.020000 0.171875
0.118750 0.020000 0.171875
0.175000 0.020000 0.171875
0.231250 0.020000 0.171875
0.287500 0.020000 0.171875
0.343750 0.020000 0.171875
0.400000 0.020000 0.171875
0.456250 0.020000 0.171875
0.512500 0.020000 0.171875
0.568750 0.020000 0.171875
0.625000 0.020000 0.171875
0.681250 0.020000 0.171875
0.737500 0.020000 0.171875
0.793750 0.020000 0.171875
0.850000 0.020000 0.171875
0.000000 0.085625 0.171875
0.006250 0.085625 0.171875
0.062500 0.085625 0.171875
0.118750 0.085625 0.171875
0.175000 0.085625 0.171875
0.231250 0.085625 0.171875
0.287500 0.085625 0.171875
0.343750 0.085625 0.171875
0.400000 0.085625 0.171875
0.456250 0.085625 0.171875
0.512500 0.085625 0.171875
0.568750 0.085625 0.171875
0.625000 0.085625 0.171875
0.681250 0.085625 0.171875
0.737500 0.085625 0.171875
0.793750 0.085625 0.171875
0.850000 0.085625 0.171875
0.000000 0.151250 0.171875
0.006250 0.151250 0.171875
0.062500 0.151250 0.171875
0.118750 0.151250 0.171875
0.175000 0.151250 0.171875
0.231250 0.151250 0.171875
0.287500 0.151250 0.171875
0.343750 0.151250 0.171875
0.400000 0.151250 0.171875
0.456250 0.151250 0.171875
0.512500 0.151250 0.171875
0.568750 0.151250 0.171875
0.625000 0.151250 0.171875
0.681250 0.151250 0.171875
0.737500 0.151250 0.171875
0.793750 0.151250 0.171875
0.850000 0.151250 0.171875
0.000000 0.216875 0.171875
0.006250 0.216875 0.171875
0.062500 0.216875 0.171875
0.118750 0.216875 0.171875
0.175000 0.216875 0.171875
0.231250 0.216875 0.171875
0.287500 0.216875 0.171875
0.343750 0.216875 0.171875
0.400000 0.216875 0.171875
0.456250 0.216875 0.171875
0.512500 0.216875 0.171875
0.568750 0.216875 0.171875
0.625000 0.216875 0.171875
0.681250 0.216875 0.171875
0.737500 0.216875 0.171875
0.793750 0.216875 0.171875
0.850000 0.216875 0.171875
0.000000 0.282500 0.171875
0.006250 0.282500 0.171875
0.062500 0.282500 0.171875
0.118750 0.282500 0.171875
0.175000 0.282500 0.171875
0.231250 0.282500 0.171875
0.287500 0.282500 0.171875
0.343750 0.282500 0.171875
0.400000 0.282500 0.171875
0.456250 0.282500 0.171875
0.512500 0.282500 0.171875
0.568750 0.282500 0.171875
0.625000 0.282500 0.171875
0.681250 0.282500 0.171875
0.737500 0.282500 0.171875
0.793750 0.282500 0.171875
0.850000 0.282500 0.171875
0.000000 0.348125 0.171875
0.006250 0.348125 0.171875
0.062500 0.348125 0.171875
0.118750 0.348125 0.171875
0.175000 0.348125 0.171875
0.231250 0.348125 0.171875
0.287500 0.348125 0.171875
0.343750 0.348125 0.171875
0.400000 0.348125 0.171875
0.456250 0.348125 0.171875
0.512500 0.348125 0.171875
0.568750 0.348125 0.171875
0.625000 0.348125 0.171875
0.681250 0.348125 0.171875
0.737500 0.348125 0.171875
0.793750 0.348125 0.171875
0.850000 0.348125 0.171875
0.000000 0.413750 0.171875
0.006250 0.413750 0.171875
0.062500 0.413750 0.171875
0.118750 0.413750 0.171875
0.175000 0.413750 0.171875
0.231250 0.413750 0.171875
0.287500 0.413750 0.171875
0.343750 0.413750 0.171875
0.400000 0.413750 0.171875
0.456250 0.413750 0.171875
0.512500 0.413750 0.171875
0.568750 0.413750 0.171875
0.625000 0.413750 0.171875
0.681250 0.413750 0.171875
0.737500 0.413750 0.171875
0.793750 0.413750 0.171875
0.850000 0.413750 0.171875
0.000000 0.479375 0.171875
0.006250 0.479375 0.171875
0.062500 0.479375 0.171875
0.118750 0.479375 0.171875
0.175000 0.479375 0.171875
0.231250 0.479375 0.171875
0.287500 0.479375 0.171875
0.343750 0.479375 0.171875
0.400000 0.479375 0.171875
0.456250 0.479375 0.171875
0.512500 0.479375 0.171875
0.568750 0.479375 0.171875
0.625000 0.479375 0.171875
0.681250 0.479375 0.171875
0.737500 0.479375 0.171875
0.793750 0.479375 0.171875
0.850000 0.479375 0.171875
0.000000 0.545000 0.171875
0.006250 0.545000 0.171875
0.062500 0.545000 0.171875
0.118750 0.545000 0.171875
0.175000 0.545000 0.171875
0.231250 0.545000 0.171875
0.287500 0.545000 0.171875
0.343750 0.545000 0.171875
0.400000 0.545000 0.171875
0.456250 0.545000 0.171875
0.512500 0.545000 0.171875
0.568750 0.545000 0.171875
0.625000 0.545000 0.171875
0.681250 0.545000 0.171875
0.737500 0.545000 0.171875
0.793750 0.545000 0.171875
0.850000 0.545000 0.171875
0.000000 0.610625 0.171875
0.006250 0.610625 0.171875
0.062500 0.610625 0.171875
0.118750 0.610625 0.171875
0.175000 0.610625 0.171875
0.231250 0.610625 0.171875
0.287500 0.610625 0.171875
0.343750 0.610625 0.171875
0.400000 0.610625 0.171875
0.456250 0.610625 0.171875
0.512500 0.610625 0.171875
0.568750 0.610625 0.171875
0.625000 0.610625 0.171875
0.681250 0.610625 0.171875
0.737500 0.610625 0.171875
0.793750 0.610625 0.171875
0.850000 0.610625 0.171875
0.000000 0.676250 0.171875
0.006250 0.676250 0.171875
0.062500 0.676250 0.171875
0.118750 0.676250 0.171875
0.175000 0.676250 0.171875
0.231250 0.676250 0.171875
0.287500 0.676250 0.171875
0.343750 0.676250 0.171875
0.400000 0.676250 0.171875
0.456250 0.676250 0.171875
0.512500 0.676250 0.171875
0.568750 0.676250 0.171875
0.625000 0.676250 0.171875
0.681250 0.676250 0.171875
0.737500 0.676250 0.171875
0.793750 0.676250 0.171875
0.850000 0.676250 0.171875
0.000000 0.741875 0.171875
0.006250 0.741875 0.171875
0.062500 0.741875 0.171875
0.118750 0.741875 0.171875
0.175000 0.741875 0.171875
0.231250 0.741875 0.171875
0.287500 0.741875 0.171875
0.343750 0.741875 0.171875
0.400000 0.741875 0.171875
0.456250 0.741875 0.171875
0.512500 0.741875 0.171875
0.568750 0.741875 0.171875
0.625000 0.741875 0.171875
0.681250 0.741875 0.171875
0.737500 0.741875 0.171875
0.793750 0.741875 0.171875
0.850000 0.741875 0.171875
0.000000 0.807500 0.171875
0.006250 0.807500 0.171875
0.062500 0.807500 0.171875
0.118750 0.807500 0.171875
0.175000 0.807500 0.171875
0.231250 0.807500 0.171875
0.287500 0.807500 0.171875
0.343750 0.807500 0.171875
0.400000 0.807500 0.171875
0.456250 0.807500 0.171875
0.512500 0.807500 0.171875
0.568750 0.807500 0.171875
0.625000 0.807500 0.171875
0.681250 0.807500 0.171875
0.737500 0.807500 0.171875
0.793750 0.807500 0.171875
0.850000 0.807500 0.171875
0.000000 0.873125 0.171875
0.006250 0.873125 0.171875
0.062500 0.873125 0.171875
0.118750 0.873125 0.171875
0.175000 0.873125 0.171875
0.231250 0.873125 0.171875
0.287500 0.873125 0.171875
0.343750 0.873125 0.171875
0.400000 0.873125 0.171875
0.456250 0.873125 0.171875
0.512500 0.873125 0.171875
0.568750 0.873125 0.171875
0.625000 0.873125 0.171875
0.681250 0.873125 0.171875
0.737500 0.873125 0.171875
0.793750 0.873125 0.171875
0.850000 0.873125 0.171875
0.000000 0.938750 0.171875
0.006250 0.938750 0.171875
0.062500 0.938750 0.171875
0.118750 0.938750 0.171875
0.175000 0.938750 0.171875
0.231250 0.938750 0.171875
0.287500 0.938750 0.171875
0.343750 0.938750 0.171875
0.400000 0.938750 0.171875
0.456250 0.938750 0.171875
0.512500 0.938750 0.171875
0.568750 0.938750 0.171875
0.625000 0.938750 0.171875
0.681250 0.938750 0.171875
0.737500 0.938750 0.171875
0.793750 0.938750 0.171875
0.850000 0.938750 0.171875
0.000000 1.000000 0.171875
0.006250 1.000000 0.171875
0.062500 1.000000 0.171875
0.118750 1.000000 0.171875
0.175000 1.000000 0.171875
0.231250 1.000000 0.171875
0.287500 1.000000 0.171875
0.343750 1.000000 0.171875
0.400000 1.000000 0.171875
0.456250 1.000000 0.171875
0.512500 1.000000 0.171875
0.568750 1.000000 0.171875
0.625000 1.000000 0.171875
0.681250 1.000000 0.171875
0.737500 1.000000 0.171875
0.793750 1.000000 0.171875
0.850000 1.000000 0.171875
0.000000 1.000000 0.171875
0.006250 1.000000 0.171875
0.062500 1.000000 0.171875
0.118750 1.000000 0.171875
0.175000 1.000000 0.171875
0.231250 1.000000 0.171875
0.287500 1.000000 0.171875
0.343750 1.000000 0.171875
0.400000 1.000000 0.171875
0.456250 1.000000 0.171875
0.512500 1.000000 0.171875
0.568750 1.000000 0.171875
0.625000 1.000000 0.171875
0.681250 1.000000 0.171875
0.737500 1.000000 0.171875
0.793750 1.000000 0.171875
0.850000 1.000000 0.171875
0.000000 0.020000 0.243750
0.006250 0.020000 0.243750
0.062500 0.020000 0.243750
0.118750 0.020000 0.243750
0.175000 0.020000 0.243750
0.231250 0.020000 0.243750
0.287500 0.020000 0.243750
0.343750 0.020000 0.243750
0.400000 0.020000 0.243750
0.456250 0.020000 0.243750
0.512500 0.020000 0.243750
0.568750 0.020000 0.243750
0.625000 0.020000 0.243750
0.681250 0.020000 0.243750
0.737500 0.020000 0.243750
0.793750 0.020000 0.243750
0.850000 0.020000 0.243750
0.000000 0.085625 0.243750
0.006250 0.085625 0.243750
0.062500 0.085625 0.243750
0.118750 0.085625 0.243750
0.175000 0.085625 0.243750
0.231250 0.085625 0.243750
0.287500 0.085625 0.243750
0.343750 0.085625 0.243750
0.400000 0.085625 0.243750
0.456250 0.085625 0.243750
0.512500 0.085625 0.243750
0.568750 0.085625 0.243750
0.625000 0.085625 0.243750
0.681250 0.085625 0.243750
0.737500 0.085625 0.243750
0.793750 0.085625 0.243750
0.850000 0.085625 0.243750
0.000000 0.151250 0.243750
0.006250 0.151250 0.243750
0.062500 0.151250 0.243750
0.118750 0.151250 0.243750
0.175000 0.151250 0.243750
0.231250 0.151250 0.243750
0.287500 0.151250 0.243750
0.343750 0.151250 0.243750
0.400000 0.151250 0.243750
0.456250 0.151250 0.243750
0.512500 0.151250 0.243750
0.568750 0.151250 0.243750
0.625000 0.151250 0.243750
0.681250 0.151250 0.243750
0.737500 0.151250 0.243750
0.793750 0.151250 0.243750
0.850000 0.151250 0.243750
0.000000 0.216875 0.243750
0.006250 0.216875 0.243750
0.062500 0.216875 0.243750
0.118750 0.216875 0.243750
0.175000 0.216875 0.243750
0.231250 0.216875 0.243750
0.287500 0.216875 0.243750
0.343750 0.216875 0.243750
0.400000 0.216875 0.243750
0.456250 0.216875 0.243750
0.512500 0.216875 0.243750
0.568750 0.216875 0.243750
0.625000 0.216875 0.243750
0.681250 0.216875 0.243750
0.737500 0.216875 0.243750
0.793750 0.216875 0.243750
0.850000 0.216875 0.243750
0.000000 0.282500 0.243750
0.006250 0.282500 0.243750
0.062500 0.282500 0.243750
0.118750 0.282500 0.243750
0.175000 0.282500 0.243750
0.231250 0.282500 0.243750
0.287500 0.282500 0.243750
0.343750 0.282500 0.243750
0.400000 0.282500 0.243750
0.456250 0.282500 0.243750
0.512500 0.282500 0.243750
0.568750 0.282500 0.243750
0.625000 0.282500 0.243750
0.681250 0.282500 0.243750
0.737500 0.282500 0.243750
0.793750 0.282500 0.243750
0.850000 0.282500 0.243750
0.000000 0.348125 0.243750
0.006250 0.348125 0.243750
0.062500 0.348125 0.243750
0.118750 0.348125 0.243750
0.175000 0.348125 0.243750
0.231250 0.348125 0.243750
0.287500 0.348125 0.243750
0.343750 0.348125 0.243750
0.400000 0.348125 0.243750
0.456250 0.348125 0.243750
0.512500 0.348125 0.243750
0.568750 0.348125 0.243750
0.625000 0.348125 0.243750
0.681250 0.348125 0.243750
0.737500 0.348125 0.243750
0.793750 0.348125 0.243750
0.850000 0.348125 0.243750
0.000000 0.413750 0.243750
0.006250 0.413750 0.243750
0.062500 0.413750 0.243750
0.118750 0.413750 0.243750
0.175000 0.413750 0.243750
0.231250 0.413750 0.243750
0.287500 0.413750 0.243750
0.343750 0.413750 0.243750
0.400000 0.413750 0.243750
0.456250 0.413750 0.243750
0.512500 0.413750 0.243750
0.568750 0.413750 0.243750
0.625000 0.413750 0.243750
0.681250 0.413750 0.243750
0.737500 0.413750 0.243750
0.793750 0.413750 0.243750
0.850000 0.413750 0.243750
0.000000 0.479375 0.243750
0.006250 0.479375 0.243750
0.062500 0.479375 0.243750
0.118750 0.479375 0.243750
0.175000 0.479375 0.243750
0.231250 0.479375 0.243750
0.287500 0.479375 0.243750
0.343750 0.479375 0.243750
0.400000 0.479375 0.243750
0.456250 0.479375 0.243750
0.512500 0.479375 0.243750
0.568750 0.479375 0.243750
0.625000 0.479375 0.243750
0.681250 0.479375 0.243750
0.737500 0.479375 0.243750
0.793750 0.479375 0.243750
0.850000 0.479375 0.243750
0.000000 0.545000 0.243750
0.006250 0.545000 0.243750
0.062500 0.545000 0.243750
0.118750 0.545000 0.243750
0.175000 0.545000 0.243750
0.231250 0.545000 0.243750
0.287500 0.545000 0.243750
0.343750 0.545000 0.243750
0.400000 0.545000 0.243750
0.456250 0.545000 0.243750
0.512500 0.545000 0.243750
0.568750 0.545000 0.243750
0.625000 0.545000 0.243750
0.681250 0.545000 0.243750
0.737500 0.545000 0.243750
0.793750 0.545000 0.243750
0.850000 0.545000 0.243750
0.000000 0.610625 0.243750
0.006250 0.610625 0.243750
0.062500 0.610625 0.243750
0.118750 0.610625 0.243750
0.175000 0.610625 0.243750
0.231250 0.610625 0.243750
0.287500 0.610625 0.243750
0.343750 0.610625 0.243750
0.400000 0.610625 0.243750
0.456250 0.610625 0.243750
0.512500 0.610625 0.243750
0.568750 0.610625 0.243750
0.625000 0.610625 0.243750
0.681250 0.610625 0.243750
0.737500 0.610625 0.243750
0.793750 0.610625 0.243750
0.850000 0.610625 0.243750
0.000000 0.676250 0.243750
0.006250 0.676250 0.243750
0.062500 0.676250 0.243750
0.118750 0.676250 0.243750
0.175000 0.676250 0.243750
0.231250 0.676250 0.243750
0.287500 0.676250 0.243750
0.343750 0.676250 0.243750
0.400000 0.676250 0.243750
0.456250 0.676250 0.243750
0.512500 0.676250 0.243750
0.568750 0.676250 0.243750
0.625000 0.676250 0.243750
0.681250 0.676250 0.243750
0.737500 0.676250 0.243750
0.793750 0.676250 0.243750
0.850000 0.676250 0.243750
0.000000 0.741875 0.243750
0.006250 0.741875 0.243750
0.062500 0.741875 0.243750
0.118750 0.741875 0.243750
0.175000 0.741875 0.243750
0.231250 0.741875 0.243750
0.287500 0.741875 0.243750
0.343750 0.741875 0.243750
0.400000 0.741875 0.243750
0.456250 0.741875 0.243750
0.512500 0.741875 0.243750
0.568750 0.741875 0.243750
0.625000 0.741875 0.243750
0.681250 0.741875 0.243750
0.737500 0.741875 0.243750
0.793750 0.741875 0.243750
0.850000 0.741875 0.243750
0.000000 0.807500 0.243750
0.006250 0.807500 0.243750
0.062500 0.807500 0.243750
0.118750 0.807500 0.243750
0.175000 0.807500 0.243750
0.231250 0.807500 0.243750
0.287500 0.807500 0.243750
0.343750 0.807500 0.243750
0.400000 0.807500 0.243750
0.456250 0.807500 0.243750
0.512500 0.807500 0.243750
0.568750 0.807500 0.243750
0.625000 0.807500 0.243750
0.681250 0.807500 0.243750
0.737500 0.807500 0.243750
0.793750 0.807500 0.243750
0.850000 0.807500 0.243750
0.000000 0.873125 0.243750
0.006250 0.873125 0.243750
0.062500 0.873125 0.243750
0.118750 0.873125 0.243750
0.175000 0.873125 0.243750
0.231250 0.873125 0.243750
0.287500 0.873125 0.243750
0.343750 0.873125 0.243750
0.400000 0.873125 0.243750
0.456250 0.873125 0.243750
0.512500 0.873125 0.243750
0.568750 0.873125 0.243750
0.625000 0.873125 0.243750
0.681250 0.873125 0.243750
0.737500 0.873125 0.243750
0.793750 0.873125 0.243750
0.850000 0.873125 0.243750
0.000000 0.938750 0.243750
0.006250 0.938750 0.243750
0.062500 0.938750 0.243750
0.118750 0.938750 0.243750
0.175000 0.938750 0.243750
0.231250 0.938750 0.243750
0.287500 0.938750 0.243750
0.343750 0.938750 0.243750
0.400000 0.938750 0.243750
0.456250 0.938750 0.243750
0.512500 0.938750 0.243750
0.568750 0.938750 0.243750
0.625000 0.938750 0.243750
0.681250 0.938750 0.243750
0.737500 0.938750 0.243750
0.793750 0.938750 0.243750
0.850000 0.938750 0.243750
0.000000 1.000000 0.243750
0.006250 1.000000 0.243750
0.062500 1.000000 0.243750
0.118750 1.000000 0.243750
0.175000 1.000000 0.243750
0.231250 1.000000 0.243750
0.287500 1.000000 0.243750
0.343750 1.000000 0.243750
0.400000 1.000000 0.243750
0.456250 1.000000 0.243750
0.512500 1.000000 0.243750
0.568750 1.000000 0.243750
0.625000 1.000000 0.243750
0.681250 1.000000 0.243750
0.737500 1.000000 0.243750
0.793750 1.000000 0.243750
0.850000 1.000000 0.243750
0.000000 1.000000 0.243750
0.006250 1.000000 0.243750
0.062500 1.000000 0.243750
0.118750 1.000000 0.243750
0.175000 1.000000 0.243750
0.231250 1.000000 0.243750
0.287500 1.000000 0.243750
0.343750 1.000000 0.243750
0.400000 1.000000 0.243750
0.456250 1.000000 0.243750
0.512500 1.000000 0.243750
0.568750 1.000000 0.243750
0.625000 1.000000 0.243750
0.681250 1.000000 0.243750
0.737500 1.000000 0.243750
0.793750 1.000000 0.243750
0.850000 1.000000 0.243750
0.000000 0.020000 0.315625
0.006250 0.020000 0.315625
0.062500 0.020000 0.315625
0.118750 0.020000 0.315625
0.175000 0.020000 0.315625
0.231250 0.020000 0.315625
0.287500 0.020000 0.315625
0.343750 0.020000 0.315625
0.400000 0.020000 0.315625
0.456250 0.020000 0.315625
0.512500 0.020000 0.315625
0.568750 0.020000 0.315625
0.625000 0.020000 0.315625
0.681250 0.020000 0.315625
0.737500 0.020000 0.315625
0.793750 0.020000 0.315625
0.850000 0.020000 0.315625
0.000000 0.085625 0.315625
0.006250 0.085625 0.315625
