public/luts/cool.cube
# Cool Tone
# Generated sample LUT for demo
LUT_3D_SIZE 5
0.000000 0.020000 0.100000
0.175000 0.020000 0.100000
0.400000 0.020000 0.100000
0.625000 0.020000 0.100000
0.850000 0.020000 0.100000
0.000000 0.282500 0.100000
0.175000 0.282500 0.100000
0.400000 0.282500 0.100000
0.625000 0.282500 0.100000
0.850000 0.282500 0.100000
0.000000 0.545000 0.100000
0.175000 0.545000 0.100000
0.400000 0.545000 0.100000
0.625000 0.545000 0.100000
0.850000 0.545000 0.100000
0.000000 0.807500 0.100000
0.175000 0.807500 0.100000
0.400000 0.807500 0.100000
0.625000 0.807500 0.100000
0.850000 0.807500 0.100000
0.000000 1.000000 0.100000
0.175000 1.000000 0.100000
0.400000 1.000000 0.100000
0.625000 1.000000 0.100000
0.850000 1.000000 0.100000
0.000000 0.020000 0.387500
0.175000 0.020000 0.387500
0.400000 0.020000 0.387500
0.625000 0.020000 0.387500
0.850000 0.020000 0.387500
0.000000 0.282500 0.387500
0.175000 0.282500 0.387500
0.400000 0.282500 0.387500
0.625000 0.282500 0.387500
0.850000 0.282500 0.387500
0.000000 0.545000 0.387500
0.175000 0.545000 0.387500
0.400000 0.545000 0.387500
0.625000 0.545000 0.387500
0.850000 0.545000 0.387500
0.000000 0.807500 0.387500
0.175000 0.807500 0.387500
0.400000 0.807500 0.387500
0.625000 0.807500 0.387500
0.850000 0.807500 0.387500
0.000000 1.000000 0.387500
0.175000 1.000000 0.387500
0.400000 1.000000 0.387500
0.625000 1.000000 0.387500
0.850000 1.000000 0.387500
0.000000 0.020000 0.675000
0.175000 0.020000 0.675000
0.400000 0.020000 0.675000
0.625000 0.020000 0.675000
0.850000 0.020000 0.675000
0.000000 0.282500 0.675000
0.175000 0.282500 0.675000
0.400000 0.282500 0.675000
0.625000 0.282500 0.675000
0.850000 0.282500 0.675000
0.000000 0.545000 0.675000
0.175000 0.545000 0.675000
0.400000 0.545000 0.675000
0.625000 0.545000 0.675000
0.850000 0.545000 0.675000
0.000000 0.807500 0.675000
0.175000 0.807500 0.675000
0.400000 0.807500 0.675000
0.625000 0.807500 0.675000
0.850000 0.807500 0.675000
0.000000 1.000000 0.675000
0.175000 1.000000 0.675000
0.400000 1.000000 0.675000
0.625000 1.000000 0.675000
0.850000 1.000000 0.675000
0.000000 0.020000 0.962500
0.175000 0.020000 0.962500
0.400000 0.020000 0.962500
0.625000 0.020000 0.962500
0.850000 0.020000 0.962500
0.000000 0.282500 0.962500
0.175000 0.282500 0.962500
0.400000 0.282500 0.962500
0.625000 0.282500 0.962500
0.850000 0.282500 0.962500
0.000000 0.545000 0.962500
0.175000 0.545000 0.962500
0.400000 0.545000 0.962500
0.625000 0.545000 0.962500
0.850000 0.545000 0.962500
0.000000 0.807500 0.962500
0.175000 0.807500 0.962500
0.400000 0.807500 0.962500
0.625000 0.807500 0.962500
0.850000 0.807500 0.962500
0.000000 1.000000 0.962500
0.175000 1.000000 0.962500
0.400000 1.000000 0.962500
0.625000 1.000000 0.962500
0.850000 1.000000 0.962500
0.000000 0.020000 1.000000
0.175000 0.020000 1.000000
0.400000 0.020000 1.000000
0.625000 0.020000 1.000000
0.850000 0.020000 1.000000
0.000000 0.282500 1.000000
0.175000 0.282500 1.000000
0.400000 0.282500 1.000000
0.625000 0.282500 1.000000
0.850000 0.282500 1.000000
0.000000 0.545000 1.000000
0.175000 0.545000 1.000000
0.400000 0.545000 1.000000
0.625000 0.545000 1.000000
0.850000 0.545000 1.000000
0.000000 0.807500 1.000000
0.175000 0.807500 1.000000
0.400000 0.807500 1.000000
0.625000 0.807500 1.000000
0.850000 0.807500 1.000000
0.000000 1.000000 1.000000
0.175000 1.000000 1.000000
0.400000 1.000000 1.000000
0.625000 1.000000 1.000000
0.850000 1.000000 1.000000
