public/luts/dramatic.cube
# Dramatic
# Generated sample LUT for demo
LUT_3D_SIZE 5
0.000000 0.000000 0.000000
0.176777 0.000000 0.000000
0.500000 0.000000 0.000000
0.823223 0.000000 0.000000
1.000000 0.000000 0.000000
0.000000 0.203063 0.000000
0.176777 0.203063 0.000000
0.500000 0.203063 0.000000
0.823223 0.203063 0.000000
1.000000 0.203063 0.000000
0.000000 0.500000 0.000000
0.176777 0.500000 0.000000
0.500000 0.500000 0.000000
0.823223 0.500000 0.000000
1.000000 0.500000 0.000000
0.000000 0.796937 0.000000
0.176777 0.796937 0.000000
0.500000 0.796937 0.000000
0.823223 0.796937 0.000000
1.000000 0.796937 0.000000
0.000000 1.000000 0.000000
0.176777 1.000000 0.000000
0.500000 1.000000 0.000000
0.823223 1.000000 0.000000
1.000000 1.000000 0.000000
0.000000 0.000000 0.153893
0.176777 0.000000 0.153893
0.500000 0.000000 0.153893
0.823223 0.000000 0.153893
1.000000 0.000000 0.153893
0.000000 0.203063 0.153893
0.176777 0.203063 0.153893
0.500000 0.203063 0.153893
0.823223 0.203063 0.153893
1.000000 0.203063 0.153893
0.000000 0.500000 0.153893
0.176777 0.500000 0.153893
0.500000 0.500000 0.153893
0.823223 0.500000 0.153893
1.000000 0.500000 0.153893
0.000000 0.796937 0.153893
0.176777 0.796937 0.153893
0.500000 0.796937 0.153893
0.823223 0.796937 0.153893
1.000000 0.796937 0.153893
0.000000 1.000000 0.153893
0.176777 1.000000 0.153893
0.500000 1.000000 0.153893
0.823223 1.000000 0.153893
1.000000 1.000000 0.153893
0.000000 0.000000 0.500000
0.176777 0.000000 0.500000
0.500000 0.000000 0.500000
0.823223 0.000000 0.500000
1.000000 0.000000 0.500000
0.000000 0.203063 0.500000
0.176777 0.203063 0.500000
0.500000 0.203063 0.500000
0.823223 0.203063 0.500000
1.000000 0.203063 0.500000
0.000000 0.500000 0.500000
0.176777 0.500000 0.500000
0.500000 0.500000 0.500000
0.823223 0.500000 0.500000
1.000000 0.500000 0.500000
0.000000 0.796937 0.500000
0.176777 0.796937 0.500000
0.500000 0.796937 0.500000
0.823223 0.796937 0.500000
1.000000 0.796937 0.500000
0.000000 1.000000 0.500000
0.176777 1.000000 0.500000
0.500000 1.000000 0.500000
0.823223 1.000000 0.500000
1.000000 1.000000 0.500000
0.000000 0.000000 0.846107
0.176777 0.000000 0.846107
0.500000 0.000000 0.846107
0.823223 0.000000 0.846107
1.000000 0.000000 0.846107
0.000000 0.203063 0.846107
0.176777 0.203063 0.846107
0.500000 0.203063 0.846107
0.823223 0.203063 0.846107
1.000000 0.203063 0.846107
0.000000 0.500000 0.846107
0.176777 0.500000 0.846107
0.500000 0.500000 0.846107
0.823223 0.500000 0.846107
1.000000 0.500000 0.846107
0.000000 0.796937 0.846107
0.176777 0.796937 0.846107
0.500000 0.796937 0.846107
0.823223 0.796937 0.846107
1.000000 0.796937 0.846107
0.000000 1.000000 0.846107
0.176777 1.000000 0.846107
0.500000 1.000000 0.846107
0.823223 1.000000 0.846107
1.000000 1.000000 0.846107
0.000000 0.000000 1.000000
0.176777 0.000000 1.000000
0.500000 0.000000 1.000000
0.823223 0.000000 1.000000
1.000000 0.000000 1.000000
0.000000 0.203063 1.000000
0.176777 0.203063 1.000000
0.500000 0.203063 1.000000
0.823223 0.203063 1.000000
1.000000 0.203063 1.000000
0.000000 0.500000 1.000000
0.176777 0.500000 1.000000
0.500000 0.500000 1.000000
0.823223 0.500000 1.000000
1.000000 0.500000 1.000000
0.000000 0.796937 1.000000
0.176777 0.796937 1.000000
0.500000 0.796937 1.000000
0.823223 0.796937 1.000000
1.000000 0.796937 1.000000
0.000000 1.000000 1.000000
0.176777 1.000000 1.000000
0.500000 1.000000 1.000000
0.823223 1.000000 1.000000
1.000000 1.000000 1.000000
