public/luts/dramatic.cube
# Dramatic
# Generated sample LUT for demo
LUT_3D_SIZE 9
0.000000 0.000000 0.000000
0.062500 0.000000 0.000000
0.176777 0.000000 0.000000
0.324760 0.000000 0.000000
0.500000 0.000000 0.000000
0.675240 0.000000 0.000000
0.823223 0.000000 0.000000
0.937500 0.000000 0.000000
1.000000 0.000000 0.000000
0.000000 0.082469 0.000000
0.062500 0.082469 0.000000
0.176777 0.082469 0.000000
0.324760 0.082469 0.000000
0.500000 0.082469 0.000000
0.675240 0.082469 0.000000
0.823223 0.082469 0.000000
0.937500 0.082469 0.000000
1.000000 0.082469 0.000000
0.000000 0.203063 0.000000
0.062500 0.203063 0.000000
0.176777 0.203063 0.000000
0.324760 0.203063 0.000000
0.500000 0.203063 0.000000
0.675240 0.203063 0.000000
0.823223 0.203063 0.000000
0.937500 0.203063 0.000000
1.000000 0.203063 0.000000
0.000000 0.343993 0.000000
0.062500 0.343993 0.000000
0.176777 0.343993 0.000000
0.324760 0.343993 0.000000
0.500000 0.343993 0.000000
0.675240 0.343993 0.000000
0.823223 0.343993 0.000000
0.937500 0.343993 0.000000
1.000000 0.343993 0.000000
0.000000 0.500000 0.000000
0.062500 0.500000 0.000000
0.176777 0.500000 0.000000
0.324760 0.500000 0.000000
0.500000 0.500000 0.000000
0.675240 0.500000 0.000000
0.823223 0.500000 0.000000
0.937500 0.500000 0.000000
1.000000 0.500000 0.000000
0.000000 0.656007 0.000000
0.062500 0.656007 0.000000
0.176777 0.656007 0.000000
0.324760 0.656007 0.000000
0.500000 0.656007 0.000000
0.675240 0.656007 0.000000
0.823223 0.656007 0.000000
0.937500 0.656007 0.000000
1.000000 0.656007 0.000000
0.000000 0.796937 0.000000
0.062500 0.796937 0.000000
0.176777 0.796937 0.000000
0.324760 0.796937 0.000000
0.500000 0.796937 0.000000
0.675240 0.796937 0.000000
0.823223 0.796937 0.000000
0.937500 0.796937 0.000000
1.000000 0.796937 0.000000
0.000000 0.917531 0.000000
0.062500 0.917531 0.000000
0.176777 0.917531 0.000000
0.324760 0.917531 0.000000
0.500000 0.917531 0.000000
0.675240 0.917531 0.000000
0.823223 0.917531 0.000000
0.937500 0.917531 0.000000
1.000000 0.917531 0.000000
0.000000 1.000000 0.000000
0.062500 1.000000 0.000000
0.176777 1.000000 0.000000
0.324760 1.000000 0.000000
0.500000 1.000000 0.000000
0.675240 1.000000 0.000000
0.823223 1.000000 0.000000
0.937500 1.000000 0.000000
1.000000 1.000000 0.000000
0.000000 0.000000 0.047366
0.062500 0.000000 0.047366
0.176777 0.000000 0.047366
0.324760 0.000000 0.047366
0.500000 0.000000 0.047366
0.675240 0.000000 0.047366
0.823223 0.000000 0.047366
0.937500 0.000000 0.047366
1.000000 0.000000 0.047366
0.000000 0.082469 0.047366
0.062500 0.082469 0.047366
0.176777 0.082469 0.047366
0.324760 0.082469 0.047366
0.500000 0.082469 0.047366
0.675240 0.082469 0.047366
0.823223 0.082469 0.047366
0.937500 0.082469 0.047366
1.000000 0.082469 0.047366
0.000000 0.203063 0.047366
0.062500 0.203063 0.047366
0.176777 0.203063 0.047366
0.324760 0.203063 0.047366
0.500000 0.203063 0.047366
0.675240 0.203063 0.047366
0.823223 0.203063 0.047366
0.937500 0.203063 0.047366
1.000000 0.203063 0.047366
0.000000 0.343993 0.047366
0.062500 0.343993 0.047366
0.176777 0.343993 0.047366
0.324760 0.343993 0.047366
0.500000 0.343993 0.047366
0.675240 0.343993 0.047366
0.823223 0.343993 0.047366
0.937500 0.343993 0.047366
1.000000 0.343993 0.047366
0.000000 0.500000 0.047366
0.062500 0.500000 0.047366
0.176777 0.500000 0.047366
0.324760 0.500000 0.047366
0.500000 0.500000 0.047366
0.675240 0.500000 0.047366
0.823223 0.500000 0.047366
0.937500 0.500000 0.047366
1.000000 0.500000 0.047366
0.000000 0.656007 0.047366
0.062500 0.656007 0.047366
0.176777 0.656007 0.047366
0.324760 0.656007 0.047366
0.500000 0.656007 0.047366
0.675240 0.656007 0.047366
0.823223 0.656007 0.047366
0.937500 0.656007 0.047366
1.000000 0.656007 0.047366
0.000000 0.796937 0.047366
0.062500 0.796937 0.047366
0.176777 0.796937 0.047366
0.324760 0.796937 0.047366
0.500000 0.796937 0.047366
0.675240 0.796937 0.047366
0.823223 0.796937 0.047366
0.937500 0.796937 0.047366
1.000000 0.796937 0.047366
0.000000 0.917531 0.047366
0.062500 0.917531 0.047366
0.176777 0.917531 0.047366
0.324760 0.917531 0.047366
0.500000 0.917531 0.047366
0.675240 0.917531 0.047366
0.823223 0.917531 0.047366
0.937500 0.917531 0.047366
1.000000 0.917531 0.047366
0.000000 1.000000 0.047366
0.062500 1.000000 0.047366
0.176777 1.000000 0.047366
0.324760 1.000000 0.047366
0.500000 1.000000 0.047366
0.675240 1.000000 0.047366
0.823223 1.000000 0.047366
0.937500 1.000000 0.047366
1.000000 1.000000 0.047366
0.000000 0.000000 0.153893
0.062500 0.000000 0.153893
0.176777 0.000000 0.153893
0.324760 0.000000 0.153893
0.500000 0.000000 0.153893
0.675240 0.000000 0.153893
0.823223 0.000000 0.153893
0.937500 0.000000 0.153893
1.000000 0.000000 0.153893
0.000000 0.082469 0.153893
0.062500 0.082469 0.153893
0.176777 0.082469 0.153893
0.324760 0.082469 0.153893
0.500000 0.082469 0.153893
0.675240 0.082469 0.153893
0.823223 0.082469 0.153893
0.937500 0.082469 0.153893
1.000000 0.082469 0.153893
0.000000 0.203063 0.153893
0.062500 0.203063 0.153893
0.176777 0.203063 0.153893
0.324760 0.203063 0.153893
0.500000 0.203063 0.153893
0.675240 0.203063 0.153893
0.823223 0.203063 0.153893
0.937500 0.203063 0.153893
1.000000 0.203063 0.153893
0.000000 0.343993 0.153893
0.062500 0.343993 0.153893
0.176777 0.343993 0.153893
0.324760 0.343993 0.153893
0.500000 0.343993 0.153893
0.675240 0.343993 0.153893
0.823223 0.343993 0.153893
0.937500 0.343993 0.153893
1.000000 0.343993 0.153893
0.000000 0.500000 0.153893
0.062500 0.500000 0.153893
0.176777 0.500000 0.153893
0.324760 0.500000 0.153893
0.500000 0.500000 0.153893
0.675240 0.500000 0.153893
0.823223 0.500000 0.153893
0.937500 0.500000 0.153893
1.000000 0.500000 0.153893
0.000000 0.656007 0.153893
0.062500 0.656007 0.153893
0.176777 0.656007 0.153893
0.324760 0.656007 0.153893
0.500000 0.656007 0.153893
0.675240 0.656007 0.153893
0.823223 0.656007 0.153893
0.937500 0.656007 0.153893
1.000000 0.656007 0.153893
0.000000 0.796937 0.153893
0.062500 0.796937 0.153893
0.176777 0.796937 0.153893
0.324760 0.796937 0.153893
0.500000 0.796937 0.153893
0.675240 0.796937 0.153893
0.823223 0.796937 0.153893
0.937500 0.796937 0.153893
1.000000 0.796937 0.153893
0.000000 0.917531 0.153893
0.062500 0.917531 0.153893
0.176777 0.917531 0.153893
0.324760 0.917531 0.153893
0.500000 0.917531 0.153893
0.675240 0.917531 0.153893
0.823223 0.917531 0.153893
0.937500 0.917531 0.153893
1.000000 0.917531 0.153893
0.000000 1.000000 0.153893
0.062500 1.000000 0.153893
0.176777 1.000000 0.153893
0.324760 1.000000 0.153893
0.500000 1.000000 0.153893
0.675240 1.000000 0.153893
0.823223 1.000000 0.153893
0.937500 1.000000 0.153893
1.000000 1.000000 0.153893
0.000000 0.000000 0.306601
0.062500 0.000000 0.306601
0.176777 0.000000 0.306601
0.324760 0.000000 0.306601
0.500000 0.000000 0.306601
0.675240 0.000000 0.306601
0.823223 0.000000 0.306601
0.937500 0.000000 0.306601
1.000000 0.000000 0.306601
0.000000 0.082469 0.306601
0.062500 0.082469 0.306601
0.176777 0.082469 0.306601
0.324760 0.082469 0.306601
0.500000 0.082469 0.306601
0.675240 0.082469 0.306601
0.823223 0.082469 0.306601
0.937500 0.082469 0.306601
1.000000 0.082469 0.306601
0.000000 0.203063 0.306601
0.062500 0.203063 0.306601
0.176777 0.203063 0.306601
0.324760 0.203063 0.306601
0.500000 0.203063 0.306601
0.675240 0.203063 0.306601
0.823223 0.203063 0.306601
0.937500 0.203063 0.306601
1.000000 0.203063 0.306601
0.000000 0.343993 0.306601
0.062500 0.343993 0.306601
0.176777 0.343993 0.306601
0.324760 0.343993 0.306601
0.500000 0.343993 0.306601
0.675240 0.343993 0.306601
0.823223 0.343993 0.306601
0.937500 0.343993 0.306601
1.000000 0.343993 0.306601
0.000000 0.500000 0.306601
0.062500 0.500000 0.306601
0.176777 0.500000 0.306601
0.324760 0.500000 0.306601
0.500000 0.500000 0.306601
0.675240 0.500000 0.306601
0.823223 0.500000 0.306601
0.937500 0.500000 0.306601
1.000000 0.500000 0.306601
0.000000 0.656007 0.306601
0.062500 0.656007 0.306601
0.176777 0.656007 0.306601
0.324760 0.656007 0.306601
0.500000 0.656007 0.306601
0.675240 0.656007 0.306601
0.823223 0.656007 0.306601
0.937500 0.656007 0.306601
1.000000 0.656007 0.306601
0.000000 0.796937 0.306601
0.062500 0.796937 0.306601
0.176777 0.796937 0.306601
0.324760 0.796937 0.306601
0.500000 0.796937 0.306601
0.675240 0.796937 0.306601
0.823223 0.796937 0.306601
0.937500 0.796937 0.306601
1.000000 0.796937 0.306601
0.000000 0.917531 0.306601
0.062500 0.917531 0.306601
0.176777 0.917531 0.306601
0.324760 0.917531 0.306601
0.500000 0.917531 0.306601
0.675240 0.917531 0.306601
0.823223 0.917531 0.306601
0.937500 0.917531 0.306601
1.000000 0.917531 0.306601
0.000000 1.000000 0.306601
0.062500 1.000000 0.306601
0.176777 1.000000 0.306601
0.324760 1.000000 0.306601
0.500000 1.000000 0.306601
0.675240 1.000000 0.306601
0.823223 1.000000 0.306601
0.937500 1.000000 0.306601
1.000000 1.000000 0.306601
0.000000 0.000000 0.500000
0.062500 0.000000 0.500000
0.176777 0.000000 0.500000
0.324760 0.000000 0.500000
0.500000 0.000000 0.500000
0.675240 0.000000 0.500000
0.823223 0.000000 0.500000
0.937500 0.000000 0.500000
1.000000 0.000000 0.500000
0.000000 0.082469 0.500000
0.062500 0.082469 0.500000
0.176777 0.082469 0.500000
0.324760 0.082469 0.500000
0.500000 0.082469 0.500000
0.675240 0.082469 0.500000
0.823223 0.082469 0.500000
0.937500 0.082469 0.500000
1.000000 0.082469 0.500000
0.000000 0.203063 0.500000
0.062500 0.203063 0.500000
0.176777 0.203063 0.500000
0.324760 0.203063 0.500000
0.500000 0.203063 0.500000
0.675240 0.203063 0.500000
0.823223 0.203063 0.500000
0.937500 0.203063 0.500000
1.000000 0.203063 0.500000
0.000000 0.343993 0.500000
0.062500 0.343993 0.500000
0.176777 0.343993 0.500000
0.324760 0.343993 0.500000
0.500000 0.343993 0.500000
0.675240 0.343993 0.500000
0.823223 0.343993 0.500000
0.937500 0.343993 0.500000
1.000000 0.343993 0.500000
0.000000 0.500000 0.500000
0.062500 0.500000 0.500000
0.176777 0.500000 0.500000
0.324760 0.500000 0.500000
0.500000 0.500000 0.500000
0.675240 0.500000 0.500000
0.823223 0.500000 0.500000
0.937500 0.500000 0.500000
1.000000 0.500000 0.500000
0.000000 0.656007 0.500000
0.062500 0.656007 0.500000
0.176777 0.656007 0.500000
0.324760 0.656007 0.500000
0.500000 0.656007 0.500000
0.675240 0.656007 0.500000
0.823223 0.656007 0.500000
0.937500 0.656007 0.500000
1.000000 0.656007 0.500000
0.000000 0.796937 0.500000
0.062500 0.796937 0.500000
0.176777 0.796937 0.500000
0.324760 0.796937 0.500000
0.500000 0.796937 0.500000
0.675240 0.796937 0.500000
0.823223 0.796937 0.500000
0.937500 0.796937 0.500000
1.000000 0.796937 0.500000
0.000000 0.917531 0.500000
0.062500 0.917531 0.500000
0.176777 0.917531 0.500000
0.324760 0.917531 0.500000
0.500000 0.917531 0.500000
0.675240 0.917531 0.500000
0.823223 0.917531 0.500000
0.937500 0.917531 0.500000
1.000000 0.917531 0.500000
0.000000 1.000000 0.500000
0.062500 1.000000 0.500000
0.176777 1.000000 0.500000
0.324760 1.000000 0.500000
0.500000 1.000000 0.500000
0.675240 1.000000 0.500000
0.823223 1.000000 0.500000
0.937500 1.000000 0.500000
1.000000 1.000000 0.500000
0.000000 0.000000 0.693399
0.062500 0.000000 0.693399
0.176777 0.000000 0.693399
0.324760 0.000000 0.693399
0.500000 0.000000 0.693399
0.675240 0.000000 0.693399
0.823223 0.000000 0.693399
0.937500 0.000000 0.693399
1.000000 0.000000 0.693399
0.000000 0.082469 0.693399
0.062500 0.082469 0.693399
0.176777 0.082469 0.693399
0.324760 0.082469 0.693399
0.500000 0.082469 0.693399
0.675240 0.082469 0.693399
0.823223 0.082469 0.693399
0.937500 0.082469 0.693399
1.000000 0.082469 0.693399
0.000000 0.203063 0.693399
0.062500 0.203063 0.693399
0.176777 0.203063 0.693399
0.324760 0.203063 0.693399
0.500000 0.203063 0.693399
0.675240 0.203063 0.693399
0.823223 0.203063 0.693399
0.937500 0.203063 0.693399
1.000000 0.203063 0.693399
0.000000 0.343993 0.693399
0.062500 0.343993 0.693399
0.176777 0.343993 0.693399
0.324760 0.343993 0.693399
0.500000 0.343993 0.693399
0.675240 0.343993 0.693399
0.823223 0.343993 0.693399
0.937500 0.343993 0.693399
1.000000 0.343993 0.693399
0.000000 0.500000 0.693399
0.062500 0.500000 0.693399
0.176777 0.500000 0.693399
0.324760 0.500000 0.693399
0.500000 0.500000 0.693399
0.675240 0.500000 0.693399
0.823223 0.500000 0.693399
0.937500 0.500000 0.693399
1.000000 0.500000 0.693399
0.000000 0.656007 0.693399
0.062500 0.656007 0.693399
0.176777 0.656007 0.693399
0.324760 0.656007 0.693399
0.500000 0.656007 0.693399
0.675240 0.656007 0.693399
0.823223 0.656007 0.693399
0.937500 0.656007 0.693399
1.000000 0.656007 0.693399
0.000000 0.796937 0.693399
0.062500 0.796937 0.693399
0.176777 0.796937 0.693399
0.324760 0.796937 0.693399
0.500000 0.796937 0.693399
0.675240 0.796937 0.693399
0.823223 0.796937 0.693399
0.937500 0.796937 0.693399
1.000000 0.796937 0.693399
0.000000 0.917531 0.693399
0.062500 0.917531 0.693399
0.176777 0.917531 0.693399
0.324760 0.917531 0.693399
0.500000 0.917531 0.693399
0.675240 0.917531 0.693399
0.823223 0.917531 0.693399
0.937500 0.917531 0.693399
1.000000 0.917531 0.693399
0.000000 1.000000 0.693399
0.062500 1.000000 0.693399
0.176777 1.000000 0.693399
0.324760 1.000000 0.693399
0.500000 1.000000 0.693399
0.675240 1.000000 0.693399
0.823223 1.000000 0.693399
0.937500 1.000000 0.693399
1.000000 1.000000 0.693399
0.000000 0.000000 0.846107
0.062500 0.000000 0.846107
0.176777 0.000000 0.846107
0.324760 0.000000 0.846107
0.500000 0.000000 0.846107
0.675240 0.000000 0.846107
0.823223 0.000000 0.846107
0.937500 0.000000 0.846107
1.000000 0.000000 0.846107
0.000000 0.082469 0.846107
0.062500 0.082469 0.846107
0.176777 0.082469 0.846107
0.324760 0.082469 0.846107
0.500000 0.082469 0.846107
0.675240 0.082469 0.846107
0.823223 0.082469 0.846107
0.937500 0.082469 0.846107
1.000000 0.082469 0.846107
0.000000 0.203063 0.846107
0.062500 0.203063 0.846107
0.176777 0.203063 0.846107
0.324760 0.203063 0.846107
0.500000 0.203063 0.846107
0.675240 0.203063 0.846107
0.823223 0.203063 0.846107
0.937500 0.203063 0.846107
1.000000 0.203063 0.846107
0.000000 0.343993 0.846107
0.062500 0.343993 0.846107
0.176777 0.343993 0.846107
0.324760 0.343993 0.846107
0.500000 0.343993 0.846107
0.675240 0.343993 0.846107
0.823223 0.343993 0.846107
0.937500 0.343993 0.846107
1.000000 0.343993 0.846107
0.000000 0.500000 0.846107
0.062500 0.500000 0.846107
0.176777 0.500000 0.846107
0.324760 0.500000 0.846107
0.500000 0.500000 0.846107
0.675240 0.500000 0.846107
0.823223 0.500000 0.846107
0.937500 0.500000 0.846107
1.000000 0.500000 0.846107
0.000000 0.656007 0.846107
0.062500 0.656007 0.846107
0.176777 0.656007 0.846107
0.324760 0.656007 0.846107
0.500000 0.656007 0.846107
0.675240 0.656007 0.846107
0.823223 0.656007 0.846107
0.937500 0.656007 0.846107
1.000000 0.656007 0.846107
0.000000 0.796937 0.846107
0.062500 0.796937 0.846107
0.176777 0.796937 0.846107
0.324760 0.796937 0.846107
0.500000 0.796937 0.846107
0.675240 0.796937 0.846107
0.823223 0.796937 0.846107
0.937500 0.796937 0.846107
1.000000 0.796937 0.846107
0.000000 0.917531 0.846107
0.062500 0.917531 0.846107
0.176777 0.917531 0.846107
0.324760 0.917531 0.846107
0.500000 0.917531 0.846107
0.675240 0.917531 0.846107
0.823223 0.917531 0.846107
0.937500 0.917531 0.846107
1.000000 0.917531 0.846107
0.000000 1.000000 0.846107
0.062500 1.000000 0.846107
0.176777 1.000000 0.846107
0.324760 1.000000 0.846107
0.500000 1.000000 0.846107
0.675240 1.000000 0.846107
0.823223 1.000000 0.846107
0.937500 1.000000 0.846107
1.000000 1.000000 0.846107
0.000000 0.000000 0.952634
0.062500 0.000000 0.952634
0.176777 0.000000 0.952634
0.324760 0.000000 0.952634
0.500000 0.000000 0.952634
0.675240 0.000000 0.952634
0.823223 0.000000 0.952634
0.937500 0.000000 0.952634
1.000000 0.000000 0.952634
0.000000 0.082469 0.952634
0.062500 0.082469 0.952634
0.176777 0.082469 0.952634
0.324760 0.082469 0.952634
0.500000 0.082469 0.952634
0.675240 0.082469 0.952634
0.823223 0.082469 0.952634
0.937500 0.082469 0.952634
1.000000 0.082469 0.952634
0.000000 0.203063 0.952634
0.062500 0.203063 0.952634
0.176777 0.203063 0.952634
0.324760 0.203063 0.952634
0.500000 0.203063 0.952634
0.675240 0.203063 0.952634
0.823223 0.203063 0.952634
0.937500 0.203063 0.952634
1.000000 0.203063 0.952634
0.000000 0.343993 0.952634
0.062500 0.343993 0.952634
0.176777 0.343993 0.952634
0.324760 0.343993 0.952634
0.500000 0.343993 0.952634
0.675240 0.343993 0.952634
0.823223 0.343993 0.952634
0.937500 0.343993 0.952634
1.000000 0.343993 0.952634
0.000000 0.500000 0.952634
0.062500 0.500000 0.952634
0.176777 0.500000 0.952634
0.324760 0.500000 0.952634
0.500000 0.500000 0.952634
0.675240 0.500000 0.952634
0.823223 0.500000 0.952634
0.937500 0.500000 0.952634
1.000000 0.500000 0.952634
0.000000 0.656007 0.952634
0.062500 0.656007 0.952634
0.176777 0.656007 0.952634
0.324760 0.656007 0.952634
0.500000 0.656007 0.952634
0.675240 0.656007 0.952634
0.823223 0.656007 0.952634
0.937500 0.656007 0.952634
1.000000 0.656007 0.952634
0.000000 0.796937 0.952634
0.062500 0.796937 0.952634
0.176777 0.796937 0.952634
0.324760 0.796937 0.952634
0.500000 0.796937 0.952634
0.675240 0.796937 0.952634
0.823223 0.796937 0.952634
0.937500 0.796937 0.952634
1.000000 0.796937 0.952634
0.000000 0.917531 0.952634
0.062500 0.917531 0.952634
0.176777 0.917531 0.952634
0.324760 0.917531 0.952634
0.500000 0.917531 0.952634
0.675240 0.917531 0.952634
0.823223 0.917531 0.952634
0.937500 0.917531 0.952634
1.000000 0.917531 0.952634
0.000000 1.000000 0.952634
0.062500 1.000000 0.952634
0.176777 1.000000 0.952634
0.324760 1.000000 0.952634
0.500000 1.000000 0.952634
0.675240 1.000000 0.952634
0.823223 1.000000 0.952634
0.937500 1.000000 0.952634
1.000000 1.000000 0.952634
0.000000 0.000000 1.000000
0.062500 0.000000 1.000000
0.176777 0.000000 1.000000
0.324760 0.000000 1.000000
0.500000 0.000000 1.000000
0.675240 0.000000 1.000000
0.823223 0.000000 1.000000
0.937500 0.000000 1.000000
1.000000 0.000000 1.000000
0.000000 0.082469 1.000000
0.062500 0.082469 1.000000
0.176777 0.082469 1.000000
0.324760 0.082469 1.000000
0.500000 0.082469 1.000000
0.675240 0.082469 1.000000
0.823223 0.082469 1.000000
0.937500 0.082469 1.000000
1.000000 0.082469 1.000000
0.000000 0.203063 1.000000
0.062500 0.203063 1.000000
0.176777 0.203063 1.000000
0.324760 0.203063 1.000000
0.500000 0.203063 1.000000
0.675240 0.203063 1.000000
0.823223 0.203063 1.000000
0.937500 0.203063 1.000000
1.000000 0.203063 1.000000
0.000000 0.343993 1.000000
0.062500 0.343993 1.000000
0.176777 0.343993 1.000000
0.324760 0.343993 1.000000
0.500000 0.343993 1.000000
0.675240 0.343993 1.000000
0.823223 0.343993 1.000000
0.937500 0.343993 1.000000
1.000000 0.343993 1.000000
0.000000 0.500000 1.000000
0.062500 0.500000 1.000000
0.176777 0.500000 1.000000
0.324760 0.500000 1.000000
0.500000 0.500000 1.000000
0.675240 0.500000 1.000000
0.823223 0.500000 1.000000
0.937500 0.500000 1.000000
1.000000 0.500000 1.000000
0.000000 0.656007 1.000000
0.062500 0.656007 1.000000
0.176777 0.656007 1.000000
0.324760 0.656007 1.000000
0.500000 0.656007 1.000000
0.675240 0.656007 1.000000
0.823223 0.656007 1.000000
0.937500 0.656007 1.000000
1.000000 0.656007 1.000000
0.000000 0.796937 1.000000
0.062500 0.796937 1.000000
0.176777 0.796937 1.000000
0.324760 0.796937 1.000000
0.500000 0.796937 1.000000
0.675240 0.796937 1.000000
0.823223 0.796937 1.000000
0.937500 0.796937 1.000000
1.000000 0.796937 1.000000
0.000000 0.917531 1.000000
0.062500 0.917531 1.000000
0.176777 0.917531 1.000000
0.324760 0.917531 1.000000
0.500000 0.917531 1.000000
0.675240 0.917531 1.000000
0.823223 0.917531 1.000000
0.937500 0.917531 1.000000
1.000000 0.917531 1.000000
0.000000 1.000000 1.000000
0.062500 1.000000 1.000000
0.176777 1.000000 1.000000
0.324760 1.000000 1.000000
0.500000 1.000000 1.000000
0.675240 1.000000 1.000000
0.823223 1.000000 1.000000
0.937500 1.000000 1.000000
1.000000 1.000000 1.000000
