public/luts/dramatic.cube
# Dramatic
# Generated sample LUT for demo
LUT_3D_SIZE 17
0.000000 0.000000 0.000000
0.022097 0.000000 0.000000
0.062500 0.000000 0.000000
0.114820 0.000000 0.000000
0.176777 0.000000 0.000000
0.247053 0.000000 0.000000
0.324760 0.000000 0.000000
0.409244 0.000000 0.000000
0.500000 0.000000 0.000000
0.590756 0.000000 0.000000
0.675240 0.000000 0.000000
0.752947 0.000000 0.000000
0.823223 0.000000 0.000000
0.885180 0.000000 0.000000
0.937500 0.000000 0.000000
0.977903 0.000000 0.000000
1.000000 0.000000 0.000000
0.000000 0.033493 0.000000
0.022097 0.033493 0.000000
0.062500 0.033493 0.000000
0.114820 0.033493 0.000000
0.176777 0.033493 0.000000
0.247053 0.033493 0.000000
0.324760 0.033493 0.000000
0.409244 0.033493 0.000000
0.500000 0.033493 0.000000
0.590756 0.033493 0.000000
0.675240 0.033493 0.000000
0.752947 0.033493 0.000000
0.823223 0.033493 0.000000
0.885180 0.033493 0.000000
0.937500 0.033493 0.000000
0.977903 0.033493 0.000000
1.000000 0.033493 0.000000
0.000000 0.082469 0.000000
0.022097 0.082469 0.000000
0.062500 0.082469 0.000000
0.114820 0.082469 0.000000
0.176777 0.082469 0.000000
0.247053 0.082469 0.000000
0.324760 0.082469 0.000000
0.409244 0.082469 0.000000
0.500000 0.082469 0.000000
0.590756 0.082469 0.000000
0.675240 0.082469 0.000000
0.752947 0.082469 0.000000
0.823223 0.082469 0.000000
0.885180 0.082469 0.000000
0.937500 0.082469 0.000000
0.977903 0.082469 0.000000
1.000000 0.082469 0.000000
0.000000 0.139705 0.000000
0.022097 0.139705 0.000000
0.062500 0.139705 0.000000
0.114820 0.139705 0.000000
0.176777 0.139705 0.000000
0.247053 0.139705 0.000000
0.324760 0.139705 0.000000
0.409244 0.139705 0.000000
0.500000 0.139705 0.000000
0.590756 0.139705 0.000000
0.675240 0.139705 0.000000
0.752947 0.139705 0.000000
0.823223 0.139705 0.000000
0.885180 0.139705 0.000000
0.937500 0.139705 0.000000
0.977903 0.139705 0.000000
1.000000 0.139705 0.000000
0.000000 0.203063 0.000000
0.022097 0.203063 0.000000
0.062500 0.203063 0.000000
0.114820 0.203063 0.000000
0.176777 0.203063 0.000000
0.247053 0.203063 0.000000
0.324760 0.203063 0.000000
0.409244 0.203063 0.000000
0.500000 0.203063 0.000000
0.590756 0.203063 0.000000
0.675240 0.203063 0.000000
0.752947 0.203063 0.000000
0.823223 0.203063 0.000000
0.885180 0.203063 0.000000
0.937500 0.203063 0.000000
0.977903 0.203063 0.000000
1.000000 0.203063 0.000000
0.000000 0.271403 0.000000
0.022097 0.271403 0.000000
0.062500 0.271403 0.000000
0.114820 0.271403 0.000000
0.176777 0.271403 0.000000
0.247053 0.271403 0.000000
0.324760 0.271403 0.000000
0.409244 0.271403 0.000000
0.500000 0.271403 0.000000
0.590756 0.271403 0.000000
0.675240 0.271403 0.000000
0.752947 0.271403 0.000000
0.823223 0.271403 0.000000
0.885180 0.271403 0.000000
0.937500 0.271403 0.000000
0.977903 0.271403 0.000000
1.000000 0.271403 0.000000
0.000000 0.343993 0.000000
0.022097 0.343993 0.000000
0.062500 0.343993 0.000000
0.114820 0.343993 0.000000
0.176777 0.343993 0.000000
0.247053 0.343993 0.000000
0.324760 0.343993 0.000000
0.409244 0.343993 0.000000
0.500000 0.343993 0.000000
0.590756 0.343993 0.000000
0.675240 0.343993 0.000000
0.752947 0.343993 0.000000
0.823223 0.343993 0.000000
0.885180 0.343993 0.000000
0.937500 0.343993 0.000000
0.977903 0.343993 0.000000
1.000000 0.343993 0.000000
0.000000 0.420320 0.000000
0.022097 0.420320 0.000000
0.062500 0.420320 0.000000
0.114820 0.420320 0.000000
0.176777 0.420320 0.000000
0.247053 0.420320 0.000000
0.324760 0.420320 0.000000
0.409244 0.420320 0.000000
0.500000 0.420320 0.000000
0.590756 0.420320 0.000000
0.675240 0.420320 0.000000
0.752947 0.420320 0.000000
0.823223 0.420320 0.000000
0.885180 0.420320 0.000000
0.937500 0.420320 0.000000
0.977903 0.420320 0.000000
1.000000 0.420320 0.000000
0.000000 0.500000 0.000000
0.022097 0.500000 0.000000
0.062500 0.500000 0.000000
0.114820 0.500000 0.000000
0.176777 0.500000 0.000000
0.247053 0.500000 0.000000
0.324760 0.500000 0.000000
0.409244 0.500000 0.000000
0.500000 0.500000 0.000000
0.590756 0.500000 0.000000
0.675240 0.500000 0.000000
0.752947 0.500000 0.000000
0.823223 0.500000 0.000000
0.885180 0.500000 0.000000
0.937500 0.500000 0.000000
0.977903 0.500000 0.000000
1.000000 0.500000 0.000000
0.000000 0.579680 0.000000
0.022097 0.579680 0.000000
0.062500 0.579680 0.000000
0.114820 0.579680 0.000000
0.176777 0.579680 0.000000
0.247053 0.579680 0.000000
0.324760 0.579680 0.000000
0.409244 0.579680 0.000000
0.500000 0.579680 0.000000
0.590756 0.579680 0.000000
0.675240 0.579680 0.000000
0.752947 0.579680 0.000000
0.823223 0.579680 0.000000
0.885180 0.579680 0.000000
0.937500 0.579680 0.000000
0.977903 0.579680 0.000000
1.000000 0.579680 0.000000
0.000000 0.656007 0.000000
0.022097 0.656007 0.000000
0.062500 0.656007 0.000000
0.114820 0.656007 0.000000
0.176777 0.656007 0.000000
0.247053 0.656007 0.000000
0.324760 0.656007 0.000000
0.409244 0.656007 0.000000
0.500000 0.656007 0.000000
0.590756 0.656007 0.000000
0.675240 0.656007 0.000000
0.752947 0.656007 0.000000
0.823223 0.656007 0.000000
0.885180 0.656007 0.000000
0.937500 0.656007 0.000000
0.977903 0.656007 0.000000
1.000000 0.656007 0.000000
0.000000 0.728597 0.000000
0.022097 0.728597 0.000000
0.062500 0.728597 0.000000
0.114820 0.728597 0.000000
0.176777 0.728597 0.000000
0.247053 0.728597 0.000000
0.324760 0.728597 0.000000
0.409244 0.728597 0.000000
0.500000 0.728597 0.000000
0.590756 0.728597 0.000000
0.675240 0.728597 0.000000
0.752947 0.728597 0.000000
0.823223 0.728597 0.000000
0.885180 0.728597 0.000000
0.937500 0.728597 0.000000
0.977903 0.728597 0.000000
1.000000 0.728597 0.000000
0.000000 0.796937 0.000000
0.022097 0.796937 0.000000
0.062500 0.796937 0.000000
0.114820 0.796937 0.000000
0.176777 0.796937 0.000000
0.247053 0.796937 0.000000
0.324760 0.796937 0.000000
0.409244 0.796937 0.000000
0.500000 0.796937 0.000000
0.590756 0.796937 0.000000
0.675240 0.796937 0.000000
0.752947 0.796937 0.000000
0.823223 0.796937 0.000000
0.885180 0.796937 0.000000
0.937500 0.796937 0.000000
0.977903 0.796937 0.000000
1.000000 0.796937 0.000000
0.000000 0.860295 0.000000
0.022097 0.860295 0.000000
0.062500 0.860295 0.000000
0.114820 0.860295 0.000000
0.176777 0.860295 0.000000
0.247053 0.860295 0.000000
0.324760 0.860295 0.000000
0.409244 0.860295 0.000000
0.500000 0.860295 0.000000
0.590756 0.860295 0.000000
0.675240 0.860295 0.000000
0.752947 0.860295 0.000000
0.823223 0.860295 0.000000
0.885180 0.860295 0.000000
0.937500 0.860295 0.000000
0.977903 0.860295 0.000000
1.000000 0.860295 0.000000
0.000000 0.917531 0.000000
0.022097 0.917531 0.000000
0.062500 0.917531 0.000000
0.114820 0.917531 0.000000
0.176777 0.917531 0.000000
0.247053 0.917531 0.000000
0.324760 0.917531 0.000000
0.409244 0.917531 0.000000
0.500000 0.917531 0.000000
0.590756 0.917531 0.000000
0.675240 0.917531 0.000000
0.752947 0.917531 0.000000
0.823223 0.917531 0.000000
0.885180 0.917531 0.000000
0.937500 0.917531 0.000000
0.977903 0.917531 0.000000
1.000000 0.917531 0.000000
0.000000 0.966507 0.000000
0.022097 0.966507 0.000000
0.062500 0.966507 0.000000
0.114820 0.966507 0.000000
0.176777 0.966507 0.000000
0.247053 0.966507 0.000000
0.324760 0.966507 0.000000
0.409244 0.966507 0.000000
0.500000 0.966507 0.000000
0.590756 0.966507 0.000000
0.675240 0.966507 0.000000
0.752947 0.966507 0.000000
0.823223 0.966507 0.000000
0.885180 0.966507 0.000000
0.937500 0.966507 0.000000
0.977903 0.966507 0.000000
1.000000 0.966507 0.000000
0.000000 1.000000 0.000000
0.022097 1.000000 0.000000
0.062500 1.000000 0.000000
0.114820 1.000000 0.000000
0.176777 1.000000 0.000000
0.247053 1.000000 0.000000
0.324760 1.000000 0.000000
0.409244 1.000000 0.000000
0.500000 1.000000 0.000000
0.590756 1.000000 0.000000
0.675240 1.000000 0.000000
0.752947 1.000000 0.000000
0.823223 1.000000 0.000000
0.885180 1.000000 0.000000
0.937500 1.000000 0.000000
0.977903 1.000000 0.000000
1.000000 1.000000 0.000000
0.000000 0.000000 0.014579
0.022097 0.000000 0.014579
0.062500 0.000000 0.014579
0.114820 0.000000 0.014579
0.176777 0.000000 0.014579
0.247053 0.000000 0.014579
0.324760 0.000000 0.014579
0.409244 0.000000 0.014579
0.500000 0.000000 0.014579
0.590756 0.000000 0.014579
0.675240 0.000000 0.014579
0.752947 0.000000 0.014579
0.823223 0.000000 0.014579
0.885180 0.000000 0.014579
0.937500 0.000000 0.014579
0.977903 0.000000 0.014579
1.000000 0.000000 0.014579
0.000000 0.033493 0.014579
0.022097 0.033493 0.014579
0.062500 0.033493 0.014579
0.114820 0.033493 0.014579
0.176777 0.033493 0.014579
0.247053 0.033493 0.014579
0.324760 0.033493 0.014579
0.409244 0.033493 0.014579
0.500000 0.033493 0.014579
0.590756 0.033493 0.014579
0.675240 0.033493 0.014579
0.752947 0.033493 0.014579
0.823223 0.033493 0.014579
0.885180 0.033493 0.014579
0.937500 0.033493 0.014579
0.977903 0.033493 0.014579
1.000000 0.033493 0.014579
0.000000 0.082469 0.014579
0.022097 0.082469 0.014579
0.062500 0.082469 0.014579
0.114820 0.082469 0.014579
0.176777 0.082469 0.014579
0.247053 0.082469 0.014579
0.324760 0.082469 0.014579
0.409244 0.082469 0.014579
0.500000 0.082469 0.014579
0.590756 0.082469 0.014579
0.675240 0.082469 0.014579
0.752947 0.082469 0.014579
0.823223 0.082469 0.014579
0.885180 0.082469 0.014579
0.937500 0.082469 0.014579
0.977903 0.082469 0.014579
1.000000 0.082469 0.014579
0.000000 0.139705 0.014579
0.022097 0.139705 0.014579
0.062500 0.139705 0.014579
0.114820 0.139705 0.014579
0.176777 0.139705 0.014579
0.247053 0.139705 0.014579
0.324760 0.139705 0.014579
0.409244 0.139705 0.014579
0.500000 0.139705 0.014579
0.590756 0.139705 0.014579
0.675240 0.139705 0.014579
0.752947 0.139705 0.014579
0.823223 0.139705 0.014579
0.885180 0.139705 0.014579
0.937500 0.139705 0.014579
0.977903 0.139705 0.014579
1.000000 0.139705 0.014579
0.000000 0.203063 0.014579
0.022097 0.203063 0.014579
0.062500 0.203063 0.014579
0.114820 0.203063 0.014579
0.176777 0.203063 0.014579
0.247053 0.203063 0.014579
0.324760 0.203063 0.014579
0.409244 0.203063 0.014579
0.500000 0.203063 0.014579
0.590756 0.203063 0.014579
0.675240 0.203063 0.014579
0.752947 0.203063 0.014579
0.823223 0.203063 0.014579
0.885180 0.203063 0.014579
0.937500 0.203063 0.014579
0.977903 0.203063 0.014579
1.000000 0.203063 0.014579
0.000000 0.271403 0.014579
0.022097 0.271403 0.014579
0.062500 0.271403 0.014579
0.114820 0.271403 0.014579
0.176777 0.271403 0.014579
0.247053 0.271403 0.014579
0.324760 0.271403 0.014579
0.409244 0.271403 0.014579
0.500000 0.271403 0.014579
0.590756 0.271403 0.014579
0.675240 0.271403 0.014579
0.752947 0.271403 0.014579
0.823223 0.271403 0.014579
0.885180 0.271403 0.014579
0.937500 0.271403 0.014579
0.977903 0.271403 0.014579
1.000000 0.271403 0.014579
0.000000 0.343993 0.014579
0.022097 0.343993 0.014579
0.062500 0.343993 0.014579
0.114820 0.343993 0.014579
0.176777 0.343993 0.014579
0.247053 0.343993 0.014579
0.324760 0.343993 0.014579
0.409244 0.343993 0.014579
0.500000 0.343993 0.014579
0.590756 0.343993 0.014579
0.675240 0.343993 0.014579
0.752947 0.343993 0.014579
0.823223 0.343993 0.014579
0.885180 0.343993 0.014579
0.937500 0.343993 0.014579
0.977903 0.343993 0.014579
1.000000 0.343993 0.014579
0.000000 0.420320 0.014579
0.022097 0.420320 0.014579
0.062500 0.420320 0.014579
0.114820 0.420320 0.014579
0.176777 0.420320 0.014579
0.247053 0.420320 0.014579
0.324760 0.420320 0.014579
0.409244 0.420320 0.014579
0.500000 0.420320 0.014579
0.590756 0.420320 0.014579
0.675240 0.420320 0.014579
0.752947 0.420320 0.014579
0.823223 0.420320 0.014579
0.885180 0.420320 0.014579
0.937500 0.420320 0.014579
0.977903 0.420320 0.014579
1.000000 0.420320 0.014579
0.000000 0.500000 0.014579
0.022097 0.500000 0.014579
0.062500 0.500000 0.014579
0.114820 0.500000 0.014579
0.176777 0.500000 0.014579
0.247053 0.500000 0.014579
0.324760 0.500000 0.014579
0.409244 0.500000 0.014579
0.500000 0.500000 0.014579
0.590756 0.500000 0.014579
0.675240 0.500000 0.014579
0.752947 0.500000 0.014579
0.823223 0.500000 0.014579
0.885180 0.500000 0.014579
0.937500 0.500000 0.014579
0.977903 0.500000 0.014579
1.000000 0.500000 0.014579
0.000000 0.579680 0.014579
0.022097 0.579680 0.014579
0.062500 0.579680 0.014579
0.114820 0.579680 0.014579
0.176777 0.579680 0.014579
0.247053 0.579680 0.014579
0.324760 0.579680 0.014579
0.409244 0.579680 0.014579
0.500000 0.579680 0.014579
0.590756 0.579680 0.014579
0.675240 0.579680 0.014579
0.752947 0.579680 0.014579
0.823223 0.579680 0.014579
0.885180 0.579680 0.014579
0.937500 0.579680 0.014579
0.977903 0.579680 0.014579
1.000000 0.579680 0.014579
0.000000 0.656007 0.014579
0.022097 0.656007 0.014579
0.062500 0.656007 0.014579
0.114820 0.656007 0.014579
0.176777 0.656007 0.014579
0.247053 0.656007 0.014579
0.324760 0.656007 0.014579
0.409244 0.656007 0.014579
0.500000 0.656007 0.014579
0.590756 0.656007 0.014579
0.675240 0.656007 0.014579
0.752947 0.656007 0.014579
0.823223 0.656007 0.014579
0.885180 0.656007 0.014579
0.937500 0.656007 0.014579
0.977903 0.656007 0.014579
1.000000 0.656007 0.014579
0.000000 0.728597 0.014579
0.022097 0.728597 0.014579
0.062500 0.728597 0.014579
0.114820 0.728597 0.014579
0.176777 0.728597 0.014579
0.247053 0.728597 0.014579
0.324760 0.728597 0.014579
0.409244 0.728597 0.014579
0.500000 0.728597 0.014579
0.590756 0.728597 0.014579
0.675240 0.728597 0.014579
0.752947 0.728597 0.014579
0.823223 0.728597 0.014579
0.885180 0.728597 0.014579
0.937500 0.728597 0.014579
0.977903 0.728597 0.014579
1.000000 0.728597 0.014579
0.000000 0.796937 0.014579
0.022097 0.796937 0.014579
0.062500 0.796937 0.014579
0.114820 0.796937 0.014579
0.176777 0.796937 0.014579
0.247053 0.796937 0.014579
0.324760 0.796937 0.014579
0.409244 0.796937 0.014579
0.500000 0.796937 0.014579
0.590756 0.796937 0.014579
0.675240 0.796937 0.014579
0.752947 0.796937 0.014579
0.823223 0.796937 0.014579
0.885180 0.796937 0.014579
0.937500 0.796937 0.014579
0.977903 0.796937 0.014579
1.000000 0.796937 0.014579
0.000000 0.860295 0.014579
0.022097 0.860295 0.014579
0.062500 0.860295 0.014579
0.114820 0.860295 0.014579
0.176777 0.860295 0.014579
0.247053 0.860295 0.014579
0.324760 0.860295 0.014579
0.409244 0.860295 0.014579
0.500000 0.860295 0.014579
0.590756 0.860295 0.014579
0.675240 0.860295 0.014579
0.752947 0.860295 0.014579
0.823223 0.860295 0.014579
0.885180 0.860295 0.014579
0.937500 0.860295 0.014579
0.977903 0.860295 0.014579
1.000000 0.860295 0.014579
0.000000 0.917531 0.014579
0.022097 0.917531 0.014579
0.062500 0.917531 0.014579
0.114820 0.917531 0.014579
0.176777 0.917531 0.014579
0.247053 0.917531 0.014579
0.324760 0.917531 0.014579
0.409244 0.917531 0.014579
0.500000 0.917531 0.014579
0.590756 0.917531 0.014579
0.675240 0.917531 0.014579
0.752947 0.917531 0.014579
0.823223 0.917531 0.014579
0.885180 0.917531 0.014579
0.937500 0.917531 0.014579
0.977903 0.917531 0.014579
1.000000 0.917531 0.014579
0.000000 0.966507 0.014579
0.022097 0.966507 0.014579
0.062500 0.966507 0.014579
0.114820 0.966507 0.014579
0.176777 0.966507 0.014579
0.247053 0.966507 0.014579
0.324760 0.966507 0.014579
0.409244 0.966507 0.014579
0.500000 0.966507 0.014579
0.590756 0.966507 0.014579
0.675240 0.966507 0.014579
0.752947 0.966507 0.014579
0.823223 0.966507 0.014579
0.885180 0.966507 0.014579
0.937500 0.966507 0.014579
0.977903 0.966507 0.014579
1.000000 0.966507 0.014579
0.000000 1.000000 0.014579
0.022097 1.000000 0.014579
0.062500 1.000000 0.014579
0.114820 1.000000 0.014579
0.176777 1.000000 0.014579
0.247053 1.000000 0.014579
0.324760 1.000000 0.014579
0.409244 1.000000 0.014579
0.500000 1.000000 0.014579
0.590756 1.000000 0.014579
0.675240 1.000000 0.014579
0.752947 1.000000 0.014579
0.823223 1.000000 0.014579
0.885180 1.000000 0.014579
0.937500 1.000000 0.014579
0.977903 1.000000 0.014579
1.000000 1.000000 0.014579
0.000000 0.000000 0.047366
0.022097 0.000000 0.047366
0.062500 0.000000 0.047366
0.114820 0.000000 0.047366
0.176777 0.000000 0.047366
0.247053 0.000000 0.047366
0.324760 0.000000 0.047366
0.409244 0.000000 0.047366
0.500000 0.000000 0.047366
0.590756 0.000000 0.047366
0.675240 0.000000 0.047366
0.752947 0.000000 0.047366
0.823223 0.000000 0.047366
0.885180 0.000000 0.047366
0.937500 0.000000 0.047366
0.977903 0.000000 0.047366
1.000000 0.000000 0.047366
0.000000 0.033493 0.047366
0.022097 0.033493 0.047366
0.062500 0.033493 0.047366
0.114820 0.033493 0.047366
0.176777 0.033493 0.047366
0.247053 0.033493 0.047366
0.324760 0.033493 0.047366
0.409244 0.033493 0.047366
0.500000 0.033493 0.047366
0.590756 0.033493 0.047366
0.675240 0.033493 0.047366
0.752947 0.033493 0.047366
0.823223 0.033493 0.047366
0.885180 0.033493 0.047366
0.937500 0.033493 0.047366
0.977903 0.033493 0.047366
1.000000 0.033493 0.047366
0.000000 0.082469 0.047366
0.022097 0.082469 0.047366
0.062500 0.082469 0.047366
0.114820 0.082469 0.047366
0.176777 0.082469 0.047366
0.247053 0.082469 0.047366
0.324760 0.082469 0.047366
0.409244 0.082469 0.047366
0.500000 0.082469 0.047366
0.590756 0.082469 0.047366
0.675240 0.082469 0.047366
0.752947 0.082469 0.047366
0.823223 0.082469 0.047366
0.885180 0.082469 0.047366
0.937500 0.082469 0.047366
0.977903 0.082469 0.047366
1.000000 0.082469 0.047366
0.000000 0.139705 0.047366
0.022097 0.139705 0.047366
0.062500 0.139705 0.047366
0.114820 0.139705 0.047366
0.176777 0.139705 0.047366
0.247053 0.139705 0.047366
0.324760 0.139705 0.047366
0.409244 0.139705 0.047366
0.500000 0.139705 0.047366
0.590756 0.139705 0.047366
0.675240 0.139705 0.047366
0.752947 0.139705 0.047366
0.823223 0.139705 0.047366
0.885180 0.139705 0.047366
0.937500 0.139705 0.047366
0.977903 0.139705 0.047366
1.000000 0.139705 0.047366
0.000000 0.203063 0.047366
0.022097 0.203063 0.047366
0.062500 0.203063 0.047366
0.114820 0.203063 0.047366
0.176777 0.203063 0.047366
0.247053 0.203063 0.047366
0.324760 0.203063 0.047366
0.409244 0.203063 0.047366
0.500000 0.203063 0.047366
0.590756 0.203063 0.047366
0.675240 0.203063 0.047366
0.752947 0.203063 0.047366
0.823223 0.203063 0.047366
0.885180 0.203063 0.047366
0.937500 0.203063 0.047366
0.977903 0.203063 0.047366
1.000000 0.203063 0.047366
0.000000 0.271403 0.047366
0.022097 0.271403 0.047366
0.062500 0.271403 0.047366
0.114820 0.271403 0.047366
0.176777 0.271403 0.047366
0.247053 0.271403 0.047366
0.324760 0.271403 0.047366
0.409244 0.271403 0.047366
0.500000 0.271403 0.047366
0.590756 0.271403 0.047366
0.675240 0.271403 0.047366
0.752947 0.271403 0.047366
0.823223 0.271403 0.047366
0.885180 0.271403 0.047366
0.937500 0.271403 0.047366
0.977903 0.271403 0.047366
1.000000 0.271403 0.047366
0.000000 0.343993 0.047366
0.022097 0.343993 0.047366
0.062500 0.343993 0.047366
0.114820 0.343993 0.047366
0.176777 0.343993 0.047366
0.247053 0.343993 0.047366
0.324760 0.343993 0.047366
0.409244 0.343993 0.047366
0.500000 0.343993 0.047366
0.590756 0.343993 0.047366
0.675240 0.343993 0.047366
0.752947 0.343993 0.047366
0.823223 0.343993 0.047366
0.885180 0.343993 0.047366
0.937500 0.343993 0.047366
0.977903 0.343993 0.047366
1.000000 0.343993 0.047366
0.000000 0.420320 0.047366
0.022097 0.420320 0.047366
0.062500 0.420320 0.047366
0.114820 0.420320 0.047366
0.176777 0.420320 0.047366
0.247053 0.420320 0.047366
0.324760 0.420320 0.047366
0.409244 0.420320 0.047366
0.500000 0.420320 0.047366
0.590756 0.420320 0.047366
0.675240 0.420320 0.047366
0.752947 0.420320 0.047366
0.823223 0.420320 0.047366
0.885180 0.420320 0.047366
0.937500 0.420320 0.047366
0.977903 0.420320 0.047366
1.000000 0.420320 0.047366
0.000000 0.500000 0.047366
0.022097 0.500000 0.047366
0.062500 0.500000 0.047366
0.114820 0.500000 0.047366
0.176777 0.500000 0.047366
0.247053 0.500000 0.047366
0.324760 0.500000 0.047366
0.409244 0.500000 0.047366
0.500000 0.500000 0.047366
0.590756 0.500000 0.047366
0.675240 0.500000 0.047366
0.752947 0.500000 0.047366
0.823223 0.500000 0.047366
0.885180 0.500000 0.047366
0.937500 0.500000 0.047366
0.977903 0.500000 0.047366
1.000000 0.500000 0.047366
0.000000 0.579680 0.047366
0.022097 0.579680 0.047366
0.062500 0.579680 0.047366
0.114820 0.579680 0.047366
0.176777 0.579680 0.047366
0.247053 0.579680 0.047366
0.324760 0.579680 0.047366
0.409244 0.579680 0.047366
0.500000 0.579680 0.047366
0.590756 0.579680 0.047366
0.675240 0.579680 0.047366
0.752947 0.579680 0.047366
0.823223 0.579680 0.047366
0.885180 0.579680 0.047366
0.937500 0.579680 0.047366
0.977903 0.579680 0.047366
1.000000 0.579680 0.047366
0.000000 0.656007 0.047366
0.022097 0.656007 0.047366
0.062500 0.656007 0.047366
0.114820 0.656007 0.047366
0.176777 0.656007 0.047366
0.247053 0.656007 0.047366
0.324760 0.656007 0.047366
0.409244 0.656007 0.047366
0.500000 0.656007 0.047366
0.590756 0.656007 0.047366
0.675240 0.656007 0.047366
0.752947 0.656007 0.047366
0.823223 0.656007 0.047366
0.885180 0.656007 0.047366
0.937500 0.656007 0.047366
0.977903 0.656007 0.047366
1.000000 0.656007 0.047366
0.000000 0.728597 0.047366
0.022097 0.728597 0.047366
0.062500 0.728597 0.047366
0.114820 0.728597 0.047366
0.176777 0.728597 0.047366
0.247053 0.728597 0.047366
0.324760 0.728597 0.047366
0.409244 0.728597 0.047366
0.500000 0.728597 0.047366
0.590756 0.728597 0.047366
0.675240 0.728597 0.047366
0.752947 0.728597 0.047366
0.823223 0.728597 0.047366
0.885180 0.728597 0.047366
0.937500 0.728597 0.047366
0.977903 0.728597 0.047366
1.000000 0.728597 0.047366
0.000000 0.796937 0.047366
0.022097 0.796937 0.047366
0.062500 0.796937 0.047366
0.114820 0.796937 0.047366
0.176777 0.796937 0.047366
0.247053 0.796937 0.047366
0.324760 0.796937 0.047366
0.409244 0.796937 0.047366
0.500000 0.796937 0.047366
0.590756 0.796937 0.047366
0.675240 0.796937 0.047366
0.752947 0.796937 0.047366
0.823223 0.796937 0.047366
0.885180 0.796937 0.047366
0.937500 0.796937 0.047366
0.977903 0.796937 0.047366
1.000000 0.796937 0.047366
0.000000 0.860295 0.047366
0.022097 0.860295 0.047366
0.062500 0.860295 0.047366
0.114820 0.860295 0.047366
0.176777 0.860295 0.047366
0.247053 0.860295 0.047366
0.324760 0.860295 0.047366
0.409244 0.860295 0.047366
0.500000 0.860295 0.047366
0.590756 0.860295 0.047366
0.675240 0.860295 0.047366
0.752947 0.860295 0.047366
0.823223 0.860295 0.047366
0.885180 0.860295 0.047366
0.937500 0.860295 0.047366
0.977903 0.860295 0.047366
1.000000 0.860295 0.047366
0.000000 0.917531 0.047366
0.022097 0.917531 0.047366
0.062500 0.917531 0.047366
0.114820 0.917531 0.047366
0.176777 0.917531 0.047366
0.247053 0.917531 0.047366
0.324760 0.917531 0.047366
0.409244 0.917531 0.047366
0.500000 0.917531 0.047366
0.590756 0.917531 0.047366
0.675240 0.917531 0.047366
0.752947 0.917531 0.047366
0.823223 0.917531 0.047366
0.885180 0.917531 0.047366
0.937500 0.917531 0.047366
0.977903 0.917531 0.047366
1.000000 0.917531 0.047366
0.000000 0.966507 0.047366
0.022097 0.966507 0.047366
0.062500 0.966507 0.047366
0.114820 0.966507 0.047366
0.176777 0.966507 0.047366
0.247053 0.966507 0.047366
0.324760 0.966507 0.047366
0.409244 0.966507 0.047366
0.500000 0.966507 0.047366
0.590756 0.966507 0.047366
0.675240 0.966507 0.047366
0.752947 0.966507 0.047366
0.823223 0.966507 0.047366
0.885180 0.966507 0.047366
0.937500 0.966507 0.047366
0.977903 0.966507 0.047366
1.000000 0.966507 0.047366
0.000000 1.000000 0.047366
0.022097 1.000000 0.047366
0.062500 1.000000 0.047366
0.114820 1.000000 0.047366
0.176777 1.000000 0.047366
0.247053 1.000000 0.047366
0.324760 1.000000 0.047366
0.409244 1.000000 0.047366
0.500000 1.000000 0.047366
0.590756 1.000000 0.047366
0.675240 1.000000 0.047366
0.752947 1.000000 0.047366
0.823223 1.000000 0.047366
0.885180 1.000000 0.047366
0.937500 1.000000 0.047366
0.977903 1.000000 0.047366
1.000000 1.000000 0.047366
0.000000 0.000000 0.094368
0.022097 0.000000 0.094368
0.062500 0.000000 0.094368
0.114820 0.000000 0.094368
0.176777 0.000000 0.094368
0.247053 0.000000 0.094368
0.324760 0.000000 0.094368
0.409244 0.000000 0.094368
0.500000 0.000000 0.094368
0.590756 0.000000 0.094368
0.675240 0.000000 0.094368
0.752947 0.000000 0.094368
0.823223 0.000000 0.094368
0.885180 0.000000 0.094368
0.937500 0.000000 0.094368
0.977903 0.000000 0.094368
1.000000 0.000000 0.094368
0.000000 0.033493 0.094368
0.022097 0.033493 0.094368
