public/luts/vintage.cube
# Vintage
# Generated sample LUT for demo
LUT_3D_SIZE 5
0.100000 0.050000 0.100000
0.415892 0.050000 0.100000
0.689475 0.050000 0.100000
0.949078 0.050000 0.100000
1.000000 0.050000 0.100000
0.100000 0.287500 0.100000
0.415892 0.287500 0.100000
0.689475 0.287500 0.100000
0.949078 0.287500 0.100000
1.000000 0.287500 0.100000
0.100000 0.525000 0.100000
0.415892 0.525000 0.100000
0.689475 0.525000 0.100000
0.949078 0.525000 0.100000
1.000000 0.525000 0.100000
0.100000 0.762500 0.100000
0.415892 0.762500 0.100000
0.689475 0.762500 0.100000
0.949078 0.762500 0.100000
1.000000 0.762500 0.100000
0.100000 1.000000 0.100000
0.415892 1.000000 0.100000
0.689475 1.000000 0.100000
0.949078 1.000000 0.100000
1.000000 1.000000 0.100000
0.100000 0.050000 0.251572
0.415892 0.050000 0.251572
0.689475 0.050000 0.251572
0.949078 0.050000 0.251572
1.000000 0.050000 0.251572
0.100000 0.287500 0.251572
0.415892 0.287500 0.251572
0.689475 0.287500 0.251572
0.949078 0.287500 0.251572
1.000000 0.287500 0.251572
0.100000 0.525000 0.251572
0.415892 0.525000 0.251572
0.689475 0.525000 0.251572
0.949078 0.525000 0.251572
1.000000 0.525000 0.251572
0.100000 0.762500 0.251572
0.415892 0.762500 0.251572
0.689475 0.762500 0.251572
0.949078 0.762500 0.251572
1.000000 0.762500 0.251572
0.100000 1.000000 0.251572
0.415892 1.000000 0.251572
0.689475 1.000000 0.251572
0.949078 1.000000 0.251572
1.000000 1.000000 0.251572
0.100000 0.050000 0.448220
0.415892 0.050000 0.448220
0.689475 0.050000 0.448220
0.949078 0.050000 0.448220
1.000000 0.050000 0.448220
0.100000 0.287500 0.448220
0.415892 0.287500 0.448220
0.689475 0.287500 0.448220
0.949078 0.287500 0.448220
1.000000 0.287500 0.448220
0.100000 0.525000 0.448220
0.415892 0.525000 0.448220
0.689475 0.525000 0.448220
0.949078 0.525000 0.448220
1.000000 0.525000 0.448220
0.100000 0.762500 0.448220
0.415892 0.762500 0.448220
0.689475 0.762500 0.448220
0.949078 0.762500 0.448220
1.000000 0.762500 0.448220
0.100000 1.000000 0.448220
0.415892 1.000000 0.448220
0.689475 1.000000 0.448220
0.949078 1.000000 0.448220
1.000000 1.000000 0.448220
0.100000 0.050000 0.666453
0.415892 0.050000 0.666453
0.689475 0.050000 0.666453
0.949078 0.050000 0.666453
1.000000 0.050000 0.666453
0.100000 0.287500 0.666453
0.415892 0.287500 0.666453
0.689475 0.287500 0.666453
0.949078 0.287500 0.666453
1.000000 0.287500 0.666453
0.100000 0.525000 0.666453
0.415892 0.525000 0.666453
0.689475 0.525000 0.666453
0.949078 0.525000 0.666453
1.000000 0.525000 0.666453
0.100000 0.762500 0.666453
0.415892 0.762500 0.666453
0.689475 0.762500 0.666453
0.949078 0.762500 0.666453
1.000000 0.762500 0.666453
0.100000 1.000000 0.666453
0.415892 1.000000 0.666453
0.689475 1.000000 0.666453
0.949078 1.000000 0.666453
1.000000 1.000000 0.666453
0.100000 0.050000 0.900000
0.415892 0.050000 0.900000
0.689475 0.050000 0.900000
0.949078 0.050000 0.900000
1.000000 0.050000 0.900000
0.100000 0.287500 0.900000
0.415892 0.287500 0.900000
0.689475 0.287500 0.900000
0.949078 0.287500 0.900000
1.000000 0.287500 0.900000
0.100000 0.525000 0.900000
0.415892 0.525000 0.900000
0.689475 0.525000 0.900000
0.949078 0.525000 0.900000
1.000000 0.525000 0.900000
0.100000 0.762500 0.900000
0.415892 0.762500 0.900000
0.689475 0.762500 0.900000
0.949078 0.762500 0.900000
1.000000 0.762500 0.900000
0.100000 1.000000 0.900000
0.415892 1.000000 0.900000
0.689475 1.000000 0.900000
0.949078 1.000000 0.900000
1.000000 1.000000 0.900000
