public/luts/vintage.cube
# Vintage
# Generated sample LUT for demo
LUT_3D_SIZE 17
0.100000 0.050000 0.100000
0.190716 0.050000 0.100000
0.269282 0.050000 0.100000
0.343834 0.050000 0.100000
0.415892 0.050000 0.100000
0.486151 0.050000 0.100000
0.555010 0.050000 0.100000
0.622725 0.050000 0.100000
0.689475 0.050000 0.100000
0.755395 0.050000 0.100000
0.820584 0.050000 0.100000
0.885124 0.050000 0.100000
0.949078 0.050000 0.100000
1.000000 0.050000 0.100000
1.000000 0.050000 0.100000
1.000000 0.050000 0.100000
1.000000 0.050000 0.100000
0.100000 0.109375 0.100000
0.190716 0.109375 0.100000
0.269282 0.109375 0.100000
0.343834 0.109375 0.100000
0.415892 0.109375 0.100000
0.486151 0.109375 0.100000
0.555010 0.109375 0.100000
0.622725 0.109375 0.100000
0.689475 0.109375 0.100000
0.755395 0.109375 0.100000
0.820584 0.109375 0.100000
0.885124 0.109375 0.100000
0.949078 0.109375 0.100000
1.000000 0.109375 0.100000
1.000000 0.109375 0.100000
1.000000 0.109375 0.100000
1.000000 0.109375 0.100000
0.100000 0.168750 0.100000
0.190716 0.168750 0.100000
0.269282 0.168750 0.100000
0.343834 0.168750 0.100000
0.415892 0.168750 0.100000
0.486151 0.168750 0.100000
0.555010 0.168750 0.100000
0.622725 0.168750 0.100000
0.689475 0.168750 0.100000
0.755395 0.168750 0.100000
0.820584 0.168750 0.100000
0.885124 0.168750 0.100000
0.949078 0.168750 0.100000
1.000000 0.168750 0.100000
1.000000 0.168750 0.100000
1.000000 0.168750 0.100000
1.000000 0.168750 0.100000
0.100000 0.228125 0.100000
0.190716 0.228125 0.100000
0.269282 0.228125 0.100000
0.343834 0.228125 0.100000
0.415892 0.228125 0.100000
0.486151 0.228125 0.100000
0.555010 0.228125 0.100000
0.622725 0.228125 0.100000
0.689475 0.228125 0.100000
0.755395 0.228125 0.100000
0.820584 0.228125 0.100000
0.885124 0.228125 0.100000
0.949078 0.228125 0.100000
1.000000 0.228125 0.100000
1.000000 0.228125 0.100000
1.000000 0.228125 0.100000
1.000000 0.228125 0.100000
0.100000 0.287500 0.100000
0.190716 0.287500 0.100000
0.269282 0.287500 0.100000
0.343834 0.287500 0.100000
0.415892 0.287500 0.100000
0.486151 0.287500 0.100000
0.555010 0.287500 0.100000
0.622725 0.287500 0.100000
0.689475 0.287500 0.100000
0.755395 0.287500 0.100000
0.820584 0.287500 0.100000
0.885124 0.287500 0.100000
0.949078 0.287500 0.100000
1.000000 0.287500 0.100000
1.000000 0.287500 0.100000
1.000000 0.287500 0.100000
1.000000 0.287500 0.100000
0.100000 0.346875 0.100000
0.190716 0.346875 0.100000
0.269282 0.346875 0.100000
0.343834 0.346875 0.100000
0.415892 0.346875 0.100000
0.486151 0.346875 0.100000
0.555010 0.346875 0.100000
0.622725 0.346875 0.100000
0.689475 0.346875 0.100000
0.755395 0.346875 0.100000
0.820584 0.346875 0.100000
0.885124 0.346875 0.100000
0.949078 0.346875 0.100000
1.000000 0.346875 0.100000
1.000000 0.346875 0.100000
1.000000 0.346875 0.100000
1.000000 0.346875 0.100000
0.100000 0.406250 0.100000
0.190716 0.406250 0.100000
0.269282 0.406250 0.100000
0.343834 0.406250 0.100000
0.415892 0.406250 0.100000
0.486151 0.406250 0.100000
0.555010 0.406250 0.100000
0.622725 0.406250 0.100000
0.689475 0.406250 0.100000
0.755395 0.406250 0.100000
0.820584 0.406250 0.100000
0.885124 0.406250 0.100000
0.949078 0.406250 0.100000
1.000000 0.406250 0.100000
1.000000 0.406250 0.100000
1.000000 0.406250 0.100000
1.000000 0.406250 0.100000
0.100000 0.465625 0.100000
0.190716 0.465625 0.100000
0.269282 0.465625 0.100000
0.343834 0.465625 0.100000
0.415892 0.465625 0.100000
0.486151 0.465625 0.100000
0.555010 0.465625 0.100000
0.622725 0.465625 0.100000
0.689475 0.465625 0.100000
0.755395 0.465625 0.100000
0.820584 0.465625 0.100000
0.885124 0.465625 0.100000
0.949078 0.465625 0.100000
1.000000 0.465625 0.100000
1.000000 0.465625 0.100000
1.000000 0.465625 0.100000
1.000000 0.465625 0.100000
0.100000 0.525000 0.100000
0.190716 0.525000 0.100000
0.269282 0.525000 0.100000
0.343834 0.525000 0.100000
0.415892 0.525000 0.100000
0.486151 0.525000 0.100000
0.555010 0.525000 0.100000
0.622725 0.525000 0.100000
0.689475 0.525000 0.100000
0.755395 0.525000 0.100000
0.820584 0.525000 0.100000
0.885124 0.525000 0.100000
0.949078 0.525000 0.100000
1.000000 0.525000 0.100000
1.000000 0.525000 0.100000
1.000000 0.525000 0.100000
1.000000 0.525000 0.100000
0.100000 0.584375 0.100000
0.190716 0.584375 0.100000
0.269282 0.584375 0.100000
0.343834 0.584375 0.100000
0.415892 0.584375 0.100000
0.486151 0.584375 0.100000
0.555010 0.584375 0.100000
0.622725 0.584375 0.100000
0.689475 0.584375 0.100000
0.755395 0.584375 0.100000
0.820584 0.584375 0.100000
0.885124 0.584375 0.100000
0.949078 0.584375 0.100000
1.000000 0.584375 0.100000
1.000000 0.584375 0.100000
1.000000 0.584375 0.100000
1.000000 0.584375 0.100000
0.100000 0.643750 0.100000
0.190716 0.643750 0.100000
0.269282 0.643750 0.100000
0.343834 0.643750 0.100000
0.415892 0.643750 0.100000
0.486151 0.643750 0.100000
0.555010 0.643750 0.100000
0.622725 0.643750 0.100000
0.689475 0.643750 0.100000
0.755395 0.643750 0.100000
0.820584 0.643750 0.100000
0.885124 0.643750 0.100000
0.949078 0.643750 0.100000
1.000000 0.643750 0.100000
1.000000 0.643750 0.100000
1.000000 0.643750 0.100000
1.000000 0.643750 0.100000
0.100000 0.703125 0.100000
0.190716 0.703125 0.100000
0.269282 0.703125 0.100000
0.343834 0.703125 0.100000
0.415892 0.703125 0.100000
0.486151 0.703125 0.100000
0.555010 0.703125 0.100000
0.622725 0.703125 0.100000
0.689475 0.703125 0.100000
0.755395 0.703125 0.100000
0.820584 0.703125 0.100000
0.885124 0.703125 0.100000
0.949078 0.703125 0.100000
1.000000 0.703125 0.100000
1.000000 0.703125 0.100000
1.000000 0.703125 0.100000
1.000000 0.703125 0.100000
0.100000 0.762500 0.100000
0.190716 0.762500 0.100000
0.269282 0.762500 0.100000
0.343834 0.762500 0.100000
0.415892 0.762500 0.100000
0.486151 0.762500 0.100000
0.555010 0.762500 0.100000
0.622725 0.762500 0.100000
0.689475 0.762500 0.100000
0.755395 0.762500 0.100000
0.820584 0.762500 0.100000
0.885124 0.762500 0.100000
0.949078 0.762500 0.100000
1.000000 0.762500 0.100000
1.000000 0.762500 0.100000
1.000000 0.762500 0.100000
1.000000 0.762500 0.100000
0.100000 0.821875 0.100000
0.190716 0.821875 0.100000
0.269282 0.821875 0.100000
0.343834 0.821875 0.100000
0.415892 0.821875 0.100000
0.486151 0.821875 0.100000
0.555010 0.821875 0.100000
0.622725 0.821875 0.100000
0.689475 0.821875 0.100000
0.755395 0.821875 0.100000
0.820584 0.821875 0.100000
0.885124 0.821875 0.100000
0.949078 0.821875 0.100000
1.000000 0.821875 0.100000
1.000000 0.821875 0.100000
1.000000 0.821875 0.100000
1.000000 0.821875 0.100000
0.100000 0.881250 0.100000
0.190716 0.881250 0.100000
0.269282 0.881250 0.100000
0.343834 0.881250 0.100000
0.415892 0.881250 0.100000
0.486151 0.881250 0.100000
0.555010 0.881250 0.100000
0.622725 0.881250 0.100000
0.689475 0.881250 0.100000
0.755395 0.881250 0.100000
0.820584 0.881250 0.100000
0.885124 0.881250 0.100000
0.949078 0.881250 0.100000
1.000000 0.881250 0.100000
1.000000 0.881250 0.100000
1.000000 0.881250 0.100000
1.000000 0.881250 0.100000
0.100000 0.940625 0.100000
0.190716 0.940625 0.100000
0.269282 0.940625 0.100000
0.343834 0.940625 0.100000
0.415892 0.940625 0.100000
0.486151 0.940625 0.100000
0.555010 0.940625 0.100000
0.622725 0.940625 0.100000
0.689475 0.940625 0.100000
0.755395 0.940625 0.100000
0.820584 0.940625 0.100000
0.885124 0.940625 0.100000
0.949078 0.940625 0.100000
1.000000 0.940625 0.100000
1.000000 0.940625 0.100000
1.000000 0.940625 0.100000
1.000000 0.940625 0.100000
0.100000 1.000000 0.100000
0.190716 1.000000 0.100000
0.269282 1.000000 0.100000
0.343834 1.000000 0.100000
0.415892 1.000000 0.100000
0.486151 1.000000 0.100000
0.555010 1.000000 0.100000
0.622725 1.000000 0.100000
0.689475 1.000000 0.100000
0.755395 1.000000 0.100000
0.820584 1.000000 0.100000
0.885124 1.000000 0.100000
0.949078 1.000000 0.100000
1.000000 1.000000 0.100000
1.000000 1.000000 0.100000
1.000000 1.000000 0.100000
1.000000 1.000000 0.100000
0.100000 0.050000 0.128717
0.190716 0.050000 0.128717
0.269282 0.050000 0.128717
0.343834 0.050000 0.128717
0.415892 0.050000 0.128717
0.486151 0.050000 0.128717
0.555010 0.050000 0.128717
0.622725 0.050000 0.128717
0.689475 0.050000 0.128717
0.755395 0.050000 0.128717
0.820584 0.050000 0.128717
0.885124 0.050000 0.128717
0.949078 0.050000 0.128717
1.000000 0.050000 0.128717
1.000000 0.050000 0.128717
1.000000 0.050000 0.128717
1.000000 0.050000 0.128717
0.100000 0.109375 0.128717
0.190716 0.109375 0.128717
0.269282 0.109375 0.128717
0.343834 0.109375 0.128717
0.415892 0.109375 0.128717
0.486151 0.109375 0.128717
0.555010 0.109375 0.128717
0.622725 0.109375 0.128717
0.689475 0.109375 0.128717
0.755395 0.109375 0.128717
0.820584 0.109375 0.128717
0.885124 0.109375 0.128717
0.949078 0.109375 0.128717
1.000000 0.109375 0.128717
1.000000 0.109375 0.128717
1.000000 0.109375 0.128717
1.000000 0.109375 0.128717
0.100000 0.168750 0.128717
0.190716 0.168750 0.128717
0.269282 0.168750 0.128717
0.343834 0.168750 0.128717
0.415892 0.168750 0.128717
0.486151 0.168750 0.128717
0.555010 0.168750 0.128717
0.622725 0.168750 0.128717
0.689475 0.168750 0.128717
0.755395 0.168750 0.128717
0.820584 0.168750 0.128717
0.885124 0.168750 0.128717
0.949078 0.168750 0.128717
1.000000 0.168750 0.128717
1.000000 0.168750 0.128717
1.000000 0.168750 0.128717
1.000000 0.168750 0.128717
0.100000 0.228125 0.128717
0.190716 0.228125 0.128717
0.269282 0.228125 0.128717
0.343834 0.228125 0.128717
0.415892 0.228125 0.128717
0.486151 0.228125 0.128717
0.555010 0.228125 0.128717
0.622725 0.228125 0.128717
0.689475 0.228125 0.128717
0.755395 0.228125 0.128717
0.820584 0.228125 0.128717
0.885124 0.228125 0.128717
0.949078 0.228125 0.128717
1.000000 0.228125 0.128717
1.000000 0.228125 0.128717
1.000000 0.228125 0.128717
1.000000 0.228125 0.128717
0.100000 0.287500 0.128717
0.190716 0.287500 0.128717
0.269282 0.287500 0.128717
0.343834 0.287500 0.128717
0.415892 0.287500 0.128717
0.486151 0.287500 0.128717
0.555010 0.287500 0.128717
0.622725 0.287500 0.128717
0.689475 0.287500 0.128717
0.755395 0.287500 0.128717
0.820584 0.287500 0.128717
0.885124 0.287500 0.128717
0.949078 0.287500 0.128717
1.000000 0.287500 0.128717
1.000000 0.287500 0.128717
1.000000 0.287500 0.128717
1.000000 0.287500 0.128717
0.100000 0.346875 0.128717
0.190716 0.346875 0.128717
0.269282 0.346875 0.128717
0.343834 0.346875 0.128717
0.415892 0.346875 0.128717
0.486151 0.346875 0.128717
0.555010 0.346875 0.128717
0.622725 0.346875 0.128717
0.689475 0.346875 0.128717
0.755395 0.346875 0.128717
0.820584 0.346875 0.128717
0.885124 0.346875 0.128717
0.949078 0.346875 0.128717
1.000000 0.346875 0.128717
1.000000 0.346875 0.128717
1.000000 0.346875 0.128717
1.000000 0.346875 0.128717
0.100000 0.406250 0.128717
0.190716 0.406250 0.128717
0.269282 0.406250 0.128717
0.343834 0.406250 0.128717
0.415892 0.406250 0.128717
0.486151 0.406250 0.128717
0.555010 0.406250 0.128717
0.622725 0.406250 0.128717
0.689475 0.406250 0.128717
0.755395 0.406250 0.128717
0.820584 0.406250 0.128717
0.885124 0.406250 0.128717
0.949078 0.406250 0.128717
1.000000 0.406250 0.128717
1.000000 0.406250 0.128717
1.000000 0.406250 0.128717
1.000000 0.406250 0.128717
0.100000 0.465625 0.128717
0.190716 0.465625 0.128717
0.269282 0.465625 0.128717
0.343834 0.465625 0.128717
0.415892 0.465625 0.128717
0.486151 0.465625 0.128717
0.555010 0.465625 0.128717
0.622725 0.465625 0.128717
0.689475 0.465625 0.128717
0.755395 0.465625 0.128717
0.820584 0.465625 0.128717
0.885124 0.465625 0.128717
0.949078 0.465625 0.128717
1.000000 0.465625 0.128717
1.000000 0.465625 0.128717
1.000000 0.465625 0.128717
1.000000 0.465625 0.128717
0.100000 0.525000 0.128717
0.190716 0.525000 0.128717
0.269282 0.525000 0.128717
0.343834 0.525000 0.128717
0.415892 0.525000 0.128717
0.486151 0.525000 0.128717
0.555010 0.525000 0.128717
0.622725 0.525000 0.128717
0.689475 0.525000 0.128717
0.755395 0.525000 0.128717
0.820584 0.525000 0.128717
0.885124 0.525000 0.128717
0.949078 0.525000 0.128717
1.000000 0.525000 0.128717
1.000000 0.525000 0.128717
1.000000 0.525000 0.128717
1.000000 0.525000 0.128717
0.100000 0.584375 0.128717
0.190716 0.584375 0.128717
0.269282 0.584375 0.128717
0.343834 0.584375 0.128717
0.415892 0.584375 0.128717
0.486151 0.584375 0.128717
0.555010 0.584375 0.128717
0.622725 0.584375 0.128717
0.689475 0.584375 0.128717
0.755395 0.584375 0.128717
0.820584 0.584375 0.128717
0.885124 0.584375 0.128717
0.949078 0.584375 0.128717
1.000000 0.584375 0.128717
1.000000 0.584375 0.128717
1.000000 0.584375 0.128717
1.000000 0.584375 0.128717
0.100000 0.643750 0.128717
0.190716 0.643750 0.128717
0.269282 0.643750 0.128717
0.343834 0.643750 0.128717
0.415892 0.643750 0.128717
0.486151 0.643750 0.128717
0.555010 0.643750 0.128717
0.622725 0.643750 0.128717
0.689475 0.643750 0.128717
0.755395 0.643750 0.128717
0.820584 0.643750 0.128717
0.885124 0.643750 0.128717
0.949078 0.643750 0.128717
1.000000 0.643750 0.128717
1.000000 0.643750 0.128717
1.000000 0.643750 0.128717
1.000000 0.643750 0.128717
0.100000 0.703125 0.128717
0.190716 0.703125 0.128717
0.269282 0.703125 0.128717
0.343834 0.703125 0.128717
0.415892 0.703125 0.128717
0.486151 0.703125 0.128717
0.555010 0.703125 0.128717
0.622725 0.703125 0.128717
0.689475 0.703125 0.128717
0.755395 0.703125 0.128717
0.820584 0.703125 0.128717
0.885124 0.703125 0.128717
0.949078 0.703125 0.128717
1.000000 0.703125 0.128717
1.000000 0.703125 0.128717
1.000000 0.703125 0.128717
1.000000 0.703125 0.128717
0.100000 0.762500 0.128717
0.190716 0.762500 0.128717
0.269282 0.762500 0.128717
0.343834 0.762500 0.128717
0.415892 0.762500 0.128717
0.486151 0.762500 0.128717
0.555010 0.762500 0.128717
0.622725 0.762500 0.128717
0.689475 0.762500 0.128717
0.755395 0.762500 0.128717
0.820584 0.762500 0.128717
0.885124 0.762500 0.128717
0.949078 0.762500 0.128717
1.000000 0.762500 0.128717
1.000000 0.762500 0.128717
1.000000 0.762500 0.128717
1.000000 0.762500 0.128717
0.100000 0.821875 0.128717
0.190716 0.821875 0.128717
0.269282 0.821875 0.128717
0.343834 0.821875 0.128717
0.415892 0.821875 0.128717
0.486151 0.821875 0.128717
0.555010 0.821875 0.128717
0.622725 0.821875 0.128717
0.689475 0.821875 0.128717
0.755395 0.821875 0.128717
0.820584 0.821875 0.128717
0.885124 0.821875 0.128717
0.949078 0.821875 0.128717
1.000000 0.821875 0.128717
1.000000 0.821875 0.128717
1.000000 0.821875 0.128717
1.000000 0.821875 0.128717
0.100000 0.881250 0.128717
0.190716 0.881250 0.128717
0.269282 0.881250 0.128717
0.343834 0.881250 0.128717
0.415892 0.881250 0.128717
0.486151 0.881250 0.128717
0.555010 0.881250 0.128717
0.622725 0.881250 0.128717
0.689475 0.881250 0.128717
0.755395 0.881250 0.128717
0.820584 0.881250 0.128717
0.885124 0.881250 0.128717
0.949078 0.881250 0.128717
1.000000 0.881250 0.128717
1.000000 0.881250 0.128717
1.000000 0.881250 0.128717
1.000000 0.881250 0.128717
0.100000 0.940625 0.128717
0.190716 0.940625 0.128717
0.269282 0.940625 0.128717
0.343834 0.940625 0.128717
0.415892 0.940625 0.128717
0.486151 0.940625 0.128717
0.555010 0.940625 0.128717
0.622725 0.940625 0.128717
0.689475 0.940625 0.128717
0.755395 0.940625 0.128717
0.820584 0.940625 0.128717
0.885124 0.940625 0.128717
0.949078 0.940625 0.128717
1.000000 0.940625 0.128717
1.000000 0.940625 0.128717
1.000000 0.940625 0.128717
1.000000 0.940625 0.128717
0.100000 1.000000 0.128717
0.190716 1.000000 0.128717
0.269282 1.000000 0.128717
0.343834 1.000000 0.128717
0.415892 1.000000 0.128717
0.486151 1.000000 0.128717
0.555010 1.000000 0.128717
0.622725 1.000000 0.128717
0.689475 1.000000 0.128717
0.755395 1.000000 0.128717
0.820584 1.000000 0.128717
0.885124 1.000000 0.128717
0.949078 1.000000 0.128717
1.000000 1.000000 0.128717
1.000000 1.000000 0.128717
1.000000 1.000000 0.128717
1.000000 1.000000 0.128717
0.100000 0.050000 0.165975
0.190716 0.050000 0.165975
0.269282 0.050000 0.165975
0.343834 0.050000 0.165975
0.415892 0.050000 0.165975
0.486151 0.050000 0.165975
0.555010 0.050000 0.165975
0.622725 0.050000 0.165975
0.689475 0.050000 0.165975
0.755395 0.050000 0.165975
0.820584 0.050000 0.165975
0.885124 0.050000 0.165975
0.949078 0.050000 0.165975
1.000000 0.050000 0.165975
1.000000 0.050000 0.165975
1.000000 0.050000 0.165975
1.000000 0.050000 0.165975
0.100000 0.109375 0.165975
0.190716 0.109375 0.165975
0.269282 0.109375 0.165975
0.343834 0.109375 0.165975
0.415892 0.109375 0.165975
0.486151 0.109375 0.165975
0.555010 0.109375 0.165975
0.622725 0.109375 0.165975
0.689475 0.109375 0.165975
0.755395 0.109375 0.165975
0.820584 0.109375 0.165975
0.885124 0.109375 0.165975
0.949078 0.109375 0.165975
1.000000 0.109375 0.165975
1.000000 0.109375 0.165975
1.000000 0.109375 0.165975
1.000000 0.109375 0.165975
0.100000 0.168750 0.165975
0.190716 0.168750 0.165975
0.269282 0.168750 0.165975
0.343834 0.168750 0.165975
0.415892 0.168750 0.165975
0.486151 0.168750 0.165975
0.555010 0.168750 0.165975
0.622725 0.168750 0.165975
0.689475 0.168750 0.165975
0.755395 0.168750 0.165975
0.820584 0.168750 0.165975
0.885124 0.168750 0.165975
0.949078 0.168750 0.165975
1.000000 0.168750 0.165975
1.000000 0.168750 0.165975
1.000000 0.168750 0.165975
1.000000 0.168750 0.165975
0.100000 0.228125 0.165975
0.190716 0.228125 0.165975
0.269282 0.228125 0.165975
0.343834 0.228125 0.165975
0.415892 0.228125 0.165975
0.486151 0.228125 0.165975
0.555010 0.228125 0.165975
0.622725 0.228125 0.165975
0.689475 0.228125 0.165975
0.755395 0.228125 0.165975
0.820584 0.228125 0.165975
0.885124 0.228125 0.165975
0.949078 0.228125 0.165975
1.000000 0.228125 0.165975
1.000000 0.228125 0.165975
1.000000 0.228125 0.165975
1.000000 0.228125 0.165975
0.100000 0.287500 0.165975
0.190716 0.287500 0.165975
0.269282 0.287500 0.165975
0.343834 0.287500 0.165975
0.415892 0.287500 0.165975
0.486151 0.287500 0.165975
0.555010 0.287500 0.165975
0.622725 0.287500 0.165975
0.689475 0.287500 0.165975
0.755395 0.287500 0.165975
0.820584 0.287500 0.165975
0.885124 0.287500 0.165975
0.949078 0.287500 0.165975
1.000000 0.287500 0.165975
1.000000 0.287500 0.165975
1.000000 0.287500 0.165975
1.000000 0.287500 0.165975
0.100000 0.346875 0.165975
0.190716 0.346875 0.165975
0.269282 0.346875 0.165975
0.343834 0.346875 0.165975
0.415892 0.346875 0.165975
0.486151 0.346875 0.165975
0.555010 0.346875 0.165975
0.622725 0.346875 0.165975
0.689475 0.346875 0.165975
0.755395 0.346875 0.165975
0.820584 0.346875 0.165975
0.885124 0.346875 0.165975
0.949078 0.346875 0.165975
1.000000 0.346875 0.165975
1.000000 0.346875 0.165975
1.000000 0.346875 0.165975
1.000000 0.346875 0.165975
0.100000 0.406250 0.165975
0.190716 0.406250 0.165975
0.269282 0.406250 0.165975
0.343834 0.406250 0.165975
0.415892 0.406250 0.165975
0.486151 0.406250 0.165975
0.555010 0.406250 0.165975
0.622725 0.406250 0.165975
0.689475 0.406250 0.165975
0.755395 0.406250 0.165975
0.820584 0.406250 0.165975
0.885124 0.406250 0.165975
0.949078 0.406250 0.165975
1.000000 0.406250 0.165975
1.000000 0.406250 0.165975
1.000000 0.406250 0.165975
1.000000 0.406250 0.165975
0.100000 0.465625 0.165975
0.190716 0.465625 0.165975
0.269282 0.465625 0.165975
0.343834 0.465625 0.165975
0.415892 0.465625 0.165975
0.486151 0.465625 0.165975
0.555010 0.465625 0.165975
0.622725 0.465625 0.165975
0.689475 0.465625 0.165975
0.755395 0.465625 0.165975
0.820584 0.465625 0.165975
0.885124 0.465625 0.165975
0.949078 0.465625 0.165975
1.000000 0.465625 0.165975
1.000000 0.465625 0.165975
1.000000 0.465625 0.165975
1.000000 0.465625 0.165975
0.100000 0.525000 0.165975
0.190716 0.525000 0.165975
0.269282 0.525000 0.165975
0.343834 0.525000 0.165975
0.415892 0.525000 0.165975
0.486151 0.525000 0.165975
0.555010 0.525000 0.165975
0.622725 0.525000 0.165975
0.689475 0.525000 0.165975
0.755395 0.525000 0.165975
0.820584 0.525000 0.165975
0.885124 0.525000 0.165975
0.949078 0.525000 0.165975
1.000000 0.525000 0.165975
1.000000 0.525000 0.165975
1.000000 0.525000 0.165975
1.000000 0.525000 0.165975
0.100000 0.584375 0.165975
0.190716 0.584375 0.165975
0.269282 0.584375 0.165975
0.343834 0.584375 0.165975
0.415892 0.584375 0.165975
0.486151 0.584375 0.165975
0.555010 0.584375 0.165975
0.622725 0.584375 0.165975
0.689475 0.584375 0.165975
0.755395 0.584375 0.165975
0.820584 0.584375 0.165975
0.885124 0.584375 0.165975
0.949078 0.584375 0.165975
1.000000 0.584375 0.165975
1.000000 0.584375 0.165975
1.000000 0.584375 0.165975
1.000000 0.584375 0.165975
0.100000 0.643750 0.165975
0.190716 0.643750 0.165975
0.269282 0.643750 0.165975
0.343834 0.643750 0.165975
0.415892 0.643750 0.165975
0.486151 0.643750 0.165975
0.555010 0.643750 0.165975
0.622725 0.643750 0.165975
0.689475 0.643750 0.165975
0.755395 0.643750 0.165975
0.820584 0.643750 0.165975
0.885124 0.643750 0.165975
0.949078 0.643750 0.165975
1.000000 0.643750 0.165975
1.000000 0.643750 0.165975
1.000000 0.643750 0.165975
1.000000 0.643750 0.165975
0.100000 0.703125 0.165975
0.190716 0.703125 0.165975
0.269282 0.703125 0.165975
0.343834 0.703125 0.165975
0.415892 0.703125 0.165975
0.486151 0.703125 0.165975
0.555010 0.703125 0.165975
0.622725 0.703125 0.165975
0.689475 0.703125 0.165975
0.755395 0.703125 0.165975
0.820584 0.703125 0.165975
0.885124 0.703125 0.165975
0.949078 0.703125 0.165975
1.000000 0.703125 0.165975
1.000000 0.703125 0.165975
1.000000 0.703125 0.165975
1.000000 0.703125 0.165975
0.100000 0.762500 0.165975
0.190716 0.762500 0.165975
0.269282 0.762500 0.165975
0.343834 0.762500 0.165975
0.415892 0.762500 0.165975
0.486151 0.762500 0.165975
0.555010 0.762500 0.165975
0.622725 0.762500 0.165975
0.689475 0.762500 0.165975
0.755395 0.762500 0.165975
0.820584 0.762500 0.165975
0.885124 0.762500 0.165975
0.949078 0.762500 0.165975
1.000000 0.762500 0.165975
1.000000 0.762500 0.165975
1.000000 0.762500 0.165975
1.000000 0.762500 0.165975
0.100000 0.821875 0.165975
0.190716 0.821875 0.165975
0.269282 0.821875 0.165975
0.343834 0.821875 0.165975
0.415892 0.821875 0.165975
0.486151 0.821875 0.165975
0.555010 0.821875 0.165975
0.622725 0.821875 0.165975
0.689475 0.821875 0.165975
0.755395 0.821875 0.165975
0.820584 0.821875 0.165975
0.885124 0.821875 0.165975
0.949078 0.821875 0.165975
1.000000 0.821875 0.165975
1.000000 0.821875 0.165975
1.000000 0.821875 0.165975
1.000000 0.821875 0.165975
0.100000 0.881250 0.165975
0.190716 0.881250 0.165975
0.269282 0.881250 0.165975
0.343834 0.881250 0.165975
0.415892 0.881250 0.165975
0.486151 0.881250 0.165975
0.555010 0.881250 0.165975
0.622725 0.881250 0.165975
0.689475 0.881250 0.165975
0.755395 0.881250 0.165975
0.820584 0.881250 0.165975
0.885124 0.881250 0.165975
0.949078 0.881250 0.165975
1.000000 0.881250 0.165975
1.000000 0.881250 0.165975
1.000000 0.881250 0.165975
1.000000 0.881250 0.165975
0.100000 0.940625 0.165975
0.190716 0.940625 0.165975
0.269282 0.940625 0.165975
0.343834 0.940625 0.165975
0.415892 0.940625 0.165975
0.486151 0.940625 0.165975
0.555010 0.940625 0.165975
0.622725 0.940625 0.165975
0.689475 0.940625 0.165975
0.755395 0.940625 0.165975
0.820584 0.940625 0.165975
0.885124 0.940625 0.165975
0.949078 0.940625 0.165975
1.000000 0.940625 0.165975
1.000000 0.940625 0.165975
1.000000 0.940625 0.165975
1.000000 0.940625 0.165975
0.100000 1.000000 0.165975
0.190716 1.000000 0.165975
0.269282 1.000000 0.165975
0.343834 1.000000 0.165975
0.415892 1.000000 0.165975
0.486151 1.000000 0.165975
0.555010 1.000000 0.165975
0.622725 1.000000 0.165975
0.689475 1.000000 0.165975
0.755395 1.000000 0.165975
0.820584 1.000000 0.165975
0.885124 1.000000 0.165975
0.949078 1.000000 0.165975
1.000000 1.000000 0.165975
1.000000 1.000000 0.165975
1.000000 1.000000 0.165975
1.000000 1.000000 0.165975
0.100000 0.050000 0.207323
0.190716 0.050000 0.207323
0.269282 0.050000 0.207323
0.343834 0.050000 0.207323
0.415892 0.050000 0.207323
0.486151 0.050000 0.207323
0.555010 0.050000 0.207323
0.622725 0.050000 0.207323
0.689475 0.050000 0.207323
0.755395 0.050000 0.207323
0.820584 0.050000 0.207323
0.885124 0.050000 0.207323
0.949078 0.050000 0.207323
1.000000 0.050000 0.207323
1.000000 0.050000 0.207323
1.000000 0.050000 0.207323
1.000000 0.050000 0.207323
0.100000 0.109375 0.207323
0.190716 0.109375 0.207323
