public/luts/vintage.cube
# Vintage
# Generated sample LUT for demo
LUT_3D_SIZE 9
0.100000 0.050000 0.100000
0.269282 0.050000 0.100000
0.415892 0.050000 0.100000
0.555010 0.050000 0.100000
0.689475 0.050000 0.100000
0.820584 0.050000 0.100000
0.949078 0.050000 0.100000
1.000000 0.050000 0.100000
1.000000 0.050000 0.100000
0.100000 0.168750 0.100000
0.269282 0.168750 0.100000
0.415892 0.168750 0.100000
0.555010 0.168750 0.100000
0.689475 0.168750 0.100000
0.820584 0.168750 0.100000
0.949078 0.168750 0.100000
1.000000 0.168750 0.100000
1.000000 0.168750 0.100000
0.100000 0.287500 0.100000
0.269282 0.287500 0.100000
0.415892 0.287500 0.100000
0.555010 0.287500 0.100000
0.689475 0.287500 0.100000
0.820584 0.287500 0.100000
0.949078 0.287500 0.100000
1.000000 0.287500 0.100000
1.000000 0.287500 0.100000
0.100000 0.406250 0.100000
0.269282 0.406250 0.100000
0.415892 0.406250 0.100000
0.555010 0.406250 0.100000
0.689475 0.406250 0.100000
0.820584 0.406250 0.100000
0.949078 0.406250 0.100000
1.000000 0.406250 0.100000
1.000000 0.406250 0.100000
0.100000 0.525000 0.100000
0.269282 0.525000 0.100000
0.415892 0.525000 0.100000
0.555010 0.525000 0.100000
0.689475 0.525000 0.100000
0.820584 0.525000 0.100000
0.949078 0.525000 0.100000
1.000000 0.525000 0.100000
1.000000 0.525000 0.100000
0.100000 0.643750 0.100000
0.269282 0.643750 0.100000
0.415892 0.643750 0.100000
0.555010 0.643750 0.100000
0.689475 0.643750 0.100000
0.820584 0.643750 0.100000
0.949078 0.643750 0.100000
1.000000 0.643750 0.100000
1.000000 0.643750 0.100000
0.100000 0.762500 0.100000
0.269282 0.762500 0.100000
0.415892 0.762500 0.100000
0.555010 0.762500 0.100000
0.689475 0.762500 0.100000
0.820584 0.762500 0.100000
0.949078 0.762500 0.100000
1.000000 0.762500 0.100000
1.000000 0.762500 0.100000
0.100000 0.881250 0.100000
0.269282 0.881250 0.100000
0.415892 0.881250 0.100000
0.555010 0.881250 0.100000
0.689475 0.881250 0.100000
0.820584 0.881250 0.100000
0.949078 0.881250 0.100000
1.000000 0.881250 0.100000
1.000000 0.881250 0.100000
0.100000 1.000000 0.100000
0.269282 1.000000 0.100000
0.415892 1.000000 0.100000
0.555010 1.000000 0.100000
0.689475 1.000000 0.100000
0.820584 1.000000 0.100000
0.949078 1.000000 0.100000
1.000000 1.000000 0.100000
1.000000 1.000000 0.100000
0.100000 0.050000 0.165975
0.269282 0.050000 0.165975
0.415892 0.050000 0.165975
0.555010 0.050000 0.165975
0.689475 0.050000 0.165975
0.820584 0.050000 0.165975
0.949078 0.050000 0.165975
1.000000 0.050000 0.165975
1.000000 0.050000 0.165975
0.100000 0.168750 0.165975
0.269282 0.168750 0.165975
0.415892 0.168750 0.165975
0.555010 0.168750 0.165975
0.689475 0.168750 0.165975
0.820584 0.168750 0.165975
0.949078 0.168750 0.165975
1.000000 0.168750 0.165975
1.000000 0.168750 0.165975
0.100000 0.287500 0.165975
0.269282 0.287500 0.165975
0.415892 0.287500 0.165975
0.555010 0.287500 0.165975
0.689475 0.287500 0.165975
0.820584 0.287500 0.165975
0.949078 0.287500 0.165975
1.000000 0.287500 0.165975
1.000000 0.287500 0.165975
0.100000 0.406250 0.165975
0.269282 0.406250 0.165975
0.415892 0.406250 0.165975
0.555010 0.406250 0.165975
0.689475 0.406250 0.165975
0.820584 0.406250 0.165975
0.949078 0.406250 0.165975
1.000000 0.406250 0.165975
1.000000 0.406250 0.165975
0.100000 0.525000 0.165975
0.269282 0.525000 0.165975
0.415892 0.525000 0.165975
0.555010 0.525000 0.165975
0.689475 0.525000 0.165975
0.820584 0.525000 0.165975
0.949078 0.525000 0.165975
1.000000 0.525000 0.165975
1.000000 0.525000 0.165975
0.100000 0.643750 0.165975
0.269282 0.643750 0.165975
0.415892 0.643750 0.165975
0.555010 0.643750 0.165975
0.689475 0.643750 0.165975
0.820584 0.643750 0.165975
0.949078 0.643750 0.165975
1.000000 0.643750 0.165975
1.000000 0.643750 0.165975
0.100000 0.762500 0.165975
0.269282 0.762500 0.165975
0.415892 0.762500 0.165975
0.555010 0.762500 0.165975
0.689475 0.762500 0.165975
0.820584 0.762500 0.165975
0.949078 0.762500 0.165975
1.000000 0.762500 0.165975
1.000000 0.762500 0.165975
0.100000 0.881250 0.165975
0.269282 0.881250 0.165975
0.415892 0.881250 0.165975
0.555010 0.881250 0.165975
0.689475 0.881250 0.165975
0.820584 0.881250 0.165975
0.949078 0.881250 0.165975
1.000000 0.881250 0.165975
1.000000 0.881250 0.165975
0.100000 1.000000 0.165975
0.269282 1.000000 0.165975
0.415892 1.000000 0.165975
0.555010 1.000000 0.165975
0.689475 1.000000 0.165975
0.820584 1.000000 0.165975
0.949078 1.000000 0.165975
1.000000 1.000000 0.165975
1.000000 1.000000 0.165975
0.100000 0.050000 0.251572
0.269282 0.050000 0.251572
0.415892 0.050000 0.251572
0.555010 0.050000 0.251572
0.689475 0.050000 0.251572
0.820584 0.050000 0.251572
0.949078 0.050000 0.251572
1.000000 0.050000 0.251572
1.000000 0.050000 0.251572
0.100000 0.168750 0.251572
0.269282 0.168750 0.251572
0.415892 0.168750 0.251572
0.555010 0.168750 0.251572
0.689475 0.168750 0.251572
0.820584 0.168750 0.251572
0.949078 0.168750 0.251572
1.000000 0.168750 0.251572
1.000000 0.168750 0.251572
0.100000 0.287500 0.251572
0.269282 0.287500 0.251572
0.415892 0.287500 0.251572
0.555010 0.287500 0.251572
0.689475 0.287500 0.251572
0.820584 0.287500 0.251572
0.949078 0.287500 0.251572
1.000000 0.287500 0.251572
1.000000 0.287500 0.251572
0.100000 0.406250 0.251572
0.269282 0.406250 0.251572
0.415892 0.406250 0.251572
0.555010 0.406250 0.251572
0.689475 0.406250 0.251572
0.820584 0.406250 0.251572
0.949078 0.406250 0.251572
1.000000 0.406250 0.251572
1.000000 0.406250 0.251572
0.100000 0.525000 0.251572
0.269282 0.525000 0.251572
0.415892 0.525000 0.251572
0.555010 0.525000 0.251572
0.689475 0.525000 0.251572
0.820584 0.525000 0.251572
0.949078 0.525000 0.251572
1.000000 0.525000 0.251572
1.000000 0.525000 0.251572
0.100000 0.643750 0.251572
0.269282 0.643750 0.251572
0.415892 0.643750 0.251572
0.555010 0.643750 0.251572
0.689475 0.643750 0.251572
0.820584 0.643750 0.251572
0.949078 0.643750 0.251572
1.000000 0.643750 0.251572
1.000000 0.643750 0.251572
0.100000 0.762500 0.251572
0.269282 0.762500 0.251572
0.415892 0.762500 0.251572
0.555010 0.762500 0.251572
0.689475 0.762500 0.251572
0.820584 0.762500 0.251572
0.949078 0.762500 0.251572
1.000000 0.762500 0.251572
1.000000 0.762500 0.251572
0.100000 0.881250 0.251572
0.269282 0.881250 0.251572
0.415892 0.881250 0.251572
0.555010 0.881250 0.251572
0.689475 0.881250 0.251572
0.820584 0.881250 0.251572
0.949078 0.881250 0.251572
1.000000 0.881250 0.251572
1.000000 0.881250 0.251572
0.100000 1.000000 0.251572
0.269282 1.000000 0.251572
0.415892 1.000000 0.251572
0.555010 1.000000 0.251572
0.689475 1.000000 0.251572
0.820584 1.000000 0.251572
0.949078 1.000000 0.251572
1.000000 1.000000 0.251572
1.000000 1.000000 0.251572
0.100000 0.050000 0.346563
0.269282 0.050000 0.346563
0.415892 0.050000 0.346563
0.555010 0.050000 0.346563
0.689475 0.050000 0.346563
0.820584 0.050000 0.346563
0.949078 0.050000 0.346563
1.000000 0.050000 0.346563
1.000000 0.050000 0.346563
0.100000 0.168750 0.346563
0.269282 0.168750 0.346563
0.415892 0.168750 0.346563
0.555010 0.168750 0.346563
0.689475 0.168750 0.346563
0.820584 0.168750 0.346563
0.949078 0.168750 0.346563
1.000000 0.168750 0.346563
1.000000 0.168750 0.346563
0.100000 0.287500 0.346563
0.269282 0.287500 0.346563
0.415892 0.287500 0.346563
0.555010 0.287500 0.346563
0.689475 0.287500 0.346563
0.820584 0.287500 0.346563
0.949078 0.287500 0.346563
1.000000 0.287500 0.346563
1.000000 0.287500 0.346563
0.100000 0.406250 0.346563
0.269282 0.406250 0.346563
0.415892 0.406250 0.346563
0.555010 0.406250 0.346563
0.689475 0.406250 0.346563
0.820584 0.406250 0.346563
0.949078 0.406250 0.346563
1.000000 0.406250 0.346563
1.000000 0.406250 0.346563
0.100000 0.525000 0.346563
0.269282 0.525000 0.346563
0.415892 0.525000 0.346563
0.555010 0.525000 0.346563
0.689475 0.525000 0.346563
0.820584 0.525000 0.346563
0.949078 0.525000 0.346563
1.000000 0.525000 0.346563
1.000000 0.525000 0.346563
0.100000 0.643750 0.346563
0.269282 0.643750 0.346563
0.415892 0.643750 0.346563
0.555010 0.643750 0.346563
0.689475 0.643750 0.346563
0.820584 0.643750 0.346563
0.949078 0.643750 0.346563
1.000000 0.643750 0.346563
1.000000 0.643750 0.346563
0.100000 0.762500 0.346563
0.269282 0.762500 0.346563
0.415892 0.762500 0.346563
0.555010 0.762500 0.346563
0.689475 0.762500 0.346563
0.820584 0.762500 0.346563
0.949078 0.762500 0.346563
1.000000 0.762500 0.346563
1.000000 0.762500 0.346563
0.100000 0.881250 0.346563
0.269282 0.881250 0.346563
0.415892 0.881250 0.346563
0.555010 0.881250 0.346563
0.689475 0.881250 0.346563
0.820584 0.881250 0.346563
0.949078 0.881250 0.346563
1.000000 0.881250 0.346563
1.000000 0.881250 0.346563
0.100000 1.000000 0.346563
0.269282 1.000000 0.346563
0.415892 1.000000 0.346563
0.555010 1.000000 0.346563
0.689475 1.000000 0.346563
0.820584 1.000000 0.346563
0.949078 1.000000 0.346563
1.000000 1.000000 0.346563
1.000000 1.000000 0.346563
0.100000 0.050000 0.448220
0.269282 0.050000 0.448220
0.415892 0.050000 0.448220
0.555010 0.050000 0.448220
0.689475 0.050000 0.448220
0.820584 0.050000 0.448220
0.949078 0.050000 0.448220
1.000000 0.050000 0.448220
1.000000 0.050000 0.448220
0.100000 0.168750 0.448220
0.269282 0.168750 0.448220
0.415892 0.168750 0.448220
0.555010 0.168750 0.448220
0.689475 0.168750 0.448220
0.820584 0.168750 0.448220
0.949078 0.168750 0.448220
1.000000 0.168750 0.448220
1.000000 0.168750 0.448220
0.100000 0.287500 0.448220
0.269282 0.287500 0.448220
0.415892 0.287500 0.448220
0.555010 0.287500 0.448220
0.689475 0.287500 0.448220
0.820584 0.287500 0.448220
0.949078 0.287500 0.448220
1.000000 0.287500 0.448220
1.000000 0.287500 0.448220
0.100000 0.406250 0.448220
0.269282 0.406250 0.448220
0.415892 0.406250 0.448220
0.555010 0.406250 0.448220
0.689475 0.406250 0.448220
0.820584 0.406250 0.448220
0.949078 0.406250 0.448220
1.000000 0.406250 0.448220
1.000000 0.406250 0.448220
0.100000 0.525000 0.448220
0.269282 0.525000 0.448220
0.415892 0.525000 0.448220
0.555010 0.525000 0.448220
0.689475 0.525000 0.448220
0.820584 0.525000 0.448220
0.949078 0.525000 0.448220
1.000000 0.525000 0.448220
1.000000 0.525000 0.448220
0.100000 0.643750 0.448220
0.269282 0.643750 0.448220
0.415892 0.643750 0.448220
0.555010 0.643750 0.448220
0.689475 0.643750 0.448220
0.820584 0.643750 0.448220
0.949078 0.643750 0.448220
1.000000 0.643750 0.448220
1.000000 0.643750 0.448220
0.100000 0.762500 0.448220
0.269282 0.762500 0.448220
0.415892 0.762500 0.448220
0.555010 0.762500 0.448220
0.689475 0.762500 0.448220
0.820584 0.762500 0.448220
0.949078 0.762500 0.448220
1.000000 0.762500 0.448220
1.000000 0.762500 0.448220
0.100000 0.881250 0.448220
0.269282 0.881250 0.448220
0.415892 0.881250 0.448220
0.555010 0.881250 0.448220
0.689475 0.881250 0.448220
0.820584 0.881250 0.448220
0.949078 0.881250 0.448220
1.000000 0.881250 0.448220
1.000000 0.881250 0.448220
0.100000 1.000000 0.448220
0.269282 1.000000 0.448220
0.415892 1.000000 0.448220
0.555010 1.000000 0.448220
0.689475 1.000000 0.448220
0.820584 1.000000 0.448220
0.949078 1.000000 0.448220
1.000000 1.000000 0.448220
1.000000 1.000000 0.448220
0.100000 0.050000 0.555141
0.269282 0.050000 0.555141
0.415892 0.050000 0.555141
0.555010 0.050000 0.555141
0.689475 0.050000 0.555141
0.820584 0.050000 0.555141
0.949078 0.050000 0.555141
1.000000 0.050000 0.555141
1.000000 0.050000 0.555141
0.100000 0.168750 0.555141
0.269282 0.168750 0.555141
0.415892 0.168750 0.555141
0.555010 0.168750 0.555141
0.689475 0.168750 0.555141
0.820584 0.168750 0.555141
0.949078 0.168750 0.555141
1.000000 0.168750 0.555141
1.000000 0.168750 0.555141
0.100000 0.287500 0.555141
0.269282 0.287500 0.555141
0.415892 0.287500 0.555141
0.555010 0.287500 0.555141
0.689475 0.287500 0.555141
0.820584 0.287500 0.555141
0.949078 0.287500 0.555141
1.000000 0.287500 0.555141
1.000000 0.287500 0.555141
0.100000 0.406250 0.555141
0.269282 0.406250 0.555141
0.415892 0.406250 0.555141
0.555010 0.406250 0.555141
0.689475 0.406250 0.555141
0.820584 0.406250 0.555141
0.949078 0.406250 0.555141
1.000000 0.406250 0.555141
1.000000 0.406250 0.555141
0.100000 0.525000 0.555141
0.269282 0.525000 0.555141
0.415892 0.525000 0.555141
0.555010 0.525000 0.555141
0.689475 0.525000 0.555141
0.820584 0.525000 0.555141
0.949078 0.525000 0.555141
1.000000 0.525000 0.555141
1.000000 0.525000 0.555141
0.100000 0.643750 0.555141
0.269282 0.643750 0.555141
0.415892 0.643750 0.555141
0.555010 0.643750 0.555141
0.689475 0.643750 0.555141
0.820584 0.643750 0.555141
0.949078 0.643750 0.555141
1.000000 0.643750 0.555141
1.000000 0.643750 0.555141
0.100000 0.762500 0.555141
0.269282 0.762500 0.555141
0.415892 0.762500 0.555141
0.555010 0.762500 0.555141
0.689475 0.762500 0.555141
0.820584 0.762500 0.555141
0.949078 0.762500 0.555141
1.000000 0.762500 0.555141
1.000000 0.762500 0.555141
0.100000 0.881250 0.555141
0.269282 0.881250 0.555141
0.415892 0.881250 0.555141
0.555010 0.881250 0.555141
0.689475 0.881250 0.555141
0.820584 0.881250 0.555141
0.949078 0.881250 0.555141
1.000000 0.881250 0.555141
1.000000 0.881250 0.555141
0.100000 1.000000 0.555141
0.269282 1.000000 0.555141
0.415892 1.000000 0.555141
0.555010 1.000000 0.555141
0.689475 1.000000 0.555141
0.820584 1.000000 0.555141
0.949078 1.000000 0.555141
1.000000 1.000000 0.555141
1.000000 1.000000 0.555141
0.100000 0.050000 0.666453
0.269282 0.050000 0.666453
0.415892 0.050000 0.666453
0.555010 0.050000 0.666453
0.689475 0.050000 0.666453
0.820584 0.050000 0.666453
0.949078 0.050000 0.666453
1.000000 0.050000 0.666453
1.000000 0.050000 0.666453
0.100000 0.168750 0.666453
0.269282 0.168750 0.666453
0.415892 0.168750 0.666453
0.555010 0.168750 0.666453
0.689475 0.168750 0.666453
0.820584 0.168750 0.666453
0.949078 0.168750 0.666453
1.000000 0.168750 0.666453
1.000000 0.168750 0.666453
0.100000 0.287500 0.666453
0.269282 0.287500 0.666453
0.415892 0.287500 0.666453
0.555010 0.287500 0.666453
0.689475 0.287500 0.666453
0.820584 0.287500 0.666453
0.949078 0.287500 0.666453
1.000000 0.287500 0.666453
1.000000 0.287500 0.666453
0.100000 0.406250 0.666453
0.269282 0.406250 0.666453
0.415892 0.406250 0.666453
0.555010 0.406250 0.666453
0.689475 0.406250 0.666453
0.820584 0.406250 0.666453
0.949078 0.406250 0.666453
1.000000 0.406250 0.666453
1.000000 0.406250 0.666453
0.100000 0.525000 0.666453
0.269282 0.525000 0.666453
0.415892 0.525000 0.666453
0.555010 0.525000 0.666453
0.689475 0.525000 0.666453
0.820584 0.525000 0.666453
0.949078 0.525000 0.666453
1.000000 0.525000 0.666453
1.000000 0.525000 0.666453
0.100000 0.643750 0.666453
0.269282 0.643750 0.666453
0.415892 0.643750 0.666453
0.555010 0.643750 0.666453
0.689475 0.643750 0.666453
0.820584 0.643750 0.666453
0.949078 0.643750 0.666453
1.000000 0.643750 0.666453
1.000000 0.643750 0.666453
0.100000 0.762500 0.666453
0.269282 0.762500 0.666453
0.415892 0.762500 0.666453
0.555010 0.762500 0.666453
0.689475 0.762500 0.666453
0.820584 0.762500 0.666453
0.949078 0.762500 0.666453
1.000000 0.762500 0.666453
1.000000 0.762500 0.666453
0.100000 0.881250 0.666453
0.269282 0.881250 0.666453
0.415892 0.881250 0.666453
0.555010 0.881250 0.666453
0.689475 0.881250 0.666453
0.820584 0.881250 0.666453
0.949078 0.881250 0.666453
1.000000 0.881250 0.666453
1.000000 0.881250 0.666453
0.100000 1.000000 0.666453
0.269282 1.000000 0.666453
0.415892 1.000000 0.666453
0.555010 1.000000 0.666453
0.689475 1.000000 0.666453
0.820584 1.000000 0.666453
0.949078 1.000000 0.666453
1.000000 1.000000 0.666453
1.000000 1.000000 0.666453
0.100000 0.050000 0.781553
0.269282 0.050000 0.781553
0.415892 0.050000 0.781553
0.555010 0.050000 0.781553
0.689475 0.050000 0.781553
0.820584 0.050000 0.781553
0.949078 0.050000 0.781553
1.000000 0.050000 0.781553
1.000000 0.050000 0.781553
0.100000 0.168750 0.781553
0.269282 0.168750 0.781553
0.415892 0.168750 0.781553
0.555010 0.168750 0.781553
0.689475 0.168750 0.781553
0.820584 0.168750 0.781553
0.949078 0.168750 0.781553
1.000000 0.168750 0.781553
1.000000 0.168750 0.781553
0.100000 0.287500 0.781553
0.269282 0.287500 0.781553
0.415892 0.287500 0.781553
0.555010 0.287500 0.781553
0.689475 0.287500 0.781553
0.820584 0.287500 0.781553
0.949078 0.287500 0.781553
1.000000 0.287500 0.781553
1.000000 0.287500 0.781553
0.100000 0.406250 0.781553
0.269282 0.406250 0.781553
0.415892 0.406250 0.781553
0.555010 0.406250 0.781553
0.689475 0.406250 0.781553
0.820584 0.406250 0.781553
0.949078 0.406250 0.781553
1.000000 0.406250 0.781553
1.000000 0.406250 0.781553
0.100000 0.525000 0.781553
0.269282 0.525000 0.781553
0.415892 0.525000 0.781553
0.555010 0.525000 0.781553
0.689475 0.525000 0.781553
0.820584 0.525000 0.781553
0.949078 0.525000 0.781553
1.000000 0.525000 0.781553
1.000000 0.525000 0.781553
0.100000 0.643750 0.781553
0.269282 0.643750 0.781553
0.415892 0.643750 0.781553
0.555010 0.643750 0.781553
0.689475 0.643750 0.781553
0.820584 0.643750 0.781553
0.949078 0.643750 0.781553
1.000000 0.643750 0.781553
1.000000 0.643750 0.781553
0.100000 0.762500 0.781553
0.269282 0.762500 0.781553
0.415892 0.762500 0.781553
0.555010 0.762500 0.781553
0.689475 0.762500 0.781553
0.820584 0.762500 0.781553
0.949078 0.762500 0.781553
1.000000 0.762500 0.781553
1.000000 0.762500 0.781553
0.100000 0.881250 0.781553
0.269282 0.881250 0.781553
0.415892 0.881250 0.781553
0.555010 0.881250 0.781553
0.689475 0.881250 0.781553
0.820584 0.881250 0.781553
0.949078 0.881250 0.781553
1.000000 0.881250 0.781553
1.000000 0.881250 0.781553
0.100000 1.000000 0.781553
0.269282 1.000000 0.781553
0.415892 1.000000 0.781553
0.555010 1.000000 0.781553
0.689475 1.000000 0.781553
0.820584 1.000000 0.781553
0.949078 1.000000 0.781553
1.000000 1.000000 0.781553
1.000000 1.000000 0.781553
0.100000 0.050000 0.900000
0.269282 0.050000 0.900000
0.415892 0.050000 0.900000
0.555010 0.050000 0.900000
0.689475 0.050000 0.900000
0.820584 0.050000 0.900000
0.949078 0.050000 0.900000
1.000000 0.050000 0.900000
1.000000 0.050000 0.900000
0.100000 0.168750 0.900000
0.269282 0.168750 0.900000
0.415892 0.168750 0.900000
0.555010 0.168750 0.900000
0.689475 0.168750 0.900000
0.820584 0.168750 0.900000
0.949078 0.168750 0.900000
1.000000 0.168750 0.900000
1.000000 0.168750 0.900000
0.100000 0.287500 0.900000
0.269282 0.287500 0.900000
0.415892 0.287500 0.900000
0.555010 0.287500 0.900000
0.689475 0.287500 0.900000
0.820584 0.287500 0.900000
0.949078 0.287500 0.900000
1.000000 0.287500 0.900000
1.000000 0.287500 0.900000
0.100000 0.406250 0.900000
0.269282 0.406250 0.900000
0.415892 0.406250 0.900000
0.555010 0.406250 0.900000
0.689475 0.406250 0.900000
0.820584 0.406250 0.900000
0.949078 0.406250 0.900000
1.000000 0.406250 0.900000
1.000000 0.406250 0.900000
0.100000 0.525000 0.900000
0.269282 0.525000 0.900000
0.415892 0.525000 0.900000
0.555010 0.525000 0.900000
0.689475 0.525000 0.900000
0.820584 0.525000 0.900000
0.949078 0.525000 0.900000
1.000000 0.525000 0.900000
1.000000 0.525000 0.900000
0.100000 0.643750 0.900000
0.269282 0.643750 0.900000
0.415892 0.643750 0.900000
0.555010 0.643750 0.900000
0.689475 0.643750 0.900000
0.820584 0.643750 0.900000
0.949078 0.643750 0.900000
1.000000 0.643750 0.900000
1.000000 0.643750 0.900000
0.100000 0.762500 0.900000
0.269282 0.762500 0.900000
0.415892 0.762500 0.900000
0.555010 0.762500 0.900000
0.689475 0.762500 0.900000
0.820584 0.762500 0.900000
0.949078 0.762500 0.900000
1.000000 0.762500 0.900000
1.000000 0.762500 0.900000
0.100000 0.881250 0.900000
0.269282 0.881250 0.900000
0.415892 0.881250 0.900000
0.555010 0.881250 0.900000
0.689475 0.881250 0.900000
0.820584 0.881250 0.900000
0.949078 0.881250 0.900000
1.000000 0.881250 0.900000
1.000000 0.881250 0.900000
0.100000 1.000000 0.900000
0.269282 1.000000 0.900000
0.415892 1.000000 0.900000
0.555010 1.000000 0.900000
0.689475 1.000000 0.900000
0.820584 1.000000 0.900000
0.949078 1.000000 0.900000
1.000000 1.000000 0.900000
1.000000 1.000000 0.900000
