public/luts/warm.cube
# Warm Tone
# Generated sample LUT for demo
LUT_3D_SIZE 5
0.100000 0.050000 0.000000
0.387500 0.050000 0.000000
0.675000 0.050000 0.000000
0.962500 0.050000 0.000000
1.000000 0.050000 0.000000
0.100000 0.312500 0.000000
0.387500 0.312500 0.000000
0.675000 0.312500 0.000000
0.962500 0.312500 0.000000
1.000000 0.312500 0.000000
0.100000 0.575000 0.000000
0.387500 0.575000 0.000000
0.675000 0.575000 0.000000
0.962500 0.575000 0.000000
1.000000 0.575000 0.000000
0.100000 0.837500 0.000000
0.387500 0.837500 0.000000
0.675000 0.837500 0.000000
0.962500 0.837500 0.000000
1.000000 0.837500 0.000000
0.100000 1.000000 0.000000
0.387500 1.000000 0.000000
0.675000 1.000000 0.000000
0.962500 1.000000 0.000000
1.000000 1.000000 0.000000
0.100000 0.050000 0.175000
0.387500 0.050000 0.175000
0.675000 0.050000 0.175000
0.962500 0.050000 0.175000
1.000000 0.050000 0.175000
0.100000 0.312500 0.175000
0.387500 0.312500 0.175000
0.675000 0.312500 0.175000
0.962500 0.312500 0.175000
1.000000 0.312500 0.175000
0.100000 0.575000 0.175000
0.387500 0.575000 0.175000
0.675000 0.575000 0.175000
0.962500 0.575000 0.175000
1.000000 0.575000 0.175000
0.100000 0.837500 0.175000
0.387500 0.837500 0.175000
0.675000 0.837500 0.175000
0.962500 0.837500 0.175000
1.000000 0.837500 0.175000
0.100000 1.000000 0.175000
0.387500 1.000000 0.175000
0.675000 1.000000 0.175000
0.962500 1.000000 0.175000
1.000000 1.000000 0.175000
0.100000 0.050000 0.400000
0.387500 0.050000 0.400000
0.675000 0.050000 0.400000
0.962500 0.050000 0.400000
1.000000 0.050000 0.400000
0.100000 0.312500 0.400000
0.387500 0.312500 0.400000
0.675000 0.312500 0.400000
0.962500 0.312500 0.400000
1.000000 0.312500 0.400000
0.100000 0.575000 0.400000
0.387500 0.575000 0.400000
0.675000 0.575000 0.400000
0.962500 0.575000 0.400000
1.000000 0.575000 0.400000
0.100000 0.837500 0.400000
0.387500 0.837500 0.400000
0.675000 0.837500 0.400000
0.962500 0.837500 0.400000
1.000000 0.837500 0.400000
0.100000 1.000000 0.400000
0.387500 1.000000 0.400000
0.675000 1.000000 0.400000
0.962500 1.000000 0.400000
1.000000 1.000000 0.400000
0.100000 0.050000 0.625000
0.387500 0.050000 0.625000
0.675000 0.050000 0.625000
0.962500 0.050000 0.625000
1.000000 0.050000 0.625000
0.100000 0.312500 0.625000
0.387500 0.312500 0.625000
0.675000 0.312500 0.625000
0.962500 0.312500 0.625000
1.000000 0.312500 0.625000
0.100000 0.575000 0.625000
0.387500 0.575000 0.625000
0.675000 0.575000 0.625000
0.962500 0.575000 0.625000
1.000000 0.575000 0.625000
0.100000 0.837500 0.625000
0.387500 0.837500 0.625000
0.675000 0.837500 0.625000
0.962500 0.837500 0.625000
1.000000 0.837500 0.625000
0.100000 1.000000 0.625000
0.387500 1.000000 0.625000
0.675000 1.000000 0.625000
0.962500 1.000000 0.625000
1.000000 1.000000 0.625000
0.100000 0.050000 0.850000
0.387500 0.050000 0.850000
0.675000 0.050000 0.850000
0.962500 0.050000 0.850000
1.000000 0.050000 0.850000
0.100000 0.312500 0.850000
0.387500 0.312500 0.850000
0.675000 0.312500 0.850000
0.962500 0.312500 0.850000
1.000000 0.312500 0.850000
0.100000 0.575000 0.850000
0.387500 0.575000 0.850000
0.675000 0.575000 0.850000
0.962500 0.575000 0.850000
1.000000 0.575000 0.850000
0.100000 0.837500 0.850000
0.387500 0.837500 0.850000
0.675000 0.837500 0.850000
0.962500 0.837500 0.850000
1.000000 0.837500 0.850000
0.100000 1.000000 0.850000
0.387500 1.000000 0.850000
0.675000 1.000000 0.850000
0.962500 1.000000 0.850000
1.000000 1.000000 0.850000
