public/luts/warm.cube
# Warm Tone
# Generated sample LUT for demo
LUT_3D_SIZE 9
0.100000 0.050000 0.000000
0.243750 0.050000 0.000000
0.387500 0.050000 0.000000
0.531250 0.050000 0.000000
0.675000 0.050000 0.000000
0.818750 0.050000 0.000000
0.962500 0.050000 0.000000
1.000000 0.050000 0.000000
1.000000 0.050000 0.000000
0.100000 0.181250 0.000000
0.243750 0.181250 0.000000
0.387500 0.181250 0.000000
0.531250 0.181250 0.000000
0.675000 0.181250 0.000000
0.818750 0.181250 0.000000
0.962500 0.181250 0.000000
1.000000 0.181250 0.000000
1.000000 0.181250 0.000000
0.100000 0.312500 0.000000
0.243750 0.312500 0.000000
0.387500 0.312500 0.000000
0.531250 0.312500 0.000000
0.675000 0.312500 0.000000
0.818750 0.312500 0.000000
0.962500 0.312500 0.000000
1.000000 0.312500 0.000000
1.000000 0.312500 0.000000
0.100000 0.443750 0.000000
0.243750 0.443750 0.000000
0.387500 0.443750 0.000000
0.531250 0.443750 0.000000
0.675000 0.443750 0.000000
0.818750 0.443750 0.000000
0.962500 0.443750 0.000000
1.000000 0.443750 0.000000
1.000000 0.443750 0.000000
0.100000 0.575000 0.000000
0.243750 0.575000 0.000000
0.387500 0.575000 0.000000
0.531250 0.575000 0.000000
0.675000 0.575000 0.000000
0.818750 0.575000 0.000000
0.962500 0.575000 0.000000
1.000000 0.575000 0.000000
1.000000 0.575000 0.000000
0.100000 0.706250 0.000000
0.243750 0.706250 0.000000
0.387500 0.706250 0.000000
0.531250 0.706250 0.000000
0.675000 0.706250 0.000000
0.818750 0.706250 0.000000
0.962500 0.706250 0.000000
1.000000 0.706250 0.000000
1.000000 0.706250 0.000000
0.100000 0.837500 0.000000
0.243750 0.837500 0.000000
0.387500 0.837500 0.000000
0.531250 0.837500 0.000000
0.675000 0.837500 0.000000
0.818750 0.837500 0.000000
0.962500 0.837500 0.000000
1.000000 0.837500 0.000000
1.000000 0.837500 0.000000
0.100000 0.968750 0.000000
0.243750 0.968750 0.000000
0.387500 0.968750 0.000000
0.531250 0.968750 0.000000
0.675000 0.968750 0.000000
0.818750 0.968750 0.000000
0.962500 0.968750 0.000000
1.000000 0.968750 0.000000
1.000000 0.968750 0.000000
0.100000 1.000000 0.000000
0.243750 1.000000 0.000000
0.387500 1.000000 0.000000
0.531250 1.000000 0.000000
0.675000 1.000000 0.000000
0.818750 1.000000 0.000000
0.962500 1.000000 0.000000
1.000000 1.000000 0.000000
1.000000 1.000000 0.000000
0.100000 0.050000 0.062500
0.243750 0.050000 0.062500
0.387500 0.050000 0.062500
0.531250 0.050000 0.062500
0.675000 0.050000 0.062500
0.818750 0.050000 0.062500
0.962500 0.050000 0.062500
1.000000 0.050000 0.062500
1.000000 0.050000 0.062500
0.100000 0.181250 0.062500
0.243750 0.181250 0.062500
0.387500 0.181250 0.062500
0.531250 0.181250 0.062500
0.675000 0.181250 0.062500
0.818750 0.181250 0.062500
0.962500 0.181250 0.062500
1.000000 0.181250 0.062500
1.000000 0.181250 0.062500
0.100000 0.312500 0.062500
0.243750 0.312500 0.062500
0.387500 0.312500 0.062500
0.531250 0.312500 0.062500
0.675000 0.312500 0.062500
0.818750 0.312500 0.062500
0.962500 0.312500 0.062500
1.000000 0.312500 0.062500
1.000000 0.312500 0.062500
0.100000 0.443750 0.062500
0.243750 0.443750 0.062500
0.387500 0.443750 0.062500
0.531250 0.443750 0.062500
0.675000 0.443750 0.062500
0.818750 0.443750 0.062500
0.962500 0.443750 0.062500
1.000000 0.443750 0.062500
1.000000 0.443750 0.062500
0.100000 0.575000 0.062500
0.243750 0.575000 0.062500
0.387500 0.575000 0.062500
0.531250 0.575000 0.062500
0.675000 0.575000 0.062500
0.818750 0.575000 0.062500
0.962500 0.575000 0.062500
1.000000 0.575000 0.062500
1.000000 0.575000 0.062500
0.100000 0.706250 0.062500
0.243750 0.706250 0.062500
0.387500 0.706250 0.062500
0.531250 0.706250 0.062500
0.675000 0.706250 0.062500
0.818750 0.706250 0.062500
0.962500 0.706250 0.062500
1.000000 0.706250 0.062500
1.000000 0.706250 0.062500
0.100000 0.837500 0.062500
0.243750 0.837500 0.062500
0.387500 0.837500 0.062500
0.531250 0.837500 0.062500
0.675000 0.837500 0.062500
0.818750 0.837500 0.062500
0.962500 0.837500 0.062500
1.000000 0.837500 0.062500
1.000000 0.837500 0.062500
0.100000 0.968750 0.062500
0.243750 0.968750 0.062500
0.387500 0.968750 0.062500
0.531250 0.968750 0.062500
0.675000 0.968750 0.062500
0.818750 0.968750 0.062500
0.962500 0.968750 0.062500
1.000000 0.968750 0.062500
1.000000 0.968750 0.062500
0.100000 1.000000 0.062500
0.243750 1.000000 0.062500
0.387500 1.000000 0.062500
0.531250 1.000000 0.062500
0.675000 1.000000 0.062500
0.818750 1.000000 0.062500
0.962500 1.000000 0.062500
1.000000 1.000000 0.062500
1.000000 1.000000 0.062500
0.100000 0.050000 0.175000
0.243750 0.050000 0.175000
0.387500 0.050000 0.175000
0.531250 0.050000 0.175000
0.675000 0.050000 0.175000
0.818750 0.050000 0.175000
0.962500 0.050000 0.175000
1.000000 0.050000 0.175000
1.000000 0.050000 0.175000
0.100000 0.181250 0.175000
0.243750 0.181250 0.175000
0.387500 0.181250 0.175000
0.531250 0.181250 0.175000
0.675000 0.181250 0.175000
0.818750 0.181250 0.175000
0.962500 0.181250 0.175000
1.000000 0.181250 0.175000
1.000000 0.181250 0.175000
0.100000 0.312500 0.175000
0.243750 0.312500 0.175000
0.387500 0.312500 0.175000
0.531250 0.312500 0.175000
0.675000 0.312500 0.175000
0.818750 0.312500 0.175000
0.962500 0.312500 0.175000
1.000000 0.312500 0.175000
1.000000 0.312500 0.175000
0.100000 0.443750 0.175000
0.243750 0.443750 0.175000
0.387500 0.443750 0.175000
0.531250 0.443750 0.175000
0.675000 0.443750 0.175000
0.818750 0.443750 0.175000
0.962500 0.443750 0.175000
1.000000 0.443750 0.175000
1.000000 0.443750 0.175000
0.100000 0.575000 0.175000
0.243750 0.575000 0.175000
0.387500 0.575000 0.175000
0.531250 0.575000 0.175000
0.675000 0.575000 0.175000
0.818750 0.575000 0.175000
0.962500 0.575000 0.175000
1.000000 0.575000 0.175000
1.000000 0.575000 0.175000
0.100000 0.706250 0.175000
0.243750 0.706250 0.175000
0.387500 0.706250 0.175000
0.531250 0.706250 0.175000
0.675000 0.706250 0.175000
0.818750 0.706250 0.175000
0.962500 0.706250 0.175000
1.000000 0.706250 0.175000
1.000000 0.706250 0.175000
0.100000 0.837500 0.175000
0.243750 0.837500 0.175000
0.387500 0.837500 0.175000
0.531250 0.837500 0.175000
0.675000 0.837500 0.175000
0.818750 0.837500 0.175000
0.962500 0.837500 0.175000
1.000000 0.837500 0.175000
1.000000 0.837500 0.175000
0.100000 0.968750 0.175000
0.243750 0.968750 0.175000
0.387500 0.968750 0.175000
0.531250 0.968750 0.175000
0.675000 0.968750 0.175000
0.818750 0.968750 0.175000
0.962500 0.968750 0.175000
1.000000 0.968750 0.175000
1.000000 0.968750 0.175000
0.100000 1.000000 0.175000
0.243750 1.000000 0.175000
0.387500 1.000000 0.175000
0.531250 1.000000 0.175000
0.675000 1.000000 0.175000
0.818750 1.000000 0.175000
0.962500 1.000000 0.175000
1.000000 1.000000 0.175000
1.000000 1.000000 0.175000
0.100000 0.050000 0.287500
0.243750 0.050000 0.287500
0.387500 0.050000 0.287500
0.531250 0.050000 0.287500
0.675000 0.050000 0.287500
0.818750 0.050000 0.287500
0.962500 0.050000 0.287500
1.000000 0.050000 0.287500
1.000000 0.050000 0.287500
0.100000 0.181250 0.287500
0.243750 0.181250 0.287500
0.387500 0.181250 0.287500
0.531250 0.181250 0.287500
0.675000 0.181250 0.287500
0.818750 0.181250 0.287500
0.962500 0.181250 0.287500
1.000000 0.181250 0.287500
1.000000 0.181250 0.287500
0.100000 0.312500 0.287500
0.243750 0.312500 0.287500
0.387500 0.312500 0.287500
0.531250 0.312500 0.287500
0.675000 0.312500 0.287500
0.818750 0.312500 0.287500
0.962500 0.312500 0.287500
1.000000 0.312500 0.287500
1.000000 0.312500 0.287500
0.100000 0.443750 0.287500
0.243750 0.443750 0.287500
0.387500 0.443750 0.287500
0.531250 0.443750 0.287500
0.675000 0.443750 0.287500
0.818750 0.443750 0.287500
0.962500 0.443750 0.287500
1.000000 0.443750 0.287500
1.000000 0.443750 0.287500
0.100000 0.575000 0.287500
0.243750 0.575000 0.287500
0.387500 0.575000 0.287500
0.531250 0.575000 0.287500
0.675000 0.575000 0.287500
0.818750 0.575000 0.287500
0.962500 0.575000 0.287500
1.000000 0.575000 0.287500
1.000000 0.575000 0.287500
0.100000 0.706250 0.287500
0.243750 0.706250 0.287500
0.387500 0.706250 0.287500
0.531250 0.706250 0.287500
0.675000 0.706250 0.287500
0.818750 0.706250 0.287500
0.962500 0.706250 0.287500
1.000000 0.706250 0.287500
1.000000 0.706250 0.287500
0.100000 0.837500 0.287500
0.243750 0.837500 0.287500
0.387500 0.837500 0.287500
0.531250 0.837500 0.287500
0.675000 0.837500 0.287500
0.818750 0.837500 0.287500
0.962500 0.837500 0.287500
1.000000 0.837500 0.287500
1.000000 0.837500 0.287500
0.100000 0.968750 0.287500
0.243750 0.968750 0.287500
0.387500 0.968750 0.287500
0.531250 0.968750 0.287500
0.675000 0.968750 0.287500
0.818750 0.968750 0.287500
0.962500 0.968750 0.287500
1.000000 0.968750 0.287500
1.000000 0.968750 0.287500
0.100000 1.000000 0.287500
0.243750 1.000000 0.287500
0.387500 1.000000 0.287500
0.531250 1.000000 0.287500
0.675000 1.000000 0.287500
0.818750 1.000000 0.287500
0.962500 1.000000 0.287500
1.000000 1.000000 0.287500
1.000000 1.000000 0.287500
0.100000 0.050000 0.400000
0.243750 0.050000 0.400000
0.387500 0.050000 0.400000
0.531250 0.050000 0.400000
0.675000 0.050000 0.400000
0.818750 0.050000 0.400000
0.962500 0.050000 0.400000
1.000000 0.050000 0.400000
1.000000 0.050000 0.400000
0.100000 0.181250 0.400000
0.243750 0.181250 0.400000
0.387500 0.181250 0.400000
0.531250 0.181250 0.400000
0.675000 0.181250 0.400000
0.818750 0.181250 0.400000
0.962500 0.181250 0.400000
1.000000 0.181250 0.400000
1.000000 0.181250 0.400000
0.100000 0.312500 0.400000
0.243750 0.312500 0.400000
0.387500 0.312500 0.400000
0.531250 0.312500 0.400000
0.675000 0.312500 0.400000
0.818750 0.312500 0.400000
0.962500 0.312500 0.400000
1.000000 0.312500 0.400000
1.000000 0.312500 0.400000
0.100000 0.443750 0.400000
0.243750 0.443750 0.400000
0.387500 0.443750 0.400000
0.531250 0.443750 0.400000
0.675000 0.443750 0.400000
0.818750 0.443750 0.400000
0.962500 0.443750 0.400000
1.000000 0.443750 0.400000
1.000000 0.443750 0.400000
0.100000 0.575000 0.400000
0.243750 0.575000 0.400000
0.387500 0.575000 0.400000
0.531250 0.575000 0.400000
0.675000 0.575000 0.400000
0.818750 0.575000 0.400000
0.962500 0.575000 0.400000
1.000000 0.575000 0.400000
1.000000 0.575000 0.400000
0.100000 0.706250 0.400000
0.243750 0.706250 0.400000
0.387500 0.706250 0.400000
0.531250 0.706250 0.400000
0.675000 0.706250 0.400000
0.818750 0.706250 0.400000
0.962500 0.706250 0.400000
1.000000 0.706250 0.400000
1.000000 0.706250 0.400000
0.100000 0.837500 0.400000
0.243750 0.837500 0.400000
0.387500 0.837500 0.400000
0.531250 0.837500 0.400000
0.675000 0.837500 0.400000
0.818750 0.837500 0.400000
0.962500 0.837500 0.400000
1.000000 0.837500 0.400000
1.000000 0.837500 0.400000
0.100000 0.968750 0.400000
0.243750 0.968750 0.400000
0.387500 0.968750 0.400000
0.531250 0.968750 0.400000
0.675000 0.968750 0.400000
0.818750 0.968750 0.400000
0.962500 0.968750 0.400000
1.000000 0.968750 0.400000
1.000000 0.968750 0.400000
0.100000 1.000000 0.400000
0.243750 1.000000 0.400000
0.387500 1.000000 0.400000
0.531250 1.000000 0.400000
0.675000 1.000000 0.400000
0.818750 1.000000 0.400000
0.962500 1.000000 0.400000
1.000000 1.000000 0.400000
1.000000 1.000000 0.400000
0.100000 0.050000 0.512500
0.243750 0.050000 0.512500
0.387500 0.050000 0.512500
0.531250 0.050000 0.512500
0.675000 0.050000 0.512500
0.818750 0.050000 0.512500
0.962500 0.050000 0.512500
1.000000 0.050000 0.512500
1.000000 0.050000 0.512500
0.100000 0.181250 0.512500
0.243750 0.181250 0.512500
0.387500 0.181250 0.512500
0.531250 0.181250 0.512500
0.675000 0.181250 0.512500
0.818750 0.181250 0.512500
0.962500 0.181250 0.512500
1.000000 0.181250 0.512500
1.000000 0.181250 0.512500
0.100000 0.312500 0.512500
0.243750 0.312500 0.512500
0.387500 0.312500 0.512500
0.531250 0.312500 0.512500
0.675000 0.312500 0.512500
0.818750 0.312500 0.512500
0.962500 0.312500 0.512500
1.000000 0.312500 0.512500
1.000000 0.312500 0.512500
0.100000 0.443750 0.512500
0.243750 0.443750 0.512500
0.387500 0.443750 0.512500
0.531250 0.443750 0.512500
0.675000 0.443750 0.512500
0.818750 0.443750 0.512500
0.962500 0.443750 0.512500
1.000000 0.443750 0.512500
1.000000 0.443750 0.512500
0.100000 0.575000 0.512500
0.243750 0.575000 0.512500
0.387500 0.575000 0.512500
0.531250 0.575000 0.512500
0.675000 0.575000 0.512500
0.818750 0.575000 0.512500
0.962500 0.575000 0.512500
1.000000 0.575000 0.512500
1.000000 0.575000 0.512500
0.100000 0.706250 0.512500
0.243750 0.706250 0.512500
0.387500 0.706250 0.512500
0.531250 0.706250 0.512500
0.675000 0.706250 0.512500
0.818750 0.706250 0.512500
0.962500 0.706250 0.512500
1.000000 0.706250 0.512500
1.000000 0.706250 0.512500
0.100000 0.837500 0.512500
0.243750 0.837500 0.512500
0.387500 0.837500 0.512500
0.531250 0.837500 0.512500
0.675000 0.837500 0.512500
0.818750 0.837500 0.512500
0.962500 0.837500 0.512500
1.000000 0.837500 0.512500
1.000000 0.837500 0.512500
0.100000 0.968750 0.512500
0.243750 0.968750 0.512500
0.387500 0.968750 0.512500
0.531250 0.968750 0.512500
0.675000 0.968750 0.512500
0.818750 0.968750 0.512500
0.962500 0.968750 0.512500
1.000000 0.968750 0.512500
1.000000 0.968750 0.512500
0.100000 1.000000 0.512500
0.243750 1.000000 0.512500
0.387500 1.000000 0.512500
0.531250 1.000000 0.512500
0.675000 1.000000 0.512500
0.818750 1.000000 0.512500
0.962500 1.000000 0.512500
1.000000 1.000000 0.512500
1.000000 1.000000 0.512500
0.100000 0.050000 0.625000
0.243750 0.050000 0.625000
0.387500 0.050000 0.625000
0.531250 0.050000 0.625000
0.675000 0.050000 0.625000
0.818750 0.050000 0.625000
0.962500 0.050000 0.625000
1.000000 0.050000 0.625000
1.000000 0.050000 0.625000
0.100000 0.181250 0.625000
0.243750 0.181250 0.625000
0.387500 0.181250 0.625000
0.531250 0.181250 0.625000
0.675000 0.181250 0.625000
0.818750 0.181250 0.625000
0.962500 0.181250 0.625000
1.000000 0.181250 0.625000
1.000000 0.181250 0.625000
0.100000 0.312500 0.625000
0.243750 0.312500 0.625000
0.387500 0.312500 0.625000
0.531250 0.312500 0.625000
0.675000 0.312500 0.625000
0.818750 0.312500 0.625000
0.962500 0.312500 0.625000
1.000000 0.312500 0.625000
1.000000 0.312500 0.625000
0.100000 0.443750 0.625000
0.243750 0.443750 0.625000
0.387500 0.443750 0.625000
0.531250 0.443750 0.625000
0.675000 0.443750 0.625000
0.818750 0.443750 0.625000
0.962500 0.443750 0.625000
1.000000 0.443750 0.625000
1.000000 0.443750 0.625000
0.100000 0.575000 0.625000
0.243750 0.575000 0.625000
0.387500 0.575000 0.625000
0.531250 0.575000 0.625000
0.675000 0.575000 0.625000
0.818750 0.575000 0.625000
0.962500 0.575000 0.625000
1.000000 0.575000 0.625000
1.000000 0.575000 0.625000
0.100000 0.706250 0.625000
0.243750 0.706250 0.625000
0.387500 0.706250 0.625000
0.531250 0.706250 0.625000
0.675000 0.706250 0.625000
0.818750 0.706250 0.625000
0.962500 0.706250 0.625000
1.000000 0.706250 0.625000
1.000000 0.706250 0.625000
0.100000 0.837500 0.625000
0.243750 0.837500 0.625000
0.387500 0.837500 0.625000
0.531250 0.837500 0.625000
0.675000 0.837500 0.625000
0.818750 0.837500 0.625000
0.962500 0.837500 0.625000
1.000000 0.837500 0.625000
1.000000 0.837500 0.625000
0.100000 0.968750 0.625000
0.243750 0.968750 0.625000
0.387500 0.968750 0.625000
0.531250 0.968750 0.625000
0.675000 0.968750 0.625000
0.818750 0.968750 0.625000
0.962500 0.968750 0.625000
1.000000 0.968750 0.625000
1.000000 0.968750 0.625000
0.100000 1.000000 0.625000
0.243750 1.000000 0.625000
0.387500 1.000000 0.625000
0.531250 1.000000 0.625000
0.675000 1.000000 0.625000
0.818750 1.000000 0.625000
0.962500 1.000000 0.625000
1.000000 1.000000 0.625000
1.000000 1.000000 0.625000
0.100000 0.050000 0.737500
0.243750 0.050000 0.737500
0.387500 0.050000 0.737500
0.531250 0.050000 0.737500
0.675000 0.050000 0.737500
0.818750 0.050000 0.737500
0.962500 0.050000 0.737500
1.000000 0.050000 0.737500
1.000000 0.050000 0.737500
0.100000 0.181250 0.737500
0.243750 0.181250 0.737500
0.387500 0.181250 0.737500
0.531250 0.181250 0.737500
0.675000 0.181250 0.737500
0.818750 0.181250 0.737500
0.962500 0.181250 0.737500
1.000000 0.181250 0.737500
1.000000 0.181250 0.737500
0.100000 0.312500 0.737500
0.243750 0.312500 0.737500
0.387500 0.312500 0.737500
0.531250 0.312500 0.737500
0.675000 0.312500 0.737500
0.818750 0.312500 0.737500
0.962500 0.312500 0.737500
1.000000 0.312500 0.737500
1.000000 0.312500 0.737500
0.100000 0.443750 0.737500
0.243750 0.443750 0.737500
0.387500 0.443750 0.737500
0.531250 0.443750 0.737500
0.675000 0.443750 0.737500
0.818750 0.443750 0.737500
0.962500 0.443750 0.737500
1.000000 0.443750 0.737500
1.000000 0.443750 0.737500
0.100000 0.575000 0.737500
0.243750 0.575000 0.737500
0.387500 0.575000 0.737500
0.531250 0.575000 0.737500
0.675000 0.575000 0.737500
0.818750 0.575000 0.737500
0.962500 0.575000 0.737500
1.000000 0.575000 0.737500
1.000000 0.575000 0.737500
0.100000 0.706250 0.737500
0.243750 0.706250 0.737500
0.387500 0.706250 0.737500
0.531250 0.706250 0.737500
0.675000 0.706250 0.737500
0.818750 0.706250 0.737500
0.962500 0.706250 0.737500
1.000000 0.706250 0.737500
1.000000 0.706250 0.737500
0.100000 0.837500 0.737500
0.243750 0.837500 0.737500
0.387500 0.837500 0.737500
0.531250 0.837500 0.737500
0.675000 0.837500 0.737500
0.818750 0.837500 0.737500
0.962500 0.837500 0.737500
1.000000 0.837500 0.737500
1.000000 0.837500 0.737500
0.100000 0.968750 0.737500
0.243750 0.968750 0.737500
0.387500 0.968750 0.737500
0.531250 0.968750 0.737500
0.675000 0.968750 0.737500
0.818750 0.968750 0.737500
0.962500 0.968750 0.737500
1.000000 0.968750 0.737500
1.000000 0.968750 0.737500
0.100000 1.000000 0.737500
0.243750 1.000000 0.737500
0.387500 1.000000 0.737500
0.531250 1.000000 0.737500
0.675000 1.000000 0.737500
0.818750 1.000000 0.737500
0.962500 1.000000 0.737500
1.000000 1.000000 0.737500
1.000000 1.000000 0.737500
0.100000 0.050000 0.850000
0.243750 0.050000 0.850000
0.387500 0.050000 0.850000
0.531250 0.050000 0.850000
0.675000 0.050000 0.850000
0.818750 0.050000 0.850000
0.962500 0.050000 0.850000
1.000000 0.050000 0.850000
1.000000 0.050000 0.850000
0.100000 0.181250 0.850000
0.243750 0.181250 0.850000
0.387500 0.181250 0.850000
0.531250 0.181250 0.850000
0.675000 0.181250 0.850000
0.818750 0.181250 0.850000
0.962500 0.181250 0.850000
1.000000 0.181250 0.850000
1.000000 0.181250 0.850000
0.100000 0.312500 0.850000
0.243750 0.312500 0.850000
0.387500 0.312500 0.850000
0.531250 0.312500 0.850000
0.675000 0.312500 0.850000
0.818750 0.312500 0.850000
0.962500 0.312500 0.850000
1.000000 0.312500 0.850000
1.000000 0.312500 0.850000
0.100000 0.443750 0.850000
0.243750 0.443750 0.850000
0.387500 0.443750 0.850000
0.531250 0.443750 0.850000
0.675000 0.443750 0.850000
0.818750 0.443750 0.850000
0.962500 0.443750 0.850000
1.000000 0.443750 0.850000
1.000000 0.443750 0.850000
0.100000 0.575000 0.850000
0.243750 0.575000 0.850000
0.387500 0.575000 0.850000
0.531250 0.575000 0.850000
0.675000 0.575000 0.850000
0.818750 0.575000 0.850000
0.962500 0.575000 0.850000
1.000000 0.575000 0.850000
1.000000 0.575000 0.850000
0.100000 0.706250 0.850000
0.243750 0.706250 0.850000
0.387500 0.706250 0.850000
0.531250 0.706250 0.850000
0.675000 0.706250 0.850000
0.818750 0.706250 0.850000
0.962500 0.706250 0.850000
1.000000 0.706250 0.850000
1.000000 0.706250 0.850000
0.100000 0.837500 0.850000
0.243750 0.837500 0.850000
0.387500 0.837500 0.850000
0.531250 0.837500 0.850000
0.675000 0.837500 0.850000
0.818750 0.837500 0.850000
0.962500 0.837500 0.850000
1.000000 0.837500 0.850000
1.000000 0.837500 0.850000
0.100000 0.968750 0.850000
0.243750 0.968750 0.850000
0.387500 0.968750 0.850000
0.531250 0.968750 0.850000
0.675000 0.968750 0.850000
0.818750 0.968750 0.850000
0.962500 0.968750 0.850000
1.000000 0.968750 0.850000
1.000000 0.968750 0.850000
0.100000 1.000000 0.850000
0.243750 1.000000 0.850000
0.387500 1.000000 0.850000
0.531250 1.000000 0.850000
0.675000 1.000000 0.850000
0.818750 1.000000 0.850000
0.962500 1.000000 0.850000
1.000000 1.000000 0.850000
1.000000 1.000000 0.850000
