public/luts/warm.cube
# Warm Tone
# Generated sample LUT for demo
LUT_3D_SIZE 17
0.100000 0.050000 0.000000
0.171875 0.050000 0.000000
0.243750 0.050000 0.000000
0.315625 0.050000 0.000000
0.387500 0.050000 0.000000
0.459375 0.050000 0.000000
0.531250 0.050000 0.000000
0.603125 0.050000 0.000000
0.675000 0.050000 0.000000
0.746875 0.050000 0.000000
0.818750 0.050000 0.000000
0.890625 0.050000 0.000000
0.962500 0.050000 0.000000
1.000000 0.050000 0.000000
1.000000 0.050000 0.000000
1.000000 0.050000 0.000000
1.000000 0.050000 0.000000
0.100000 0.115625 0.000000
0.171875 0.115625 0.000000
0.243750 0.115625 0.000000
0.315625 0.115625 0.000000
0.387500 0.115625 0.000000
0.459375 0.115625 0.000000
0.531250 0.115625 0.000000
0.603125 0.115625 0.000000
0.675000 0.115625 0.000000
0.746875 0.115625 0.000000
0.818750 0.115625 0.000000
0.890625 0.115625 0.000000
0.962500 0.115625 0.000000
1.000000 0.115625 0.000000
1.000000 0.115625 0.000000
1.000000 0.115625 0.000000
1.000000 0.115625 0.000000
0.100000 0.181250 0.000000
0.171875 0.181250 0.000000
0.243750 0.181250 0.000000
0.315625 0.181250 0.000000
0.387500 0.181250 0.000000
0.459375 0.181250 0.000000
0.531250 0.181250 0.000000
0.603125 0.181250 0.000000
0.675000 0.181250 0.000000
0.746875 0.181250 0.000000
0.818750 0.181250 0.000000
0.890625 0.181250 0.000000
0.962500 0.181250 0.000000
1.000000 0.181250 0.000000
1.000000 0.181250 0.000000
1.000000 0.181250 0.000000
1.000000 0.181250 0.000000
0.100000 0.246875 0.000000
0.171875 0.246875 0.000000
0.243750 0.246875 0.000000
0.315625 0.246875 0.000000
0.387500 0.246875 0.000000
0.459375 0.246875 0.000000
0.531250 0.246875 0.000000
0.603125 0.246875 0.000000
0.675000 0.246875 0.000000
0.746875 0.246875 0.000000
0.818750 0.246875 0.000000
0.890625 0.246875 0.000000
0.962500 0.246875 0.000000
1.000000 0.246875 0.000000
1.000000 0.246875 0.000000
1.000000 0.246875 0.000000
1.000000 0.246875 0.000000
0.100000 0.312500 0.000000
0.171875 0.312500 0.000000
0.243750 0.312500 0.000000
0.315625 0.312500 0.000000
0.387500 0.312500 0.000000
0.459375 0.312500 0.000000
0.531250 0.312500 0.000000
0.603125 0.312500 0.000000
0.675000 0.312500 0.000000
0.746875 0.312500 0.000000
0.818750 0.312500 0.000000
0.890625 0.312500 0.000000
0.962500 0.312500 0.000000
1.000000 0.312500 0.000000
1.000000 0.312500 0.000000
1.000000 0.312500 0.000000
1.000000 0.312500 0.000000
0.100000 0.378125 0.000000
0.171875 0.378125 0.000000
0.243750 0.378125 0.000000
0.315625 0.378125 0.000000
0.387500 0.378125 0.000000
0.459375 0.378125 0.000000
0.531250 0.378125 0.000000
0.603125 0.378125 0.000000
0.675000 0.378125 0.000000
0.746875 0.378125 0.000000
0.818750 0.378125 0.000000
0.890625 0.378125 0.000000
0.962500 0.378125 0.000000
1.000000 0.378125 0.000000
1.000000 0.378125 0.000000
1.000000 0.378125 0.000000
1.000000 0.378125 0.000000
0.100000 0.443750 0.000000
0.171875 0.443750 0.000000
0.243750 0.443750 0.000000
0.315625 0.443750 0.000000
0.387500 0.443750 0.000000
0.459375 0.443750 0.000000
0.531250 0.443750 0.000000
0.603125 0.443750 0.000000
0.675000 0.443750 0.000000
0.746875 0.443750 0.000000
0.818750 0.443750 0.000000
0.890625 0.443750 0.000000
0.962500 0.443750 0.000000
1.000000 0.443750 0.000000
1.000000 0.443750 0.000000
1.000000 0.443750 0.000000
1.000000 0.443750 0.000000
0.100000 0.509375 0.000000
0.171875 0.509375 0.000000
0.243750 0.509375 0.000000
0.315625 0.509375 0.000000
0.387500 0.509375 0.000000
0.459375 0.509375 0.000000
0.531250 0.509375 0.000000
0.603125 0.509375 0.000000
0.675000 0.509375 0.000000
0.746875 0.509375 0.000000
0.818750 0.509375 0.000000
0.890625 0.509375 0.000000
0.962500 0.509375 0.000000
1.000000 0.509375 0.000000
1.000000 0.509375 0.000000
1.000000 0.509375 0.000000
1.000000 0.509375 0.000000
0.100000 0.575000 0.000000
0.171875 0.575000 0.000000
0.243750 0.575000 0.000000
0.315625 0.575000 0.000000
0.387500 0.575000 0.000000
0.459375 0.575000 0.000000
0.531250 0.575000 0.000000
0.603125 0.575000 0.000000
0.675000 0.575000 0.000000
0.746875 0.575000 0.000000
0.818750 0.575000 0.000000
0.890625 0.575000 0.000000
0.962500 0.575000 0.000000
1.000000 0.575000 0.000000
1.000000 0.575000 0.000000
1.000000 0.575000 0.000000
1.000000 0.575000 0.000000
0.100000 0.640625 0.000000
0.171875 0.640625 0.000000
0.243750 0.640625 0.000000
0.315625 0.640625 0.000000
0.387500 0.640625 0.000000
0.459375 0.640625 0.000000
0.531250 0.640625 0.000000
0.603125 0.640625 0.000000
0.675000 0.640625 0.000000
0.746875 0.640625 0.000000
0.818750 0.640625 0.000000
0.890625 0.640625 0.000000
0.962500 0.640625 0.000000
1.000000 0.640625 0.000000
1.000000 0.640625 0.000000
1.000000 0.640625 0.000000
1.000000 0.640625 0.000000
0.100000 0.706250 0.000000
0.171875 0.706250 0.000000
0.243750 0.706250 0.000000
0.315625 0.706250 0.000000
0.387500 0.706250 0.000000
0.459375 0.706250 0.000000
0.531250 0.706250 0.000000
0.603125 0.706250 0.000000
0.675000 0.706250 0.000000
0.746875 0.706250 0.000000
0.818750 0.706250 0.000000
0.890625 0.706250 0.000000
0.962500 0.706250 0.000000
1.000000 0.706250 0.000000
1.000000 0.706250 0.000000
1.000000 0.706250 0.000000
1.000000 0.706250 0.000000
0.100000 0.771875 0.000000
0.171875 0.771875 0.000000
0.243750 0.771875 0.000000
0.315625 0.771875 0.000000
0.387500 0.771875 0.000000
0.459375 0.771875 0.000000
0.531250 0.771875 0.000000
0.603125 0.771875 0.000000
0.675000 0.771875 0.000000
0.746875 0.771875 0.000000
0.818750 0.771875 0.000000
0.890625 0.771875 0.000000
0.962500 0.771875 0.000000
1.000000 0.771875 0.000000
1.000000 0.771875 0.000000
1.000000 0.771875 0.000000
1.000000 0.771875 0.000000
0.100000 0.837500 0.000000
0.171875 0.837500 0.000000
0.243750 0.837500 0.000000
0.315625 0.837500 0.000000
0.387500 0.837500 0.000000
0.459375 0.837500 0.000000
0.531250 0.837500 0.000000
0.603125 0.837500 0.000000
0.675000 0.837500 0.000000
0.746875 0.837500 0.000000
0.818750 0.837500 0.000000
0.890625 0.837500 0.000000
0.962500 0.837500 0.000000
1.000000 0.837500 0.000000
1.000000 0.837500 0.000000
1.000000 0.837500 0.000000
1.000000 0.837500 0.000000
0.100000 0.903125 0.000000
0.171875 0.903125 0.000000
0.243750 0.903125 0.000000
0.315625 0.903125 0.000000
0.387500 0.903125 0.000000
0.459375 0.903125 0.000000
0.531250 0.903125 0.000000
0.603125 0.903125 0.000000
0.675000 0.903125 0.000000
0.746875 0.903125 0.000000
0.818750 0.903125 0.000000
0.890625 0.903125 0.000000
0.962500 0.903125 0.000000
1.000000 0.903125 0.000000
1.000000 0.903125 0.000000
1.000000 0.903125 0.000000
1.000000 0.903125 0.000000
0.100000 0.968750 0.000000
0.171875 0.968750 0.000000
0.243750 0.968750 0.000000
0.315625 0.968750 0.000000
0.387500 0.968750 0.000000
0.459375 0.968750 0.000000
0.531250 0.968750 0.000000
0.603125 0.968750 0.000000
0.675000 0.968750 0.000000
0.746875 0.968750 0.000000
0.818750 0.968750 0.000000
0.890625 0.968750 0.000000
0.962500 0.968750 0.000000
1.000000 0.968750 0.000000
1.000000 0.968750 0.000000
1.000000 0.968750 0.000000
1.000000 0.968750 0.000000
0.100000 1.000000 0.000000
0.171875 1.000000 0.000000
0.243750 1.000000 0.000000
0.315625 1.000000 0.000000
0.387500 1.000000 0.000000
0.459375 1.000000 0.000000
0.531250 1.000000 0.000000
0.603125 1.000000 0.000000
0.675000 1.000000 0.000000
0.746875 1.000000 0.000000
0.818750 1.000000 0.000000
0.890625 1.000000 0.000000
0.962500 1.000000 0.000000
1.000000 1.000000 0.000000
1.000000 1.000000 0.000000
1.000000 1.000000 0.000000
1.000000 1.000000 0.000000
0.100000 1.000000 0.000000
0.171875 1.000000 0.000000
0.243750 1.000000 0.000000
0.315625 1.000000 0.000000
0.387500 1.000000 0.000000
0.459375 1.000000 0.000000
0.531250 1.000000 0.000000
0.603125 1.000000 0.000000
0.675000 1.000000 0.000000
0.746875 1.000000 0.000000
0.818750 1.000000 0.000000
0.890625 1.000000 0.000000
0.962500 1.000000 0.000000
1.000000 1.000000 0.000000
1.000000 1.000000 0.000000
1.000000 1.000000 0.000000
1.000000 1.000000 0.000000
0.100000 0.050000 0.006250
0.171875 0.050000 0.006250
0.243750 0.050000 0.006250
0.315625 0.050000 0.006250
0.387500 0.050000 0.006250
0.459375 0.050000 0.006250
0.531250 0.050000 0.006250
0.603125 0.050000 0.006250
0.675000 0.050000 0.006250
0.746875 0.050000 0.006250
0.818750 0.050000 0.006250
0.890625 0.050000 0.006250
0.962500 0.050000 0.006250
1.000000 0.050000 0.006250
1.000000 0.050000 0.006250
1.000000 0.050000 0.006250
1.000000 0.050000 0.006250
0.100000 0.115625 0.006250
0.171875 0.115625 0.006250
0.243750 0.115625 0.006250
0.315625 0.115625 0.006250
0.387500 0.115625 0.006250
0.459375 0.115625 0.006250
0.531250 0.115625 0.006250
0.603125 0.115625 0.006250
0.675000 0.115625 0.006250
0.746875 0.115625 0.006250
0.818750 0.115625 0.006250
0.890625 0.115625 0.006250
0.962500 0.115625 0.006250
1.000000 0.115625 0.006250
1.000000 0.115625 0.006250
1.000000 0.115625 0.006250
1.000000 0.115625 0.006250
0.100000 0.181250 0.006250
0.171875 0.181250 0.006250
0.243750 0.181250 0.006250
0.315625 0.181250 0.006250
0.387500 0.181250 0.006250
0.459375 0.181250 0.006250
0.531250 0.181250 0.006250
0.603125 0.181250 0.006250
0.675000 0.181250 0.006250
0.746875 0.181250 0.006250
0.818750 0.181250 0.006250
0.890625 0.181250 0.006250
0.962500 0.181250 0.006250
1.000000 0.181250 0.006250
1.000000 0.181250 0.006250
1.000000 0.181250 0.006250
1.000000 0.181250 0.006250
0.100000 0.246875 0.006250
0.171875 0.246875 0.006250
0.243750 0.246875 0.006250
0.315625 0.246875 0.006250
0.387500 0.246875 0.006250
0.459375 0.246875 0.006250
0.531250 0.246875 0.006250
0.603125 0.246875 0.006250
0.675000 0.246875 0.006250
0.746875 0.246875 0.006250
0.818750 0.246875 0.006250
0.890625 0.246875 0.006250
0.962500 0.246875 0.006250
1.000000 0.246875 0.006250
1.000000 0.246875 0.006250
1.000000 0.246875 0.006250
1.000000 0.246875 0.006250
0.100000 0.312500 0.006250
0.171875 0.312500 0.006250
0.243750 0.312500 0.006250
0.315625 0.312500 0.006250
0.387500 0.312500 0.006250
0.459375 0.312500 0.006250
0.531250 0.312500 0.006250
0.603125 0.312500 0.006250
0.675000 0.312500 0.006250
0.746875 0.312500 0.006250
0.818750 0.312500 0.006250
0.890625 0.312500 0.006250
0.962500 0.312500 0.006250
1.000000 0.312500 0.006250
1.000000 0.312500 0.006250
1.000000 0.312500 0.006250
1.000000 0.312500 0.006250
0.100000 0.378125 0.006250
0.171875 0.378125 0.006250
0.243750 0.378125 0.006250
0.315625 0.378125 0.006250
0.387500 0.378125 0.006250
0.459375 0.378125 0.006250
0.531250 0.378125 0.006250
0.603125 0.378125 0.006250
0.675000 0.378125 0.006250
0.746875 0.378125 0.006250
0.818750 0.378125 0.006250
0.890625 0.378125 0.006250
0.962500 0.378125 0.006250
1.000000 0.378125 0.006250
1.000000 0.378125 0.006250
1.000000 0.378125 0.006250
1.000000 0.378125 0.006250
0.100000 0.443750 0.006250
0.171875 0.443750 0.006250
0.243750 0.443750 0.006250
0.315625 0.443750 0.006250
0.387500 0.443750 0.006250
0.459375 0.443750 0.006250
0.531250 0.443750 0.006250
0.603125 0.443750 0.006250
0.675000 0.443750 0.006250
0.746875 0.443750 0.006250
0.818750 0.443750 0.006250
0.890625 0.443750 0.006250
0.962500 0.443750 0.006250
1.000000 0.443750 0.006250
1.000000 0.443750 0.006250
1.000000 0.443750 0.006250
1.000000 0.443750 0.006250
0.100000 0.509375 0.006250
0.171875 0.509375 0.006250
0.243750 0.509375 0.006250
0.315625 0.509375 0.006250
0.387500 0.509375 0.006250
0.459375 0.509375 0.006250
0.531250 0.509375 0.006250
0.603125 0.509375 0.006250
0.675000 0.509375 0.006250
0.746875 0.509375 0.006250
0.818750 0.509375 0.006250
0.890625 0.509375 0.006250
0.962500 0.509375 0.006250
1.000000 0.509375 0.006250
1.000000 0.509375 0.006250
1.000000 0.509375 0.006250
1.000000 0.509375 0.006250
0.100000 0.575000 0.006250
0.171875 0.575000 0.006250
0.243750 0.575000 0.006250
0.315625 0.575000 0.006250
0.387500 0.575000 0.006250
0.459375 0.575000 0.006250
0.531250 0.575000 0.006250
0.603125 0.575000 0.006250
0.675000 0.575000 0.006250
0.746875 0.575000 0.006250
0.818750 0.575000 0.006250
0.890625 0.575000 0.006250
0.962500 0.575000 0.006250
1.000000 0.575000 0.006250
1.000000 0.575000 0.006250
1.000000 0.575000 0.006250
1.000000 0.575000 0.006250
0.100000 0.640625 0.006250
0.171875 0.640625 0.006250
0.243750 0.640625 0.006250
0.315625 0.640625 0.006250
0.387500 0.640625 0.006250
0.459375 0.640625 0.006250
0.531250 0.640625 0.006250
0.603125 0.640625 0.006250
0.675000 0.640625 0.006250
0.746875 0.640625 0.006250
0.818750 0.640625 0.006250
0.890625 0.640625 0.006250
0.962500 0.640625 0.006250
1.000000 0.640625 0.006250
1.000000 0.640625 0.006250
1.000000 0.640625 0.006250
1.000000 0.640625 0.006250
0.100000 0.706250 0.006250
0.171875 0.706250 0.006250
0.243750 0.706250 0.006250
0.315625 0.706250 0.006250
0.387500 0.706250 0.006250
0.459375 0.706250 0.006250
0.531250 0.706250 0.006250
0.603125 0.706250 0.006250
0.675000 0.706250 0.006250
0.746875 0.706250 0.006250
0.818750 0.706250 0.006250
0.890625 0.706250 0.006250
0.962500 0.706250 0.006250
1.000000 0.706250 0.006250
1.000000 0.706250 0.006250
1.000000 0.706250 0.006250
1.000000 0.706250 0.006250
0.100000 0.771875 0.006250
0.171875 0.771875 0.006250
0.243750 0.771875 0.006250
0.315625 0.771875 0.006250
0.387500 0.771875 0.006250
0.459375 0.771875 0.006250
0.531250 0.771875 0.006250
0.603125 0.771875 0.006250
0.675000 0.771875 0.006250
0.746875 0.771875 0.006250
0.818750 0.771875 0.006250
0.890625 0.771875 0.006250
0.962500 0.771875 0.006250
1.000000 0.771875 0.006250
1.000000 0.771875 0.006250
1.000000 0.771875 0.006250
1.000000 0.771875 0.006250
0.100000 0.837500 0.006250
0.171875 0.837500 0.006250
0.243750 0.837500 0.006250
0.315625 0.837500 0.006250
0.387500 0.837500 0.006250
0.459375 0.837500 0.006250
0.531250 0.837500 0.006250
0.603125 0.837500 0.006250
0.675000 0.837500 0.006250
0.746875 0.837500 0.006250
0.818750 0.837500 0.006250
0.890625 0.837500 0.006250
0.962500 0.837500 0.006250
1.000000 0.837500 0.006250
1.000000 0.837500 0.006250
1.000000 0.837500 0.006250
1.000000 0.837500 0.006250
0.100000 0.903125 0.006250
0.171875 0.903125 0.006250
0.243750 0.903125 0.006250
0.315625 0.903125 0.006250
0.387500 0.903125 0.006250
0.459375 0.903125 0.006250
0.531250 0.903125 0.006250
0.603125 0.903125 0.006250
0.675000 0.903125 0.006250
0.746875 0.903125 0.006250
0.818750 0.903125 0.006250
0.890625 0.903125 0.006250
0.962500 0.903125 0.006250
1.000000 0.903125 0.006250
1.000000 0.903125 0.006250
1.000000 0.903125 0.006250
1.000000 0.903125 0.006250
0.100000 0.968750 0.006250
0.171875 0.968750 0.006250
0.243750 0.968750 0.006250
0.315625 0.968750 0.006250
0.387500 0.968750 0.006250
0.459375 0.968750 0.006250
0.531250 0.968750 0.006250
0.603125 0.968750 0.006250
0.675000 0.968750 0.006250
0.746875 0.968750 0.006250
0.818750 0.968750 0.006250
0.890625 0.968750 0.006250
0.962500 0.968750 0.006250
1.000000 0.968750 0.006250
1.000000 0.968750 0.006250
1.000000 0.968750 0.006250
1.000000 0.968750 0.006250
0.100000 1.000000 0.006250
0.171875 1.000000 0.006250
0.243750 1.000000 0.006250
0.315625 1.000000 0.006250
0.387500 1.000000 0.006250
0.459375 1.000000 0.006250
0.531250 1.000000 0.006250
0.603125 1.000000 0.006250
0.675000 1.000000 0.006250
0.746875 1.000000 0.006250
0.818750 1.000000 0.006250
0.890625 1.000000 0.006250
0.962500 1.000000 0.006250
1.000000 1.000000 0.006250
1.000000 1.000000 0.006250
1.000000 1.000000 0.006250
1.000000 1.000000 0.006250
0.100000 1.000000 0.006250
0.171875 1.000000 0.006250
0.243750 1.000000 0.006250
0.315625 1.000000 0.006250
0.387500 1.000000 0.006250
0.459375 1.000000 0.006250
0.531250 1.000000 0.006250
0.603125 1.000000 0.006250
0.675000 1.000000 0.006250
0.746875 1.000000 0.006250
0.818750 1.000000 0.006250
0.890625 1.000000 0.006250
0.962500 1.000000 0.006250
1.000000 1.000000 0.006250
1.000000 1.000000 0.006250
1.000000 1.000000 0.006250
1.000000 1.000000 0.006250
0.100000 0.050000 0.062500
0.171875 0.050000 0.062500
0.243750 0.050000 0.062500
0.315625 0.050000 0.062500
0.387500 0.050000 0.062500
0.459375 0.050000 0.062500
0.531250 0.050000 0.062500
0.603125 0.050000 0.062500
0.675000 0.050000 0.062500
0.746875 0.050000 0.062500
0.818750 0.050000 0.062500
0.890625 0.050000 0.062500
0.962500 0.050000 0.062500
1.000000 0.050000 0.062500
1.000000 0.050000 0.062500
1.000000 0.050000 0.062500
1.000000 0.050000 0.062500
0.100000 0.115625 0.062500
0.171875 0.115625 0.062500
0.243750 0.115625 0.062500
0.315625 0.115625 0.062500
0.387500 0.115625 0.062500
0.459375 0.115625 0.062500
0.531250 0.115625 0.062500
0.603125 0.115625 0.062500
0.675000 0.115625 0.062500
0.746875 0.115625 0.062500
0.818750 0.115625 0.062500
0.890625 0.115625 0.062500
0.962500 0.115625 0.062500
1.000000 0.115625 0.062500
1.000000 0.115625 0.062500
1.000000 0.115625 0.062500
1.000000 0.115625 0.062500
0.100000 0.181250 0.062500
0.171875 0.181250 0.062500
0.243750 0.181250 0.062500
0.315625 0.181250 0.062500
0.387500 0.181250 0.062500
0.459375 0.181250 0.062500
0.531250 0.181250 0.062500
0.603125 0.181250 0.062500
0.675000 0.181250 0.062500
0.746875 0.181250 0.062500
0.818750 0.181250 0.062500
0.890625 0.181250 0.062500
0.962500 0.181250 0.062500
1.000000 0.181250 0.062500
1.000000 0.181250 0.062500
1.000000 0.181250 0.062500
1.000000 0.181250 0.062500
0.100000 0.246875 0.062500
0.171875 0.246875 0.062500
0.243750 0.246875 0.062500
0.315625 0.246875 0.062500
0.387500 0.246875 0.062500
0.459375 0.246875 0.062500
0.531250 0.246875 0.062500
0.603125 0.246875 0.062500
0.675000 0.246875 0.062500
0.746875 0.246875 0.062500
0.818750 0.246875 0.062500
0.890625 0.246875 0.062500
0.962500 0.246875 0.062500
1.000000 0.246875 0.062500
1.000000 0.246875 0.062500
1.000000 0.246875 0.062500
1.000000 0.246875 0.062500
0.100000 0.312500 0.062500
0.171875 0.312500 0.062500
0.243750 0.312500 0.062500
0.315625 0.312500 0.062500
0.387500 0.312500 0.062500
0.459375 0.312500 0.062500
0.531250 0.312500 0.062500
0.603125 0.312500 0.062500
0.675000 0.312500 0.062500
0.746875 0.312500 0.062500
0.818750 0.312500 0.062500
0.890625 0.312500 0.062500
0.962500 0.312500 0.062500
1.000000 0.312500 0.062500
1.000000 0.312500 0.062500
1.000000 0.312500 0.062500
1.000000 0.312500 0.062500
0.100000 0.378125 0.062500
0.171875 0.378125 0.062500
0.243750 0.378125 0.062500
0.315625 0.378125 0.062500
0.387500 0.378125 0.062500
0.459375 0.378125 0.062500
0.531250 0.378125 0.062500
0.603125 0.378125 0.062500
0.675000 0.378125 0.062500
0.746875 0.378125 0.062500
0.818750 0.378125 0.062500
0.890625 0.378125 0.062500
0.962500 0.378125 0.062500
1.000000 0.378125 0.062500
1.000000 0.378125 0.062500
1.000000 0.378125 0.062500
1.000000 0.378125 0.062500
0.100000 0.443750 0.062500
0.171875 0.443750 0.062500
0.243750 0.443750 0.062500
0.315625 0.443750 0.062500
0.387500 0.443750 0.062500
0.459375 0.443750 0.062500
0.531250 0.443750 0.062500
0.603125 0.443750 0.062500
0.675000 0.443750 0.062500
0.746875 0.443750 0.062500
0.818750 0.443750 0.062500
0.890625 0.443750 0.062500
0.962500 0.443750 0.062500
1.000000 0.443750 0.062500
1.000000 0.443750 0.062500
1.000000 0.443750 0.062500
1.000000 0.443750 0.062500
0.100000 0.509375 0.062500
0.171875 0.509375 0.062500
0.243750 0.509375 0.062500
0.315625 0.509375 0.062500
0.387500 0.509375 0.062500
0.459375 0.509375 0.062500
0.531250 0.509375 0.062500
0.603125 0.509375 0.062500
0.675000 0.509375 0.062500
0.746875 0.509375 0.062500
0.818750 0.509375 0.062500
0.890625 0.509375 0.062500
0.962500 0.509375 0.062500
1.000000 0.509375 0.062500
1.000000 0.509375 0.062500
1.000000 0.509375 0.062500
1.000000 0.509375 0.062500
0.100000 0.575000 0.062500
0.171875 0.575000 0.062500
0.243750 0.575000 0.062500
0.315625 0.575000 0.062500
0.387500 0.575000 0.062500
0.459375 0.575000 0.062500
0.531250 0.575000 0.062500
0.603125 0.575000 0.062500
0.675000 0.575000 0.062500
0.746875 0.575000 0.062500
0.818750 0.575000 0.062500
0.890625 0.575000 0.062500
0.962500 0.575000 0.062500
1.000000 0.575000 0.062500
1.000000 0.575000 0.062500
1.000000 0.575000 0.062500
1.000000 0.575000 0.062500
0.100000 0.640625 0.062500
0.171875 0.640625 0.062500
0.243750 0.640625 0.062500
0.315625 0.640625 0.062500
0.387500 0.640625 0.062500
0.459375 0.640625 0.062500
0.531250 0.640625 0.062500
0.603125 0.640625 0.062500
0.675000 0.640625 0.062500
0.746875 0.640625 0.062500
0.818750 0.640625 0.062500
0.890625 0.640625 0.062500
0.962500 0.640625 0.062500
1.000000 0.640625 0.062500
1.000000 0.640625 0.062500
1.000000 0.640625 0.062500
1.000000 0.640625 0.062500
0.100000 0.706250 0.062500
0.171875 0.706250 0.062500
0.243750 0.706250 0.062500
0.315625 0.706250 0.062500
0.387500 0.706250 0.062500
0.459375 0.706250 0.062500
0.531250 0.706250 0.062500
0.603125 0.706250 0.062500
0.675000 0.706250 0.062500
0.746875 0.706250 0.062500
0.818750 0.706250 0.062500
0.890625 0.706250 0.062500
0.962500 0.706250 0.062500
1.000000 0.706250 0.062500
1.000000 0.706250 0.062500
1.000000 0.706250 0.062500
1.000000 0.706250 0.062500
0.100000 0.771875 0.062500
0.171875 0.771875 0.062500
0.243750 0.771875 0.062500
0.315625 0.771875 0.062500
0.387500 0.771875 0.062500
0.459375 0.771875 0.062500
0.531250 0.771875 0.062500
0.603125 0.771875 0.062500
0.675000 0.771875 0.062500
0.746875 0.771875 0.062500
0.818750 0.771875 0.062500
0.890625 0.771875 0.062500
0.962500 0.771875 0.062500
1.000000 0.771875 0.062500
1.000000 0.771875 0.062500
1.000000 0.771875 0.062500
1.000000 0.771875 0.062500
0.100000 0.837500 0.062500
0.171875 0.837500 0.062500
0.243750 0.837500 0.062500
0.315625 0.837500 0.062500
0.387500 0.837500 0.062500
0.459375 0.837500 0.062500
0.531250 0.837500 0.062500
0.603125 0.837500 0.062500
0.675000 0.837500 0.062500
0.746875 0.837500 0.062500
0.818750 0.837500 0.062500
0.890625 0.837500 0.062500
0.962500 0.837500 0.062500
1.000000 0.837500 0.062500
1.000000 0.837500 0.062500
1.000000 0.837500 0.062500
1.000000 0.837500 0.062500
0.100000 0.903125 0.062500
0.171875 0.903125 0.062500
0.243750 0.903125 0.062500
0.315625 0.903125 0.062500
0.387500 0.903125 0.062500
0.459375 0.903125 0.062500
0.531250 0.903125 0.062500
0.603125 0.903125 0.062500
0.675000 0.903125 0.062500
0.746875 0.903125 0.062500
0.818750 0.903125 0.062500
0.890625 0.903125 0.062500
0.962500 0.903125 0.062500
1.000000 0.903125 0.062500
1.000000 0.903125 0.062500
1.000000 0.903125 0.062500
1.000000 0.903125 0.062500
0.100000 0.968750 0.062500
0.171875 0.968750 0.062500
0.243750 0.968750 0.062500
0.315625 0.968750 0.062500
0.387500 0.968750 0.062500
0.459375 0.968750 0.062500
0.531250 0.968750 0.062500
0.603125 0.968750 0.062500
0.675000 0.968750 0.062500
0.746875 0.968750 0.062500
0.818750 0.968750 0.062500
0.890625 0.968750 0.062500
0.962500 0.968750 0.062500
1.000000 0.968750 0.062500
1.000000 0.968750 0.062500
1.000000 0.968750 0.062500
1.000000 0.968750 0.062500
0.100000 1.000000 0.062500
0.171875 1.000000 0.062500
0.243750 1.000000 0.062500
0.315625 1.000000 0.062500
0.387500 1.000000 0.062500
0.459375 1.000000 0.062500
0.531250 1.000000 0.062500
0.603125 1.000000 0.062500
0.675000 1.000000 0.062500
0.746875 1.000000 0.062500
0.818750 1.000000 0.062500
0.890625 1.000000 0.062500
0.962500 1.000000 0.062500
1.000000 1.000000 0.062500
1.000000 1.000000 0.062500
1.000000 1.000000 0.062500
1.000000 1.000000 0.062500
0.100000 1.000000 0.062500
0.171875 1.000000 0.062500
0.243750 1.000000 0.062500
0.315625 1.000000 0.062500
0.387500 1.000000 0.062500
0.459375 1.000000 0.062500
0.531250 1.000000 0.062500
0.603125 1.000000 0.062500
0.675000 1.000000 0.062500
0.746875 1.000000 0.062500
0.818750 1.000000 0.062500
0.890625 1.000000 0.062500
0.962500 1.000000 0.062500
1.000000 1.000000 0.062500
1.000000 1.000000 0.062500
1.000000 1.000000 0.062500
1.000000 1.000000 0.062500
0.100000 0.050000 0.118750
0.171875 0.050000 0.118750
0.243750 0.050000 0.118750
0.315625 0.050000 0.118750
0.387500 0.050000 0.118750
0.459375 0.050000 0.118750
0.531250 0.050000 0.118750
0.603125 0.050000 0.118750
0.675000 0.050000 0.118750
0.746875 0.050000 0.118750
0.818750 0.050000 0.118750
0.890625 0.050000 0.118750
0.962500 0.050000 0.118750
1.000000 0.050000 0.118750
1.000000 0.050000 0.118750
1.000000 0.050000 0.118750
1.000000 0.050000 0.118750
0.100000 0.115625 0.118750
0.171875 0.115625 0.118750
